/* XPM */
static char *i_mino[] = {
/* columns rows colors chars-per-pixel */
"20 20 138 2 ",
"   c #046E75",
".  c #036E78",
"X  c #047178",
"o  c #03727E",
"O  c #04757F",
"+  c #5D5F67",
"@  c #4B767E",
"#  c #557B7F",
"$  c #597E7A",
"%  c #037383",
"&  c #037989",
"*  c #037C8B",
"=  c #0D7D8E",
"-  c #12748A",
";  c #13798B",
":  c #0F7F93",
">  c #547082",
",  c #557A80",
"<  c #587A80",
"1  c #587D81",
"2  c #0E868D",
"3  c #128B8F",
"4  c #038392",
"5  c #048290",
"6  c #048491",
"7  c #038694",
"8  c #0E8191",
"9  c #0D8794",
"0  c #068997",
"q  c #0D8895",
"w  c #0D8A97",
"e  c #038998",
"r  c #038B9A",
"t  c #038C9B",
"y  c #038B9C",
"u  c #04899C",
"i  c #038D9E",
"p  c #0D8E9E",
"a  c #139096",
"s  c #159398",
"d  c #15939B",
"f  c #17969E",
"g  c #18969E",
"h  c #038EA1",
"j  c #038FA3",
"k  c #0791A2",
"l  c #0390A4",
"z  c #0490A4",
"x  c #0394A7",
"c  c #0990A1",
"v  c #0493A8",
"b  c #0396AB",
"n  c #0494A9",
"m  c #0796A8",
"M  c #0397AC",
"N  c #039AAF",
"B  c #0899AA",
"V  c #1090A1",
"C  c #1193A5",
"Z  c #1997A7",
"A  c #1798A2",
"S  c #1799A3",
"D  c #159CA0",
"F  c #199AA3",
"G  c #1A9CA6",
"H  c #169BA8",
"J  c #149CAF",
"K  c #1F9FAB",
"L  c #039BB1",
"P  c #039CB2",
"I  c #039DB3",
"U  c #059CB1",
"Y  c #079FB3",
"T  c #039EB4",
"R  c #049FB5",
"E  c #0D9FB2",
"W  c #0C9FB3",
"Q  c #1E9FB1",
"!  c #229AAA",
"~  c #209EAA",
"^  c #2B9EA9",
"/  c #15A4A3",
"(  c #16A5A5",
")  c #19A7A6",
"_  c #1FA0AE",
"`  c #18A8A9",
"'  c #1AA9A8",
"]  c #18A0B2",
"[  c #2AA5A3",
"{  c #20A1AF",
"}  c #23A2AF",
"|  c #2BA2B0",
" . c #2FA1B2",
".. c #2CA3B4",
"X. c #31A3B2",
"o. c #31A3B3",
"O. c #3CA3B3",
"+. c #3EA6B5",
"@. c #45A4B0",
"#. c #43A5B6",
"$. c #48A6B7",
"%. c #48A7B7",
"&. c #43A8B6",
"*. c #45A8B7",
"=. c #49A8B6",
"-. c #4BA9B9",
";. c #4EAAB9",
":. c #4FACBA",
">. c #57ABBB",
",. c #55ACBA",
"<. c #56ACBA",
"1. c #5CADBC",
"2. c #5EAEBC",
"3. c #59B1BB",
"4. c #5BB4BD",
"5. c #5CB5BE",
"6. c #63AFBD",
"7. c #64B2BE",
"8. c #61B4BE",
"9. c #69B0BE",
"0. c #64BABD",
"q. c #5DB7C0",
"w. c #64B7C0",
"e. c #6EB3C0",
"r. c #6EB5C0",
"t. c #62B8C0",
"y. c #64BAC2",
"u. c #69B8C1",
"i. c #6BB9C1",
"p. c #71B3C0",
"a. c #77B4C1",
"s. c #7AB5C1",
"d. c #7DB6C3",
"f. c #77B9C2",
"g. c #78B9C3",
"h. c #82B7C4",
"j. c #83B7C4",
"k. c #84B8C4",
/* pixels */
"+ @ # $ 1 1 1 1 1 1 1 < < 1 < , < < < > ",
"[ #.4.0.y.y.y.y.w.y.y.y.y.y.y.w.w.t.5.=.",
"` | &.q.i.i.i.i.i.i.i.i.i.i.i.i.y.3.^ Z ",
"` { | 5.f.f.f.f.g.g.g.g.g.g.g.f.e.@.p C ",
"` { } 8.k.k.k.j.h.d.s.s.a.a.a.a.r.O.c C ",
"` { { 2.j.s.p.p.r.9.7.1.1.<.:.:.+.! c C ",
"` { { <.9.6.6.2.>.:.$.+...] W W R B l V ",
"' { ~ =.<.<.;.*.X.Q W W Y R R R U N i V ",
") _ _ O.$.#. .Q R R R R R R R R P M t p ",
") ~ Q X. .] P P L R P U R R R R U M t q ",
"/ F G H N U P L L N N P L L P P N x i w ",
"/ F S B N N N N N P P N N N N L N j e q ",
"/ F F m N N N N N N N N N N N N M l 7 9 ",
"' F S m M M M N M M M M M M M M n j 6 9 ",
"/ g f k n n n n v v n n n M v M z j 4 8 ",
"S s s k n n n n n n n n v z z M M u 6 8 ",
"a s s i k j z z z z z z z z z z z r & = ",
"a s s 0 y y u u u u u u u u u u r 6 & ; ",
"a s 2 O o o o o o o o o o o o o o o % ; ",
"3 O X                               . - "
};
