/* XPM */
static char *imbada[] = {
/* columns rows colors chars-per-pixel */
"117 91 256 2 ",
"   c #1819AC",
".  c #0A0ABA",
"X  c #1715B8",
"o  c #231EB4",
"O  c #1E24BB",
"+  c #2523AE",
"@  c #3231AE",
"#  c #2624B9",
"$  c #3B39BB",
"%  c #4646B4",
"&  c #5154BA",
"*  c #0305CC",
"=  c #0509CC",
"-  c #0B0ACA",
";  c #130DC9",
":  c #0C11C4",
">  c #0E12CC",
",  c #1613C4",
"<  c #1B15C5",
"1  c #1C1AC2",
"2  c #1413CD",
"3  c #1A12CA",
"4  c #1619C8",
"5  c #1B1BCB",
"6  c #0406D5",
"7  c #0A06D4",
"8  c #0509D3",
"9  c #0B0BD4",
"0  c #0505DD",
"q  c #0A06DD",
"w  c #0609DB",
"e  c #0C0ADC",
"r  c #120ED6",
"t  c #120EDC",
"y  c #0E13D2",
"u  c #0E11DC",
"i  c #1413D4",
"p  c #1913D4",
"a  c #1319D2",
"s  c #1C1CD1",
"d  c #1411DB",
"f  c #1C15D8",
"g  c #1A19D9",
"h  c #221CC5",
"j  c #251FD0",
"k  c #231EDA",
"l  c #1F21CA",
"z  c #1D23D6",
"x  c #1D24DA",
"c  c #2826C6",
"v  c #2323CD",
"b  c #2D2DCA",
"n  c #342EC7",
"m  c #3332C3",
"M  c #3233CB",
"N  c #3939CC",
"B  c #2324D3",
"V  c #2A28D7",
"C  c #2323DA",
"Z  c #342FD6",
"A  c #352EDC",
"S  c #2E31D5",
"D  c #2F34D9",
"F  c #3333D3",
"G  c #3839D5",
"H  c #3333DC",
"J  c #0305E3",
"K  c #0A04E3",
"L  c #0509E3",
"P  c #0B0AE4",
"I  c #0304EC",
"U  c #0904EB",
"Y  c #0408EC",
"T  c #0C0BEC",
"R  c #110EE6",
"E  c #1B1AE5",
"W  c #1618EB",
"Q  c #0202F4",
"!  c #0903F2",
"~  c #060AF3",
"^  c #0D0CF3",
"/  c #0101FE",
"(  c #0902FE",
")  c #0C0CFD",
"_  c #1406F8",
"`  c #110BFB",
"'  c #0E11F5",
"]  c #1817F5",
"[  c #1515FC",
"{  c #141AFF",
"}  c #1A1DFE",
"|  c #221EE2",
" . c #231CF9",
".. c #1E22E4",
"X. c #1620FC",
"o. c #1C22FF",
"O. c #2222E4",
"+. c #2928E9",
"@. c #302EE2",
"#. c #2D32E6",
"$. c #3434E2",
"%. c #3836E8",
"&. c #2528F5",
"*. c #2325FE",
"=. c #2925FF",
"-. c #2A2AFF",
";. c #322DFA",
":. c #2E35FA",
">. c #3B3DF7",
",. c #3534F8",
"<. c #3434FF",
"1. c #3B32FF",
"2. c #3B3DFF",
"3. c #403CC2",
"4. c #443FE7",
"5. c #403BFF",
"6. c #3D40D6",
"7. c #3D42FF",
"8. c #4646C7",
"9. c #5556C7",
"0. c #4443D5",
"q. c #4645DA",
"w. c #4B4DD9",
"e. c #524ED8",
"r. c #4F51D7",
"t. c #5354DA",
"y. c #5855DD",
"u. c #575AD9",
"i. c #6E68DB",
"p. c #716DD7",
"a. c #7777DB",
"s. c #4A48E7",
"d. c #4C4BE4",
"f. c #514DE2",
"g. c #514FEA",
"h. c #4D50EA",
"j. c #5456E9",
"k. c #4A44F1",
"l. c #4343FF",
"z. c #474CFE",
"x. c #4C4BFF",
"c. c #504FF2",
"v. c #514DFF",
"b. c #4B53F9",
"n. c #4C51FF",
"m. c #5355F4",
"M. c #595DF4",
"N. c #5254FF",
"B. c #5559FE",
"V. c #5B5CFE",
"C. c #605EEF",
"Z. c #5E63F2",
"A. c #5C61FC",
"S. c #6768E6",
"D. c #6A66EA",
"F. c #6C6AED",
"G. c #706AEA",
"H. c #6F76EB",
"J. c #7575E4",
"K. c #7273EE",
"L. c #6967F7",
"P. c #6D6DF4",
"I. c #6364FD",
"U. c #6669FC",
"Y. c #6B6CFD",
"T. c #756EFB",
"R. c #736EFE",
"E. c #6B71F8",
"W. c #6C72FD",
"Q. c #7575F4",
"!. c #7C7CF5",
"~. c #7474FE",
"^. c #7975FF",
"/. c #757CFE",
"(. c #7D7BFF",
"). c #827EEA",
"_. c #817EF4",
"`. c #827BFF",
"'. c #867BFF",
"]. c #7F82E5",
"[. c #7D81FD",
"{. c #898BDA",
"}. c #A09DDC",
"|. c #8888E7",
" X c #8F93E0",
".X c #9A99E8",
"XX c #8B8BF5",
"oX c #8483FF",
"OX c #8A83FF",
"+X c #858BFD",
"@X c #8B8CFF",
"#X c #938FF6",
"$X c #918DFF",
"%X c #8D91FE",
"&X c #9998F4",
"*X c #9494FF",
"=X c #9993FE",
"-X c #959CFE",
";X c #9B9BFE",
":X c #A19EFD",
">X c #9DA1EA",
",X c #9DA3FD",
"<X c #99A5FF",
"1X c #A6A6ED",
"2X c #ADB2EE",
"3X c #BEBAED",
"4X c #A9A5F3",
"5X c #A8A8F5",
"6X c #A3A4FF",
"7X c #A9A6FF",
"8X c #A5ABFE",
"9X c #ACACFF",
"0X c #B4ADFE",
"qX c #ADB1F3",
"wX c #AEB2FF",
"eX c #BEB9F5",
"rX c #B4B3FF",
"tX c #BAB5FD",
"yX c #B4BAFF",
"uX c #BBBAFE",
"iX c #C2BCF4",
"pX c #C1BCFD",
"aX c #BEC2FE",
"sX c #BCC8FF",
"dX c #C9CDED",
"fX c #C4C7F3",
"gX c #C3C4FE",
"hX c #CAC4FF",
"jX c #C5CBFD",
"kX c #CCCCFF",
"lX c #D1CFF5",
"zX c #D2CEFE",
"xX c #CBD2F3",
"cX c #CED3FE",
"vX c #D7D8F5",
"bX c #D4D4FF",
"nX c #DAD5FF",
"mX c #D5DAFF",
"MX c #DBDCFF",
"NX c #E1DDFE",
"BX c #D8E2FA",
"VX c #DEE3FF",
"CX c #E9E7F6",
"ZX c #E3E4FE",
"AX c #EAE6FF",
"SX c #E6EAFF",
"DX c #EBECFF",
"FX c #F1E5FF",
"GX c #F2EDFF",
"HX c #EDF1FF",
"JX c #EEF9FF",
"KX c #FEFEF6",
"LX c #F4F4FF",
"PX c #F9F6FF",
"IX c #F6FAFF",
"UX c #FEFEFE",
/* pixels */
"UXUXUXUXUXUXUXUXUXUXUXUXUXUXUXUXUXUXUXUXUXUXUXUXUXUXUXUXUXUXUXUXUXUXUXUXUXUXUXcX&X!.~.~.^.T.R.R.^.:XNXPXUXUXUXUXUXUXUXUXUXUXUXUXUXUXSXkX|.~.~.W./.~.~.R._.pXAXUXUXUXUXUXUXUXUXUXUXUXUXUXUXUXUXUXUXUXUXUXUXUXUXUXUXUXUXUXUXUXUXUXUXUXUXUXUX",
"UXUXUXUXUXUXUXUXUXUXUXUXUXUXUXUXUXUXUXUXUXUXUXUXUXUXUXUXUXUXUXUXUXUXUXUXUXUXUX2X&   - i r ; ; . 5 9.zXUXUXUXUXUXUXUXUXUXUXUXUXUXUXLXBX>X@ : : : : - - - + {.lXPXUXUXPXUXPXUXUXUXUXUXUXUXUXUXUXUXUXUXUXUXUXUXUXUXUXUXUXUXUXUXUXUXUXUXUXUXUX",
"UXUXUXUXUXUXUXUXUXUXUXUXUXUXUXUXUXUXUXUXUXUXUXUXUXUXUXUXUXUXUXUXUXUXUXUXUXUXIXqX9.4 P R K q q 7 E r.kXUXUXUXUXUXUXUXUXUXUXUXUXUXUXUXMX;Xc w w L L J P K c XXvXPXUXUXPXUXPXUXUXUXUXUXUXUXUXUXUXUXUXUXUXUXUXUXUXUXUXUXUXUXUXUXUXUXUXUXUXUXUX",
"UXUXUXUXUXUXUXUXUXUXUXUXUXUXUXUXUXUXUXUXUXUXUXUXUXUXUXUXUXUXUXUXUXUXUXUXUXUXIX9Xr.a / / ( ( ! I ] f.kXPXUXUXUXUXUXUXUXUXUXUXUXUXUXPXNX;XV Q ~ / / ( ( ( k @XbXPXPXUXUXUXUXUXUXUXUXUXUXUXUXUXUXUXUXUXUXUXUXUXUXUXUXUXUXUXUXUXUXUXUXUXUXUXUX",
"UXUXUXUXUXUXUXUXUXUXUXUXUXUXUXUXUXUXUXUXUXUXUXUXUXUXUXUXUXUXUXUXUXUXUXUXUXUXIX9Xr.g / ) / / Q Q [ h.kXPXUXUXUXUXUXUXUXUXUXUXUXUXUXUXNX;XC / / / / / ( ( k @XbXIXUXPXUXUXUXUXUXUXUXUXUXUXUXUXUXUXUXUXUXUXUXUXUXUXUXUXUXUXUXUXUXUXUXUXUXUXUX",
"UXUXUXUXUXUXUXUXUXUXUXUXUXUXUXUXUXUXUXUXUXUXUXUXUXUXUXUXUXUXUXUXUXUXUXUXUXUXPX9Xr.p / / / / / I [ g.kXUXUXUXUXUXUXUXUXUXUXUXUXPXPXUXNX;XV ~ / ~ / / ( ( k $XbXPXPXKXUXUXUXUXUXUXUXUXUXUXUXUXUXUXUXUXUXUXUXUXUXUXUXUXUXUXUXUXUXUXUXUXUXUXUX",
"UXUXUXUXUXUXUXUXUXUXUXUXUXUXUXUXUXUXUXUXUXUXUXUXUXUXUXUXUXUXUXUXUXUXUXUXUXUXPX0Xr.a / / / / / I [ g.jXIXUXUXUXUXUXUXUXUXUXUXUXUXPXUXNX;XC / / / / / ( ( k @XzXIXUXUXKXUXIXUXUXUXUXUXUXUXUXUXUXUXUXUXUXUXUXUXUXUXUXUXUXUXUXUXUXUXUXUXUXUXUX",
"UXUXUXUXUXUXUXUXUXUXUXUXUXUXUXUXUXUXUXUXUXUXUXUXUXUXUXUXUXUXUXUXUXUXUXUXUXUXPX0Xr.5 Y Y Y U I I [ c.kXPXUXPXUXPXPXUXUXUXPXUXIXUXUXPXMX-XV Y Y I ~ T T U j #XlXUXUXUXUXUXUXUXUXUXUXUXUXUXUXUXUXUXUXUXUXUXUXUXUXUXUXUXUXUXUXUXUXUXUXUXUXUXUX",
"UXUXUXUXUXUXUXUXUXUXUXUXUXUXUXUXUXUXUXUXUXUXUXUXUXUXUXUXUXUXUXUXUXUXUXUXUXPXPXqX9.X 0 q 0 6 0 0 ] b.kXLXPXIXPXPXPXPXPXPXPXIXIXIXLXLXnX;Xv 6 0 0 0 7 7 7 O |.xXIXKXUXUXKXKXUXKXUXUXUXUXUXUXUXUXUXUXUXUXUXUXUXUXUXUXUXUXUXUXUXUXUXUXUXUXUXUX",
"UXUXUXUXUXUXUXUXUXUXUXUXUXUXUXUXUXUXUXUXUXUXUXUXUXUXUXUXUXUXUXUXUXUXUXUXUXUXPXpXJ.f.l.5.l.l.5.<.=.k.=X0XrXtXtXuXtXtXrXrXtXtXrXrXyXwX6X+Xm.7.l.7.l.l.l.l.u.8XBXIXUXKXKXKXKXKXUXUXUXKXUXUXUXUXUXUXUXUXUXUXUXUXUXUXUXUXUXUXUXUXUXUXUXUXUXUXUX",
"UXUXUXUXUXUXUXUXUXUXUXUXUXUXUXUXUXUXUXUXUXUXUXUXUXUXUXUXUXUXUXUXUXUXUXUXUXPXPXNXuX6X;X;X;X;X-X~.2.C s.y.y.y.y.y.y.y.y.y.y.u.u.t.t.t.u.P.%X<X-X;X;X;X6X;X8XcXHXIXUXUXUXKXKXUXUXUXUXUXUXUXUXUXUXUXUXUXUXUXUXUXUXUXUXUXUXUXUXUXUXUXUXUXUXUXUX",
"UXUXUXUXUXUXUXUXUXUXUXUXUXUXUXUXUXUXUXUXUXUXUXUXUXKXUXKXUXUXUXUXUXUXUXUXUXUXUXJXDXZXVXVXVXVXbX8XN.- g f f k g g g g g g g g a a a a #.Z.jXVXVXVXZXZXZXZXZXHXIXUXUXUXUXPXUXUXUXUXUXUXUXUXUXUXUXUXUXUXUXUXUXUXUXUXUXUXUXUXUXUXUXUXUXUXUXUXUX",
"UXUXUXUXUXUXUXUXUXUXUXUXUXUXUXUXUXUXUXKXUXUXKXUXKXKXUXKXUXUXUXUXUXUXUXUXUXUXUXIXUXUXIXIXIXIXDXyXB.8 I / / / ~ / ~ / / / / ~ / Q I Y X.A.cXIXIXUXPXPXUXUXPXUXUXUXUXUXUXUXUXUXUXUXUXUXUXUXUXUXUXUXUXUXUXUXUXUXUXUXUXUXUXUXUXUXUXUXUXUXUXUXUX",
"UXUXUXUXUXUXUXUXUXUXUXUXUXUXUXUXUXUXUXUXUXUXUXUXUXUXUXUXUXUXUXUXUXUXUXUXUXUXUXUXIXUXKXKXIXUXDXrXB.e Y / / / / / / / / / / / / ~ ~ Q o.A.mXUXIXUXUXIXPXPXUXUXUXUXUXUXUXUXPXUXPXUXUXUXUXUXUXUXUXUXUXUXUXUXUXUXUXUXUXUXUXUXUXUXUXUXUXUXUXUXUX",
"UXUXUXUXUXUXUXUXUXUXUXUXUXUXUXUXUXUXUXUXUXUXUXUXUXUXUXUXUXUXUXUXUXUXUXUXUXUXUXUXUXUXUXUXUXUXGXyXB.8 L / / / / / / / / / / / / ~ ~ I X.M.mXUXUXUXUXUXUXUXUXUXUXUXKXKXUXUXUXPXUXUXUXUXUXUXUXUXUXIXUXUXUXUXUXUXUXUXUXUXUXUXUXUXUXUXUXUXUXUXUX",
"UXUXUXUXUXUXUXUXUXUXUXUXUXUXKXUXUXUXUXUXUXUXUXUXUXUXUXUXUXUXUXUXUXUXUXUXUXUXUXUXUXUXUXUXUXUXGXuXB.8 U / / / / / / / / / / / / / Q I X.M.mXUXUXUXUXUXPXUXUXUXUXUXKXKXKXUXUXUXUXUXUXUXUXUXUXPXUXUXUXUXUXUXUXUXUXUXUXUXUXUXUXUXUXUXUXUXUXUXUX",
"UXUXUXUXUXUXUXUXUXUXUXUXUXUXKXUXUXUXUXUXPXPXUXPXUXPXUXUXUXUXUXUXUXUXUXUXUXUXUXUXIXUXUXUXUXUXGXuXB.6 I / / / / / / / / / / Q / / Q I X.M.mXUXPXUXUXUXUXPXUXUXUXUXKXKXKXIXUXUXUXUXPXUXUXUXUXUXUXUXUXPXUXUXUXUXUXUXUXUXUXUXUXUXUXUXUXUXUXUXUX",
"UXUXUXUXUXUXUXUXUXUXUXUXUXUXUXUXUXUXUXUXUXUXPXUXPXPXUXUXUXPXUXUXUXUXUXUXUXUXUXUXUXUXIXUXIXUXGXyXV.q I / / / / / / / / / / / / / Q I } M.mXIXUXUXUXIXUXPXIXJXKXUXUXIXUXUXUXUXPXUXUXUXPXPXPXUXPXPXPXUXUXUXUXUXUXUXUXUXUXUXUXUXUXUXUXUXUXUXUX",
"UXUXUXUXUXUXUXUXUXUXUXUXUXUXUXUXUXUXPXCXCXAXAXAXAXNXCXCXLXIXUXUXUXUXUXKXKXUXDXZXZXZXZXZXZXZXmX6Xv.0 I / / / / / / / / / / / / / Q I } M.gXZXZXZXZXZXZXVXCXSXJXIXIXIXIXUXUXIXLXFXAXAXZXZXAXAXZXZXFXPXUXUXUXUXUXUXUXUXUXUXUXUXUXUXUXUXUXUXUX",
"UXUXUXUXUXUXUXUXUXUXUXUXUXUXUXKXUXUXVXgX0X9X9X9X9X9X9XuXbXGXUXUXUXKXUXKXUXHXgXwXwXwXwXwX9X9X6X(.2.J Q / / / / / / / / / / / / / / Q { l.*X9XwX9X9XwX8X9XyXcXHXIXUXUXUXUXUXIXDXkX9X0X0X9X9X9XwX9XhXMXPXPXUXUXUXUXUXUXUXUXUXUXUXUXUXUXUXUXUX",
"UXUXUXUXUXUXUXUXUXUXUXUXUXUXUXKXUXIXqX9.N $.A $.@.F M w.|.VXIXUXUXUXUXKXUXZX].h.F D D D S S +.&.' Q Q / / / / / / / / / / / / / / / / W &.$.%.$.%.H $.D 8.>XvXUXUXUXUXUXUXLXbX(.m M D D D D M m P.tXGXPXUXUXKXUXUXUXIXUXUXUXUXUXUXUXUXUXUX",
"UXUXUXUXUXUXUXUXUXKXKXKXKXKXKXKXUXIX-XF t ( ( ( ~ Y J &.Z.mXUXUXKXKXIXUXUXMXL.*.L ~ Q Q Q Q Q Q Q / / / / / / / / / / / / / / / / / / / / ) / / / / ~ / B XXcXUXUXUXUXUXUXHXhXV.9 L / ~ Y Q L 8 v.7XDXUXUXKXKXKXKXIXUXUXUXUXUXUXKXUXUXUXUX",
"UXUXUXUXUXUXUXUXUXKXUXUXUXKXKXUXUXLX-XG d ( ( / / ~ I &.U.mXIXIXIXKXKXUXKXmXU.*.Y ~ Q Q Q Q Q Q / / / / / / / / / / / / / / / / / / / / / ) / / / ) / ~ z XXbXUXUXUXUXUXUXGXgXI.8 Y / ~ / ~ Y 7 v.9XAXUXUXUXKXKXUXUXUXUXUXUXUXUXUXUXUXUXUX",
"UXUXUXUXUXUXUXUXUXUXUXKXUXKXKXUXPXIX-XG R / / / / Q I o.U.mXUXUXUXUXIXUXKXmXU.*.Y ~ / / Q Q / / / / / / / / / / / / / / / / / / / / / / / / / / / / / / z +XcXUXUXPXUXUXUXGXgXI.8 Y / / / Q Y w v.7XSXUXUXUXUXUXUXUXUXUXUXUXUXUXUXUXUXUXUX",
"UXUXUXUXUXUXUXUXUXUXUXKXKXKXUXUXUXPX;XF u ( / / ) ~ Q o.U.mXKXIXUXUXUXKXIXBXU.*.Y ~ / Q Q Q Q / / / / / / / / / / / / / / / / / / / / / / / / / / / / ) z +XcXUXUXUXUXUXUXGXjXI.9 U ( / / / U 6 v.9XAXUXUXUXUXUXUXUXUXUXUXUXPXUXUXUXUXUXUX",
"UXUXUXUXUXUXUXUXUXUXUXUXUXUXUXUXPXPX=XG u ~ / / / ~ Y o.U.mXUXUXUXUXPXUXKXmXU.*.Q Q / / / / / / / / / / / / / / / / / / / / / / / / / / / / / / / / / / z +XcXIXPXUXUXUXKXGXgXV.= U / / / / T w v.7XSXUXUXUXUXUXUXUXUXPXUXUXUXUXUXUXUXUXUX",
"UXKXUXKXUXKXUXUXKXUXUXUXUXUXIXUXIXLX-XF u / / / / Q I *.U.mXUXUXIXUXUXKXUXnXU.o.I Q / / / Q / / / / / / / / / / / / / / / / / / / / / / / / / / / / / / x +XcXUXUXUXUXUXUXHXgXI.= J ( ( ) ( U 7 v.7XDXUXUXUXUXUXUXUXUXUXUXUXUXUXUXUXUXUXPX",
"IXIXKXKXKXKXKXKXKXKXUXUXUXUXIXUXIXLX-XF u Q / / ~ Q Y *.L.MXKXKXUXKXUXUXPXMXU.o.I Q / / / / / / / / / / / / / / / / / / / / / / / / / / / / / / / / / / x +XcXUXPXPXPXUXKXDXjXA.- J / ! / ~ T 7 N.9XSXUXUXUXUXUXUXUXUXUXUXUXUXUXUXUXUXUXUX",
"SXSXSXSXSXAXAXAXFXPXUXPXUXUXUXKXUXJX,X% O a a a a a a %.E.jXSXSXSXSXDXAXFXhXI.} I Q / / / / / / / / / / / / / / / / / / / / / / / / / / / / / / / / / / ..(.aXZXZXAXSXSXZXVXyXU.X 5 f p 2 s l   j.0XDXUXUXUXUXUXUXUXJXJXSXSXSXSXAXDXAXFXPX",
"@X!.(.[.oX`.'.|.1XnXUXPXPXUXUXUXIXUXjX Xa.H.H.H.K.E.~.~.~.oX'.OXOXoX'.'.OXT.1.` I / / / / / / / / / / / / / / / / / / / / / / / / / / / / / / / / / / / ^ x.Y.`.'.OXOX[.[.[.(.^.~.Q.Q.Q.K.Q.H.p.,XbXLXUXUXUXUXUXIXHXcX-X+X[.[.[.oX'.'.#XhX",
"z.;.:.<.<.<.1.4.i.tXPXPXUXUXUXUXUXIXSXxXdXsXsXaXgXaXaX9XoXk.1.1.<.:.<.1.1.;.] ~ Q / / / / / / / / / / / / / / / / / / / / / / / / / / / / / / / / / / / Q } <.1.1.1.<.<.<.%.d.OXpXpXhXpXpXgXaXfXmXSXIXUXUXUXUXUXUXSXyXu.<.:.<.<.<.1.1.f.;X",
"..0 J U I K K < 3.4XPXPXUXUXUXUXUXUXIXIXJXIXIXKXUXIXLXmX*XB U U I I K K q J I I Q / / / / / / / / / / / / / / / / / / / / / / / / / / / / / / / / / / ) / I I U J K J L L : m *XLXLXIXLXPXIXUXUXUXUXUXUXUXUXUXUXUXBX,Xb Y L L J J K K h ).",
"} J U / Q ~ Y 2 8.4XPXPXUXUXUXUXUXPXUXPXUXUXUXPXPXUXUXmX*XC ~ ~ Q Q I U U I ! / / / / / / / / / / / / / / / / / / / / / / / / / / / / / / / / / / / / / / / Q Q I U I I I > b =XLXPXIXPXPXUXUXUXIXUXUXUXUXUXUXUXUXNX6XS Q Y I I U U U j !.",
"} Q ( ( ( / / a r.5XPXUXUXPXKXKXUXUXKXUXUXUXUXPXUXPXUXnX%XC / / ( / / / ! Q Q / ~ / / / / / / / Q Q / / / / / / / / / / / / / / / / / / / / / / / / / / / / / ! / Q ! Q / y m =XLXIXUXUXPXUXPXUXUXUXUXUXUXUXUXUXUXCX7XV ( / / ! ! ( ( k _.",
"} Q / ( / / / i 8.7XUXPXUXUXUXUXKXUXUXUXUXKXUXKXUXUXUXnX*XC ) / / ( / ( / Q Q / / / / / / / / / / / / / / / / / / / / / / / / / / / / / / / / / / / / / / / / ( / / Q / / r M *XLXIXUXUXUXUXUXUXKXUXUXUXUXUXUXUXUXZX6XV / / / / ( ( / k _.",
"} I / ( / / ( d q.7XPXPXPXPXUXUXUXUXKXUXUXUXUXUXUXUXUXmX%XC / / / / ( / / / Q Q Q / / / / / / / / / / / / / / / / / / / / / / / / / / / / / / / / / / / / / / / ( / / / Q i M *XGXLXUXUXUXUXUXUXKXIXUXUXUXUXUXUXUXZX6XD / ( ( ( ( / ( k !.",
" .Q ( ( / ( ( d q.7XPXPXPXUXUXUXKXUXUXKXPXUXUXKXUXKXIXmX%Xx / / ( / ( / ( / Q Q / / Q / Q / / / / / / / / / / / / / / / / / / / / / / / / Q / / / / ( ( / ( / / / / / / / r M *XGXIXUXUXUXUXUXUXIXKXUXUXUXUXUXUXUXVX<XV / / / ( ( ( ( k !.",
"| 7 P L P P K 5 q.7XGXPXPXLXLXPXLXLXLXLXLXLXPXPXLXPXJXcX%X../ ) / / / ( ( Q Y 6 w e w w w 8 L Y / Q / / / / / / / / / / / / / / / / / Q Y e w w w w w 7 U ! / ( / / / / / t A %XDXGXLXPXLXPXGXPXJXPXLXLXLXLXJXJXJXBX<XS L P R P K P q c |.",
"G 1 v B B v v c f.=XbXbXnXnXnXbXnXzXnXbXnXbXnXbXnXbXmXyX[.] / / / / / / ( Y E z C B v l l l x W ~ Q Q / / / / / / / / / / / / / / / / T E v v v v v v c g R ~ / / / / ( ( R +.`.hXzXzXzXnXnXzXnXbXnXnXnXnXmXmXcXcXsX%X6.B B B v v v v $ {.",
"OX!.[.(.[.(.`.(.(.^.^.^.^.`.^.(.^.`.^.`.^.`.^.`.^.(.[.W.z.' / / / ! / / / ^ z.W.[.(.(.[.[.[./.A.*.L Q / / / / / / / / / / / / / / ~ ) -.Y.[.(.(.[.[.[.[.Y.,.[ Q / / / / ( U ] z.T.T.`.`.'.'.'.'.`.`.`.'.(./.[.[.[.[././.(.(.(.(.(.(.(.|.eX",
"FXDXZXSXSXDXGXZX8Xm.. : 2 2 2 2 2 2 > 2 2 2 2 2 2 i g y P Q / / / ! / / / ] +XkXDXAXAXDXZXSXVX8Xz.0 Q / / / / / / / / / / / / / / Q { N.jXAXSXSXSXSXSXDXzXI.*.I / / / / / Q U P d i ; ; 3 3 3 3 ; 2 p p p p 2 2 : x h.sXSXSXAXAXSXZXSXDXPX",
"IXIXJXJXIXIXPXSX9XN.- 8 J P 0 0 0 K K 0 K 0 0 K 0 J P J I Q / / / / / / / ..%XmXLXLXPXPXJXIXSXyXB.0 I / / / / / / / / / / / Q / / Q { B.bXLXPXPXLXIXLXJXnXI.=.Q / / / / ( / Q I Y P e e q K K q q K P U U K L w 6 W b.cXLXIXIXLXIXIXIXIXPX",
"UXUXUXUXUXUXUXSX9XN.6 I / ~ / Q Q Q Q Q Q Q Q / / Q / / / / / / / / / / / C %XmXUXPXPXPXUXUXHXyXB.6 I / / / / / / / / / / / / Q Q I } B.mXPXPXUXUXUXIXIXMXY.*.I / / / ( ( ( / / / / / / / ( / Q Q ! / / / / / / Q { c.bXUXUXUXUXUXUXUXUXUX",
"UXUXUXUXUXUXUXSX8Xn.6 I / / / / / / / / / / / Q ~ / / / / / / / / / / / ( C %XmXUXUXPXUXUXUXSXyXB.6 I / / / / / / / / / / / / / Q Q } M.bXPXUXPXUXPXKXIXmXY.*.I Q / / / / / / / / / / / / ( / / Q / / / / / / / Q { c.zXIXUXUXUXUXUXUXUXPX",
"UXUXUXUXUXUXIXSX9XN.= J / Q Q / / Q / / / / / / Q Q / / / / / / / / / / / C $XnXPXPXPXUXUXUXHXyXB.8 I / / / / / / / / / / / / / ~ Q X.A.nXPXPXUXUXUXIXUXVXY.*.I ~ / / / / / / / / / / / / / / Q / ( ( ( / / / Q Q [ m.bXIXIXUXUXUXUXKXUXUX",
"UXUXUXUXUXUXIXSXwXN.* 0 Q / Q / Q Q / / / / / Q Q Q / / / / / / / / / / / x *XmXUXPXPXPXUXIXSXyXn.8 I / / / / / / / / / / / / / / I X.M.mXUXUXPXIXIXIXIXMXY.=.I Q / / / ( ( ( / ( / ( / / Q Q / / ( ( ( / / / / Q [ m.nXKXIXUXUXUXKXUXUXUX",
"UXUXUXPXUXUXIXSX0Xm.. w Q Y ! ! Q Q Q Q / / Q Q Q Q / / / / / / / / / / / ..%XmXIXPXPXPXIXIXSXrXN.6 I / / / / / / / / / / / / / / I } B.bXLXLXIXPXIXIXIXmXU.*.J Q / / ~ ( ( / / / ( / / / / / / / Q Q U Y Y Y Y J ] f.cXIXUXUXUXUXUXUXUXUX",
"UXPXUXPXUXUXIXHX9Xj.. = J U K K K K I I Q / / / Q / / / / / / / / / / / / O.*XbXPXPXPXPXIXIXSXuXB.0 I / / / / / / / / / / / / / Q Q o.V.mXIXIXPXIXIXJXIXmXY.=.I Q / / / / ( ( / / / / / / / / Q ! Q U P q w w 9 8 E t.cXIXIXUXIXKXUXUXUXUX",
"UXUXPXUXUXUXUXDXaX~.G 5.2.5.1.5.2.1.*.' Q / / Q / Q / / / / / / / / / / / E ~.6XpXpXpXpXpXpXrX%Xl.0 I / / / / / / / / / / / / / / Q } z.,XuXuXpXaXaXuXaX6XN.*.I Q / / ( / ( ( / / / / / / / / / [ *.1.2.2.2.>.>.>.z.Q.MXIXIXUXUXUXUXUXUXUX",
"UXUXUXUXUXUXUXLXMX0X%X%X@X@X$X$X+X+XB.&.~ / / / / / / / / / / / / / / / / R 5.M.T.L.D.D.S.F.U.x.*.J Q / / / / / / / / / / / / / / Q [ &.V.S.D.S.D.S.S.S.M.;.' I Q / / / ( / / / / ( / ( ( ( Q Y -.V.OX@X%X%X+X%X%X=XrXDXUXUXUXUXUXUXUXUXUX",
"UXUXUXPXUXUXUXUXLXSXVXVXVXmXnXMXmXcX[.#.R / / / / / / / ) / / / / / / / / ~ W E | | k k k x ..W ~ I / / / / / / / / / / / / / / / Q Q T E k k k k k a g E T / / / / / / / / ( / / / / / / / Q I l.*XjXMXnXVXMXMXMXMXSXIXUXUXUXUXUXUXUXUXUX",
"UXUXUXUXUXUXUXUXUXIXUXIXIXUXIXUXJXJX<XG u ~ / / / / / / / / / / / / / / / / / ~ / ( / / Q Q / ~ / / / / / / / / / / / / / / / / Q / / Q ! / ! ( ! ( / ! / / ( / / Q / / / / / / ( / / / / ( Y 6 z.8XSXPXIXUXKXUXUXUXUXUXKXUXUXUXUXUXUXUXUX",
"UXUXUXUXUXUXUXUXUXUXUXUXUXUXUXIXJXJX<XF u / / / / / / / / ) / / / ) / / / / / / / / / / / / / / / / / / / / / / / / / / / / / ( / / / / / / ( / / ( / / / / / / / / / / / / / / / / / / / ( Y 6 z.8XZXKXKXKXUXUXUXUXUXKXKXKXUXUXUXUXUXUXUX",
"UXUXUXUXUXUXUXUXUXUXUXUXUXUXUXUXIXLX<XF u / / / / / / / / / / ) / / / / / / / / / / / / / / / / / / / / / / / / / / / / / / / / / / / / / / / / / / / / / / / / / / / / / / / / / / / / / ( Y 6 n.8XSXKXKXUXUXUXKXUXUXUXKXUXUXUXUXUXUXUXUX",
"UXUXUXUXUXUXUXUXUXPXUXUXUXUXUXUXIXJX<XG u / / / / / / / / / / / / / / / / / / / / / / / / / / / / / / / / / / / / ( ( / / / / / / / / / / / / / / / / / / / / / / / / / Q / / ! / / / / ( / Y = n.8XSXKXKXKXUXUXUXUXUXKXUXKXUXUXUXUXUXUXUX",
"UXUXUXUXUXUXPXUXUXUXUXUXPXUXIXUXIXJX-XN i / ( ( / / / / / / / / / / / / / / / / / ~ Q / / / / / / / / / / / / / / / / / / / / / / / / / / / / / / / / / / / / / / / / / / / / / Q / / ( / / Y * n.8XSXIXUXUXPXUXUXUXUXUXKXUXUXUXUXUXUXUXUX",
"UXUXUXUXUXUXUXUXUXUXUXUXUXUXPXPXLXLX-XM i Q ! ! Q Q Q ( / / / / / ~ / / / / / Q Q Q I Q / / / Q Q Q / ! / Q Q Q Q Q Q Q Q Q / Q / Q Q / Q Q / Q Q / ~ / / / Q / ( / ( / / / / Q Q / / / / ! I * z.8XSXUXUXUXUXUXIXUXUXKXUXUXUXUXUXUXUXUXUX",
"UXUXUXUXUXUXPXUXIXJXHXHXGXGXFXPXDXSX-XN f _ _ _ ` ` ) ) / / / / / / / / / ! ! ) ) [ ' ~ ) ) ) ) ) ) ) ) ) ) ) ) ) ) ) ) ) ) ) ) ) ) ) ) ) ) ) ) ) ) ) ) ) ~ / / / ( / / / / ( ( ) ` ` ) ) ` R y n.<XZXGXCXLXGXGXSXHXJXUXUXUXUXUXUXUXUXUXUX",
"UXUXUXUXUXUXUXIXSXcXjXgXhXpXpXhXgXaX+Xw.F A A A $.%.%.+...~ / / / / / / / U &.@.%.$.H @.@.%.$.$.$.$.$.$.A $.$.$.@.$.$.$.$.$.$.$.$.$.%.$.%.$.$.$.%.$.D #.:.' ( / / ( / ( / Q T  .<.,.#.$.@.$.H S A.-XaXjXgXhXhXgXaXsXmXIXUXUXUXUXUXUXUXUXUX",
"UXUXUXUXUXUXUXHXaX!.8.s.k.s.k.g.s.d.U.-X0XrX0X0X0X0XtX*XI.W / / / / / / / E Y.;XrXrXrXwX0XrX0XrX0X0X0XtXrX0XtX0X0XrXtXrXrXrXrXrXyXrXrXyXwXyXyXrXyXyX9XyX,Xn.*.! ! ( / / / K +.Y.7X9X0XwXwXwX0XrX%XS.q.q.q.q.s.q.0.j.].VXUXUXUXUXUXUXUXUXUX",
"UXUXUXUXUXUXUXDXwXB.y R ` ` ' ^ P y A.yXZXGXGXGXGXGXLXkXOXO.( / / / Q / / x %XzXHXHXDXHXHXHXHXHXGXGXGXGXGXLXGXGXLXLXLXGXGXGXLXLXHXGXJXGXLXGXGXHXHXHXHXHXbXI.-.U Q ! ! Q / e D $XZXSXHXHXHXSXHXDX6Xe.2 ! ' ^ ^ U K  .j.mXIXUXUXUXUXUXUXUXUX",
"UXUXUXUXUXUXUXDX0XN.* I ( ( Q Q J * A.sXHXUXPXUXPXPXPXbX*Xk ( ( / / / / Q B *XMXUXIXUXIXUXUXUXUXUXUXUXUXUXUXUXUXPXPXUXUXUXUXUXUXUXUXUXUXUXUXUXUXUXUXIXIXnXR.-.U ! ( / / Q u F =XLXIXUXIXIXUXUXIX9Xw.a ~ ( ! ! Q I ] g.zXIXUXUXUXUXUXUXUXUX",
"UXUXUXUXUXUXUXSXwXB.= L / Q / / I = B.aXHXUXPXUXPXIXPXnX*Xk / ( ( / / ~ Q B *XMXUXIXIXIXUXUXUXIXUXUXUXUXPXUXUXUXUXUXUXUXUXUXUXUXUXUXUXUXUXUXUXUXUXUXUXUXnXR.=.I ! ( / Q Q r F =XHXIXIXUXIXIXIXIX8Xw.i Q / ~ / / Q ] g.zXPXUXUXUXUXUXUXUXUX",
"UXUXUXUXUXUXIXSXyXn.= L / / / / U 8 A.aXDXUXUXUXUXUXUXnX$XC ( ( / ( / ~ Y v *XMXUXUXIXIXUXIXUXKXUXUXUXUXUXUXUXUXUXUXUXUXUXUXUXUXUXUXUXUXIXUXUXUXUXIXUXUXnXL.=.I ! ( ( / Q u M *XJXIXUXIXIXUXIXIX8Xw.y Q / ( ( ( ! [ g.zXUXUXUXUXUXUXUXUXUX",
"UXUXUXUXUXUXUXDXwXB.8 J / / / / J 8 V.gXHXUXUXUXUXIXUXbX%XC ( ( ( / / / Q B *XMXPXUXUXIXUXKXUXIXUXUXUXUXUXUXUXUXUXUXUXUXUXUXUXUXUXUXIXUXUXUXUXUXIXUXUXIXMXY.*.I ! ( / / / e F *XGXUXUXUXUXUXJXIX8Xw.i / ( / / ) Q { h.zXUXUXUXUXUXUXUXUXUX",
"UXUXUXUXUXUXUXDX0XB.6 I / / / ( U 7 V.uXGXUXUXUXUXIXKXmX*XC ( ( / / / / / B =XNXUXPXIXUXUXUXUXUXUXUXUXUXUXUXUXUXUXUXUXUXUXUXIXUXKXIXUXUXUXIXKXIXUXKXKXUXMXI.*.I Q / / / ( t F %XGXIXUXUXIXKXIXIX7Xw.r ( / / / / ~ { c.cXUXUXUXUXUXUXUXUXUX",
"UXUXUXKXUXUXUXSX0XN.7 K ( ( ( / U 7 I.pXDXUXUXUXUXIXUXmX$XC / ( ( ( ( / / C *XnXUXPXUXUXUXUXUXUXUXUXUXUXUXUXUXUXUXKXUXUXUXUXUXKXUXUXKXUXKXUXIXKXUXIXUXIXMXU.*.I Q / / / ( P Z $XLXIXUXUXKXUXIXPX9Xw.d ( ( / / / ~ { h.cXUXUXUXUXUXUXUXUXUX",
"UXUXUXUXUXUXUXDXrXC.X ; p p r i ,   L.hXDXUXUXUXIXIXIXmX&Xm d d d d r d a S %XzXDXSXDXSXDXDXDXHXLXIXUXUXUXUXUXUXUXIXLXDXDXDXDXHXSXSXSXSXSXSXHXSXHXSXSXHXcXL.#.y > > i p p 1 3.&XLXUXUXUXUXUXUXIXqX9.o d f d a a y C u.cXIXUXUXUXUXUXUXUXUX",
"UXUXUXKXUXUXUXLXzX&Xp.i.G.G.G.G.i.p.:XNXLXUXUXUXUXUXUXZXeXa.D.F.L.G.F.D.F.P.(.oX@X@X%X@X@X+XXX5XbXIXUXIXUXUXUXIXUXmX5X#X$X%X+X+X@X+X+X+X+X+X+X+X+X+X+X+X[.[.E.Z.F.S.S.F.F.p.{.eXLXIXUXUXUXUXUXPXzX}.p.D.D.D.D.D.S.K..XVXKXUXIXUXUXUXUXUXUX",
"UXUXUXUXUXUXUXIXDXzX3XiXpXpXpXpXiXiXnXDXIXUXUXUXKXIXUXJXZXfXtXpXpXpXpXpXeX7XY.x.2.5.5.2.2.2.d.S.rXLXIXUXUXIXUXIXIXuXG.s.5.5.2.2.7.2.7.2.7.7.7.7.7.7.7.7.h.[.<XsXyXyXuXuXuXeXdXZXUXUXUXUXUXUXUXUXDXlXiXtXpXiXiXiXeXpXlXLXKXIXUXUXPXUXUXUXUX",
"UXUXUXKXUXUXUXUXPXUXPXPXPXPXIXPXPXUXPXPXPXUXUXUXKXIXUXUXUXPXPXPXUXPXPXPXUXmXU.&.7 q J 0 K 0 : $ &XLXIXUXIXUXUXIXIX>XN 3 K K K J J L J J J L J J L w L w z [.cXJXIXUXIXPXUXPXUXIXUXUXUXIXUXUXUXUXUXUXPXPXPXPXPXPXPXPXUXUXKXIXKXUXUXUXUXUXUX",
"UXUXUXUXUXUXUXUXUXUXUXPXPXPXUXPXPXUXUXUXUXUXUXUXUXUXUXUXUXUXPXPXPXPXPXIXUXnXU.=.L ! Q Y I Q > N <XLXIXUXUXUXUXIXLX6X8.2 I I Q I I Q Y Q I Q I Q Q Y ~ L l %XcXIXIXIXIXPXIXIXUXUXIXUXUXUXUXUXUXUXUXUXPXPXPXPXIXPXPXUXUXUXIXKXUXUXUXUXUXUXUX",
"UXUXUXUXUXUXUXUXUXUXUXIXUXUXUXUXUXUXUXUXUXUXUXUXUXUXUXIXUXUXUXPXUXIXUXUXUXnXU.*.I / ( / / / d 6.<XLXIXUXUXUXUXIXLX6X0.r / / / / / Q / / / Q / Q / / / Q s XXcXUXPXUXPXUXUXIXUXIXUXUXIXUXUXUXUXUXUXUXIXUXUXIXKXUXIXUXUXUXUXUXUXIXUXUXUXUXUX",
"UXUXUXUXUXUXUXIXUXUXUXUXUXUXUXUXUXUXIXUXUXIXUXUXUXUXUXKXUXUXUXUXUXUXUXUXUXVXU.*.I Q / / / / u 6.6XLXPXUXUXUXUXIXLX6Xq.d ( / Q / / / Q / / Q / / / Q ( / s +XzXIXUXPXUXUXUXUXUXIXUXIXUXUXUXUXUXUXIXUXUXUXUXUXUXUXUXUXUXUXIXIXUXUXUXUXIXUXIX",
"UXUXUXUXUXUXUXUXUXUXUXUXUXUXUXUXUXUXUXIXUXUXUXUXUXUXIXUXUXUXUXUXUXIXKXUXUXMXU.=.I / ( / / / t G 6XPXPXKXUXPXUXIXIX6X0.d / / / / / Q / / / / / / / ( / / C XXzXPXPXUXUXIXIXUXUXUXUXUXUXUXUXUXUXUXUXUXUXUXUXUXKXKXUXUXUXIXUXUXUXUXUXUXUXUXUX",
"UXUXUXUXIXUXUXUXUXUXUXUXUXUXUXUXUXUXUXUXUXUXUXUXIXKXKXUXUXUXIXUXUXIXKXUXKXmXL.*.U ! / / ( / t 6.:XPXPXKXUXUXUXIXIX6Xq.r ! Q / / / / / / / / / / / / ( / k +XcXIXPXUXUXUXIXUXUXUXUXIXUXUXUXUXUXUXUXUXUXIXUXUXUXUXUXUXUXUXUXIXUXUXIXUXUXUXUX",
"UXUXUXUXUXUXUXUXUXUXUXUXUXUXUXUXUXUXUXUXUXIXUXIXUXIXUXUXUXIXPXLXPXPXPXPXLXmXL.+.7 7 q K P P < 3.:XPXIXKXUXUXUXIXIX5X8., 0 0 0 J 0 0 J 0 0 J 0 0 0 L P K j @XcXLXIXPXPXIXIXIXIXUXUXUXUXUXUXUXUXUXUXUXUXUXUXUXUXUXUXUXUXUXIXUXUXIXUXUXUXUXUX",
"UXUXUXUXUXUXUXUXUXUXKXUXUXUXUXUXUXUXUXUXUXUXIXUXIXUXIXIXHXVXNXNXNXNXMXMXMXhXL.Z X 1 1 5 s 5 # % 1XPXUXUXKXUXUXUXIX1X& + 4 4 5 5 5 5 5 5 5 5 5 5 5 5 s 5 b OXuXMXNXnXMXnXnXMXZXLXUXIXUXUXUXUXUXUXUXKXUXKXKXUXUXUXUXUXUXUXUXUXUXUXUXUXUXIXUX",
"UXUXUXUXUXUXUXUXUXKXUXKXKXKXKXKXKXKXKXKXIXUXUXIXIXUXUXDXhX&X'.OX'.OXOXOXOXOX~.P.P.P.F.P.Y.Y.J. XhXPXPXKXKXUXUXIXIXjX Xp.U.W.P.P.P.P.E.P.E.P.E.P.P.E.T.Y.P.^.OXOXoXoXoXoX`.XX.XlXIXIXUXUXUXKXUXUXUXKXKXKXKXUXUXUXUXUXUXIXUXUXUXUXUXUXUXUXUX",
"UXUXUXUXUXUXUXUXUXUXKXUXKXKXUXKXUXKXUXUXUXUXIXUXIXIXUXvX}.@ h h h 3 < < , n OXgXZXnXMXZXMXMXNXSXPXPXUXUXUXUXUXIXUXLXSXZXMXVXMXVXMXVXMXZXZXMXNXVXVXMXMXZXkXY.S X X , , , , + % }.GXIXUXUXUXKXUXUXUXUXKXKXUXUXUXUXUXUXUXUXUXUXUXUXUXUXUXUXUX",
"UXUXUXUXUXUXUXUXUXUXUXUXKXUXUXUXUXUXUXUXUXUXUXUXUXUXUXmX&X# r t t P e e r c =XzXPXGXGXLXGXLXLXPXPXUXUXUXUXUXUXUXUXUXIXLXLXLXLXLXLXLXLXPXLXLXLXPXGXJXGXJXmXY.+.7 6 w e e q < $ .XPXPXUXUXUXUXUXUXUXUXKXKXUXUXUXUXUXUXUXUXUXUXUXUXUXUXUXUXUX",
"UXUXUXUXUXUXUXUXUXUXUXUXUXUXUXUXUXUXUXUXUXUXUXUXUXUXUXMX*Xv Q / / ! ( Q ( j =XnXPXPXUXUXUXUXUXUXUXUXUXUXUXUXUXUXUXUXUXUXUXUXUXUXUXUXKXUXUXUXKXUXUXUXUXIXmXW.o.J Q Q ! ( / r n =XGXPXUXUXIXUXUXUXIXUXUXUXUXUXUXUXUXUXUXUXUXUXUXUXUXUXUXUXUX",
"UXUXUXUXUXUXUXUXUXUXUXUXUXUXUXUXUXUXUXUXUXUXUXUXUXUXUXnX*XB / ) / / / / ( C =XNXUXPXUXUXUXUXUXUXUXUXUXUXUXUXUXUXUXUXUXUXUXUXUXKXUXUXUXUXUXUXUXUXUXUXUXUXVXY.*.J Q Q / ( ( t Z =XFXPXUXPXUXUXUXUXUXUXUXUXUXUXUXUXUXUXUXUXUXUXUXUXUXUXUXUXUX",
"UXUXUXUXUXUXUXUXUXUXUXUXUXUXUXUXUXUXUXUXUXUXUXUXUXUXPXMX=XB Q / / / / / ( C =XnXPXPXPXUXUXUXUXUXUXUXUXUXUXUXUXUXUXUXUXUXUXUXUXUXUXUXUXKXUXUXKXUXUXUXIXUXVXY.*.J I Q / / ( K Z =XFXPXUXUXUXUXPXKXUXUXUXUXUXUXUXUXUXUXUXUXUXUXUXUXUXUXUXUXUX",
"UXUXUXUXUXUXUXUXUXUXUXUXUXUXUXUXUXUXUXUXUXUXUXUXUXUXPXnX=XB ( ( / ( / / / C =XnXUXPXUXUXUXUXKXUXKXUXUXKXKXUXUXUXUXUXUXUXUXKXUXKXKXKXUXKXUXKXUXUXKXKXUXUXMXR.=.J I Q Q / / P A =XGXPXIXUXPXUXUXUXKXUXUXUXUXUXUXUXUXUXUXUXUXUXUXUXUXUXUXUXUX",
"UXUXUXUXUXUXUXUXUXUXUXUXUXUXUXUXUXUXUXUXUXUXUXUXUXUXUXNX=Xv U ! Q Q Q Q Q B =XnXUXPXUXUXUXUXUXUXKXUXUXUXUXUXUXUXUXUXUXUXUXUXUXUXUXUXUXUXUXKXUXKXUXUXKXUXMXP.&.6 0 I I Q Q u M =XGXPXPXPXUXUXPXUXKXKXUXUXUXUXUXUXUXUXUXUXUXUXUXUXUXUXUXUXUX",
"UXUXUXUXUXUXUXUXUXUXUXUXUXUXUXUXUXUXUXUXUXUXUXUXUXUXPXnX#X# q K K U U Y Y b &XvXPXPXUXUXUXUXUXUXKXUXUXUXUXUXUXUXUXUXUXUXUXUXUXUXKXUXUXKXUXUXUXUXUXUXUXUXMXF.+.* 7 6 K K L 4 m =XGXLXPXUXUXUXUXUXUXUXUXUXUXUXUXUXUXUXUXUXUXUXUXUXUXUXUXUXUX",
"UXUXUXUXUXUXUXUXUXUXUXUXUXUXUXUXUXUXUXUXUXUXUXUXUXUXPXnX7Xf.1.1.1.1.<.<.<.f.9XZXPXPXUXUXUXUXUXUXKXUXKXUXUXUXUXUXUXUXUXUXUXUXUXUXUXUXUXUXUXKXUXUXUXUXUXUXZX'.v.%.,.1.<.<.:.%.u.9XLXIXUXUXUXUXUXUXKXUXUXUXUXUXUXUXUXUXUXUXUXUXUXUXUXUXUXUXUX",
"UXUXUXUXUXUXUXUXUXUXUXUXUXUXUXUXUXUXUXUXUXUXUXUXUXUXUXSXhX*XOXOXOXOXOXoX[.*XkXGXUXUXUXUXUXUXUXUXUXKXUXUXUXUXUXUXUXUXUXUXUXUXUXUXUXUXUXUXUXUXUXUXUXUXUXUXHXuX-XoXoXOXoX+X+X+X&XcXUXUXUXUXUXUXUXUXUXUXUXUXUXUXUXUXUXUXUXUXUXUXUXUXUXUXUXUXUX",
"UXUXUXUXUXUXUXUXUXUXUXUXUXUXUXUXUXUXUXUXUXUXUXUXUXUXUXIXHXVXmXbXnXnXbXbXmXMXDXIXUXUXUXUXUXUXUXUXUXUXUXUXUXUXUXUXUXUXUXUXUXUXUXUXUXUXUXUXUXUXUXUXUXUXUXUXIXZXmXmXnXMXnXnXmXBXVXHXUXUXUXUXUXUXUXKXKXUXUXUXUXUXUXUXUXUXUXUXUXUXUXUXUXUXUXUXUX",
"UXUXUXUXUXUXUXUXUXUXUXUXUXUXUXUXUXUXUXUXUXUXUXUXUXUXKXUXUXUXIXIXIXPXUXUXIXUXUXUXUXUXUXUXUXUXUXUXUXUXUXUXUXUXUXUXUXUXUXUXUXUXUXUXUXUXUXUXUXUXUXUXUXUXUXUXUXIXIXIXUXUXUXUXIXIXKXIXIXUXUXUXUXKXKXUXUXUXUXUXUXUXUXUXUXUXUXUXUXUXUXUXUXUXUXUXUX"
};
