/* XPM */
static char *j_mino[] = {
/* columns rows colors chars-per-pixel */
"20 20 128 2 ",
"   c #363D50",
".  c #23387E",
"X  c #040288",
"o  c #050289",
"O  c #04028C",
"+  c #040493",
"@  c #040597",
"#  c #070499",
"$  c #07039D",
"%  c #06029F",
"&  c #120B9E",
"*  c #1E3485",
"=  c #1E3486",
"-  c #0603A1",
";  c #0403A2",
":  c #0303A6",
">  c #0602A5",
",  c #0A02A5",
"<  c #0302AC",
"1  c #0601AF",
"2  c #0701AF",
"3  c #0705AD",
"4  c #090AAE",
"5  c #0B0FAF",
"6  c #1507A7",
"7  c #0A13AB",
"8  c #0A14A9",
"9  c #0A13AC",
"0  c #0D13AE",
"q  c #0C19AC",
"w  c #0C01B3",
"e  c #1400BA",
"r  c #1500BB",
"t  c #1602BA",
"y  c #1800BD",
"u  c #1212B2",
"i  c #2C10BD",
"p  c #3216BB",
"a  c #1A27AD",
"s  c #1E36B4",
"d  c #1F32B8",
"f  c #1E36B8",
"g  c #2226BA",
"h  c #2E29BB",
"j  c #3B22BB",
"k  c #3D27B9",
"l  c #4932BC",
"z  c #2B4893",
"x  c #2B5298",
"c  c #254BA3",
"v  c #274CA3",
"b  c #244AA4",
"n  c #2B4EA2",
"m  c #2E50A1",
"M  c #2242B6",
"N  c #2548BB",
"B  c #5242BE",
"V  c #5444BF",
"C  c #1C00C1",
"Z  c #2307C2",
"A  c #2000C7",
"S  c #2400C7",
"D  c #2405C4",
"F  c #2809C2",
"G  c #2A0EC0",
"H  c #2300C9",
"J  c #2500CC",
"K  c #2B07C9",
"L  c #2612C0",
"P  c #2713C3",
"I  c #3918C4",
"U  c #391FC4",
"Y  c #252DC2",
"T  c #252FC2",
"R  c #3220C4",
"E  c #2931C0",
"W  c #2931C2",
"Q  c #2933C2",
"!  c #2934C2",
"~  c #2A34C2",
"^  c #4F3DC7",
"/  c #543DC6",
"(  c #314EC2",
")  c #3966CE",
"_  c #3A69CF",
"`  c #3E6FD4",
"'  c #3E70D4",
"]  c #434AC5",
"[  c #5642C1",
"{  c #5C4CC5",
"}  c #4258CB",
"|  c #5853C7",
" . c #565DCE",
".. c #5F5ECC",
"X. c #6552C4",
"o. c #6755C7",
"O. c #6756C6",
"+. c #625AC3",
"@. c #6D5CC3",
"#. c #6B5BC7",
"$. c #625DC9",
"%. c #715DC7",
"&. c #715DC8",
"*. c #456AD1",
"=. c #4070D4",
"-. c #4474D6",
";. c #7362C3",
":. c #7563C7",
">. c #7665C5",
",. c #7766C7",
"<. c #7D6EC6",
"1. c #766ECC",
"2. c #7E74C7",
"3. c #7D7CCF",
"4. c #8476C9",
"5. c #877BC8",
"6. c #837CCC",
"7. c #6B89E1",
"8. c #6B88E2",
"9. c #6B89E2",
"0. c #8781CE",
"q. c #8D81CC",
"w. c #9186CF",
"e. c #9488CF",
"r. c #9792CF",
"t. c #8F86D0",
"y. c #918BD5",
"u. c #938ED4",
/* pixels */
"  z m n n b v b v b n n n n n n b n n x ",
". N _ =.' ' ' ` ` ' =.=.=.=.=.` ` =.) M ",
"* s ( *.-.-.-.-.-.-.-.-.-.=.-.-.=.=.f q ",
"* d !  .9.9.9.9.9.9.9.9.9.8.8.9.9.} 5 8 ",
"* d ! $.u.r.u.u.y.y.t.0.w.0.6.0.3.] 4 9 ",
"* d ! $.e.w.t.q.5.4.<.4.>.;.@.X.{ h 3 0 ",
"* d ! +.5.2.1.:.&.#.{ V l j p G Z t 1 9 ",
"* d Q | :.:.&.o.[ k i F S H H H J y 2 9 ",
"* d Q B %.O.^ I D H J J J J J J J y 2 9 ",
"* d Q / / U F J J J J J J J J J J r 2 9 ",
"* d T R K H H J J J J J J J J J J C 1 9 ",
"* d T P J J J J J J J J J J J J C e 1 u ",
"* d Y P J J J J J J J J J J J J H C 1 u ",
"* d Y P J J J J J J J J J J J J H r 1 0 ",
"* d Y P J J J J J J J J J J J J J r 1 9 ",
"* d Y P J J J J J J J J J J J J C e 1 9 ",
"* d Y P J J J J J J J J J J J J A r 1 9 ",
"* d Y P C H S J H S H H H H H A C w < 9 ",
"= d g 6 # @ $ - $ - , , > - - $ - ; : 8 ",
"* a & o o X o o X X X o o o o o O @ @ 8 "
};
