/* XPM */
static char *l_mino[] = {
/* columns rows colors chars-per-pixel */
"20 20 127 2 ",
"   c #A63E01",
".  c #A83F00",
"X  c #A93F01",
"o  c #AA4000",
"O  c #AB4100",
"+  c #AE4301",
"@  c #AE4705",
"#  c #AD4B0B",
"$  c #B04501",
"%  c #B94A02",
"&  c #B7500A",
"*  c #BB5008",
"=  c #BC5009",
"-  c #BF5209",
";  c #B55716",
":  c #BD5711",
">  c #BA5C1B",
",  c #B05F26",
"<  c #BF6220",
"1  c #BD6223",
"2  c #BC6324",
"3  c #B2632A",
"4  c #B96428",
"5  c #B8652A",
"6  c #A96336",
"7  c #AE6635",
"8  c #B46731",
"9  c #B96B34",
"0  c #B66E3B",
"q  c #BA703D",
"w  c #C14E03",
"e  c #C44C01",
"r  c #C65003",
"t  c #C5520A",
"y  c #C3560A",
"u  c #C4570A",
"i  c #C5570A",
"p  c #C6570A",
"a  c #C6580A",
"s  c #C7580A",
"d  c #C8590A",
"f  c #CD5F0E",
"g  c #CF5F0E",
"h  c #D05F0E",
"j  c #D0600E",
"k  c #D1600E",
"l  c #D0600F",
"z  c #CF6010",
"x  c #CF6012",
"c  c #CD6014",
"v  c #CE6014",
"b  c #CF6114",
"n  c #C2601F",
"m  c #C4611F",
"M  c #C9601B",
"N  c #CC6019",
"B  c #CF651A",
"V  c #CA611C",
"C  c #C8611E",
"Z  c #CA611E",
"A  c #C16220",
"S  c #C16427",
"D  c #CA6625",
"F  c #CE6823",
"G  c #CD6A2A",
"H  c #C96A2E",
"J  c #CC6E2C",
"K  c #C76B30",
"L  c #CC6E32",
"P  c #CA7339",
"I  c #CC7138",
"U  c #CF7639",
"Y  c #CD743A",
"T  c #CF753C",
"R  c #C17547",
"E  c #CD7842",
"W  c #C97846",
"Q  c #CD7A47",
"!  c #C0754A",
"~  c #C57B4C",
"^  c #C57B4D",
"/  c #C47B4F",
"(  c #C57B4F",
")  c #C57C4F",
"_  c #CA7B4A",
"`  c #D27F4C",
"'  c #CC8458",
"]  c #D58453",
"[  c #D48356",
"{  c #D18457",
"}  c #D2855B",
"|  c #D48759",
" . c #D2875D",
".. c #D3875D",
"X. c #D5885F",
"o. c #D28B63",
"O. c #D18D66",
"+. c #D18F69",
"@. c #D0906B",
"#. c #D1906C",
"$. c #D3936E",
"%. c #CE9471",
"&. c #D09370",
"*. c #D69572",
"=. c #D79772",
"-. c #D19674",
";. c #D19775",
":. c #D39674",
">. c #D19776",
",. c #D59775",
"<. c #D09979",
"1. c #D09C7C",
"2. c #D09D7F",
"3. c #D09F82",
"4. c #D1A083",
"5. c #D0A287",
"6. c #D7A387",
"7. c #DBA485",
"8. c #DAA486",
"9. c #D1A489",
"0. c #D4A589",
"q. c #D7A78B",
"w. c #D4A78C",
"e. c #D4A78D",
"r. c #D8A68A",
"t. c #D6A88E",
"y. c #DAA98E",
/* pixels */
"6 ! ( ( ^ ^ ^ / ^ ^ ^ ) ) ^ ~ ~ ^ ^ ! 7 ",
"8 W } | X.X. . .|  . .| } ] ] ] ] ] H ; ",
"3 2 _ :.*.*.:.:.:.>.;.:.:.*.:.%.$.I t = ",
"3 4 q 0.t.t.e.t.e.e.w.w.r.6.8.5.7.S e & ",
"3 4 0 q.y.t.e.t.5.5.3.1.1.1.1.:.=.A w = ",
"3 5 0 3.3.3.<.:.:.&.$.+.' Q E Y J r e = ",
"3 2 9 %.&.$.@.o. .` L G B b z j j r e & ",
"3 2 9 O.+.O.[ Y Z N h h j j j j j r e = ",
"3 2 K  .{ T D b g l g g g h g l j r e = ",
"3 2 K I D v l j l l g h l g l l l r e = ",
"3 1 2 Z b j j j l z h h h h h l l r w = ",
"3 n Z b l l j j l b h l h h j j j r e y ",
"3 m Z N j j j j j j l h h j h j j r e w ",
"3 m Z h h g h h j h h h h h j j j r e u ",
"3 m M j h g g g j l l l h k k k l r e = ",
"3 Z Z z g g g z l l j h h h k k l r e = ",
"3 m M g f z z z j h g g g g j l l r e w ",
"3 < : y y y u u u u p p p p u u d w w = ",
"3 > @ o o o o o   o o o o o o   o + % & ",
", # o o o     o o   o o   o o o O o + & "
};
