/* XPM */
static char *my_tank[] = {
/* columns rows colors chars-per-pixel */
"70 70 252 2 ",
"   c #2B2B2D",
".  c #3D3B3B",
"X  c #7F2D2B",
"o  c #792B32",
"O  c #793435",
"+  c #40403D",
"@  c #4F4744",
"#  c #4B4B4C",
"$  c #52484A",
"%  c #535252",
"&  c #674344",
"*  c #715959",
"=  c #5E6057",
"-  c #5D5F61",
";  c #72736D",
":  c #9B1115",
">  c #B90C05",
",  c #B50B0A",
"<  c #BC0C0C",
"1  c #B3110D",
"2  c #A70D11",
"3  c #BB0B13",
"4  c #B71717",
"5  c #93281C",
"6  c #AE251D",
"7  c #8C1E2C",
"8  c #BE1E20",
"9  c #882825",
"0  c #942A28",
"q  c #93302E",
"w  c #983839",
"e  c #AA282A",
"r  c #B0312B",
"t  c #A83A37",
"y  c #B43D3C",
"u  c #B93C3D",
"i  c #C3090A",
"p  c #DA0707",
"a  c #D3110F",
"s  c #C50915",
"d  c #D80C14",
"f  c #CA1314",
"g  c #E60707",
"h  c #EC0502",
"j  c #EB040B",
"k  c #E40D0A",
"l  c #F30204",
"z  c #F90206",
"x  c #F3020B",
"c  c #E20B11",
"v  c #F10110",
"b  c #E21115",
"n  c #CB1D24",
"m  c #CA1D2A",
"M  c #D11C28",
"N  c #D11835",
"B  c #C72528",
"V  c #D52525",
"C  c #C73739",
"Z  c #D33739",
"A  c #AA5617",
"S  c #904F31",
"D  c #AE4239",
"F  c #B04D31",
"G  c #B4423C",
"H  c #99722F",
"J  c #B76533",
"K  c #C77133",
"L  c #9C3A40",
"P  c #B23742",
"I  c #B43E42",
"U  c #C83A41",
"Y  c #934C52",
"T  c #A94646",
"R  c #B44745",
"E  c #AD4E52",
"W  c #AA5959",
"Q  c #B85858",
"!  c #8D625A",
"~  c #B86B54",
"^  c #BA5C62",
"/  c #927873",
"(  c #B86568",
")  c #BA7D62",
"_  c #C35B4D",
"`  c #C35B5B",
"'  c #CC644E",
"]  c #C46769",
"[  c #CF746B",
"{  c #CA7C7C",
"}  c #DB7575",
"|  c #DA7977",
" . c #DE737C",
".. c #E46363",
"X. c #7C837C",
"o. c #B08F3B",
"O. c #CA9227",
"+. c #B49A4E",
"@. c #B2A54D",
"#. c #C3864C",
"$. c #ED9249",
"%. c #DCAB44",
"&. c #F5B34C",
"*. c #CA847E",
"=. c #D19574",
"-. c #CFAA78",
";. c #EDD351",
":. c #F4D159",
">. c #EEE478",
",. c #CD7D85",
"<. c #57D5D6",
"1. c #63D9CE",
"2. c #78CED1",
"3. c #68D8D6",
"4. c #58E6D8",
"5. c #65E4DB",
"6. c #75E1DB",
"7. c #67DDE1",
"8. c #72EDE7",
"9. c #908988",
"0. c #B98586",
"q. c #B1958B",
"w. c #BAB099",
"e. c #BBB8AD",
"r. c #B5B5B0",
"t. c #C98684",
"y. c #D58989",
"u. c #DA998C",
"i. c #CC9293",
"p. c #D89A98",
"a. c #E89A96",
"s. c #D1B095",
"d. c #E5AD9D",
"f. c #DD9EA6",
"g. c #DAA8A5",
"h. c #C5BAA7",
"j. c #CFB1AD",
"k. c #DBB4B4",
"l. c #E3ABAC",
"z. c #E8A8A8",
"x. c #EFACAA",
"c. c #E3B5AA",
"v. c #E7BAB7",
"b. c #F4BCBA",
"n. c #D4C596",
"m. c #E3D197",
"M. c #F9EF84",
"N. c #D4CCB6",
"B. c #E9C5BB",
"V. c #EFD0B4",
"C. c #F8F0BC",
"Z. c #BEBDC3",
"A. c #DEBDC9",
"S. c #90D5CE",
"D. c #87DBDB",
"F. c #98DADB",
"G. c #B9CBC8",
"H. c #BDCCCB",
"J. c #A9D0CC",
"K. c #B9D2C9",
"L. c #A7CED3",
"P. c #B6CED3",
"I. c #A5D9D9",
"U. c #B9D5D5",
"Y. c #86E2DA",
"T. c #B7E4DB",
"R. c #94DFE6",
"E. c #8EEEEB",
"W. c #88F8F4",
"Q. c #98FBF7",
"!. c #B5EBEA",
"~. c #B4F0EE",
"^. c #A9FAF8",
"/. c #B6F6F7",
"(. c #BBFAF5",
"). c #B4FAFB",
"_. c #BBF9FB",
"`. c #C4C5C4",
"'. c #CAC6C5",
"]. c #C3CAC5",
"[. c #CACBC5",
"{. c #C5C6CA",
"}. c #CBC6CA",
"|. c #C4CBCA",
" X c #CBCBCA",
".X c #D6C9CA",
"XX c #CAD5CC",
"oX c #D8D6C9",
"OX c #CCCCD1",
"+X c #D3CCD2",
"@X c #CCD4D3",
"#X c #C8D9D6",
"$X c #D9D7D6",
"%X c #D4DAD5",
"&X c #D4DBDA",
"*X c #E7C9C7",
"=X c #EFCDCA",
"-X c #F7C9C6",
";X c #F2CDC9",
":X c #E8D7C5",
">X c #EED1CA",
",X c #F6D5CC",
"<X c #EBCDD1",
"1X c #E9DAD6",
"2X c #F8D4D4",
"3X c #F6DCD5",
"4X c #F9DCD5",
"5X c #F4DCDA",
"6X c #FADCDB",
"7X c #D9E1DA",
"8X c #F9E9C5",
"9X c #E8E3D7",
"0X c #F5E5D7",
"qX c #FCE4DC",
"wX c #FCF5D9",
"eX c #E8DFE2",
"rX c #FFDDE1",
"tX c #C8EBEB",
"yX c #DBEAE7",
"uX c #D3F3EB",
"iX c #C4F8F5",
"pX c #D7F8F6",
"aX c #E8E7E6",
"sX c #EDECEC",
"dX c #F3E5E3",
"fX c #FCE3E3",
"gX c #FCEBE5",
"hX c #F9E7E8",
"jX c #F4EDEC",
"kX c #FCECEB",
"lX c #EDF3ED",
"zX c #EDFCEF",
"xX c #FCF3E4",
"cX c #F7F7E9",
"vX c #F4F4ED",
"bX c #FBF4ED",
"nX c #FAFAEC",
"mX c #ECEEF2",
"MX c #F4EEF4",
"NX c #FBEDF7",
"BX c #EDF3F2",
"VX c #E7F9F7",
"CX c #EDFAF5",
"ZX c #EDFBFB",
"AX c #F4F4F4",
"SX c #FBF5F4",
"DX c #F4FAF5",
"FX c #FBFAF5",
"GX c #F5F5FA",
"HX c #FBF5FA",
"JX c #F5FCFB",
"KX c #FCFEFD",
/* pixels */
"KXKXKXKXKXKXKXKXKXKXKXKXKXKXKXKXKXKXKXKXKXKXKXKXKXKXHXHXGXSXAXMXHXHXGXZXGXGXHXFXKXKXKXKXKXKXKXKXKXKXKXKXKXKXKXKXKXKXKXKXKXKXKXKXKXKXKXKXKXKX",
"KXKXKXKXKXKXKXKXKXKXKXKXKXKXKXKXKXKXKXKXKXKXKXKXKXKXJXZXGXjXjXjXhXkXMXGXGXSXvXFXFXKXFXKXKXKXKXHXKXHXKXKXKXKXKXKXKXKXKXKXKXKXKXKXKXKXKXKXKXKX",
"KXKXKXKXKXKXKXKXKXKXKXKXKXKXKXKXKXKXKXKXKXKXKXKXKXKXDXjXk.k.l.z.l.l.z.l.l.k.j.0XHXKXKXKXKXHXKXKXKXKXKXKXKXKXKXKXKXKXKXKXKXKXKXKXKXKXKXKXKXKX",
"KXKXKXKXKXKXKXKXKXKXKXKXKXKXKXKXKXKXKXKXKXKXKXKXKXHXkXb.w C C Z Z B Z Z U C R c.bXFXKXKXKXKXKXKXKXKXKXKXKXKXKXKXKXKXKXKXKXKXKXKXKXKXKXKXKXKX",
"KXKXKXKXKXKXKXKXKXKXKXKXKXKXKXKXKXKXKXKXKXKXKXKXHXHXgXx.: n d k k p c b b f 8 a.SXSXKXKXKXKXKXKXKXHXKXKXKXKXKXKXKXKXKXKXKXKXKXKXKXKXKXKXKXKX",
"KXKXKXKXKXKXKXKXKXKXKXKXKXKXKXKXKXKXKXKXKXKXKXKXKXKXkXu.: d j h h g g g c d 6 y.kXFXKXHXKXKXHXKXKXKXKXKXKXKXKXKXKXKXKXKXKXKXKXKXKXKXKXKXKXKX",
"KXKXKXKXKXKXKXKXKXKXKXKXKXKXKXKXKXKXKXKXKXKXKXKXKXFXkX*.: d j h h h j j g b 1 *.kXHXKXHXKXKXJXKXKXKXKXKXKXKXKXKXKXKXKXKXKXKXKXKXKXKXKXKXKXKX",
"KXKXKXKXKXKXKXKXKXKXKXKXKXKXKXKXKXKXKXKXKXKXKXKXKXSXgX( 2 d v z h h h j j b > ] gXHXHXJXKXJXKXKXKXKXKXKXKXKXKXKXKXKXKXKXKXKXKXKXKXKXKXKXKXKX",
"KXKXKXKXKXKXKXKXKXKXKXKXKXKXKXKXKXKXKXKXKXKXHXKXHXFXqXE 2 d x z l h h h j k > ` rXNXHXFXKXZXKXKXKXKXKXKXKXKXKXKXKXKXKXKXKXKXKXKXKXKXKXKXKXKX",
"KXKXKXKXKXKXKXKXKXKXKXKXKXKXKXKXKXKXKXKXKXKXKXKXKXFX0Xt 2 d x x h h h z j c < _ 2XNXHXHXJXZXJXKXKXKXKXJXKXKXKXKXKXKXKXKXKXKXKXKXKXKXKXKXKXKX",
"KXKXKXKXKXKXKXKXKXKXKXKXKXKXKXKXKXKXKXJXKXKXJXKXKXbX,Xq 3 d v x h h l z j c > R ;XkXSXJXJXJXJXKXHXKXKXKXKXKXKXKXKXKXKXKXKXKXKXKXKXKXKXKXKXKX",
"KXKXKXKXKXKXKXKXKXKXKXKXKXKXKXKXKXKXKXKXKXKXKXKXKXSX-X0 , d v z z l z l j a > D A.kXSXHXKXJXJXKXKXKXKXKXKXKXKXKXKXKXKXKXKXKXKXKXKXKXKXKXKXKX",
"KXKXKXKXKXKXKXKXKXKXKXKXKXKXKXKXKXKXJXKXKXKXKXKXKXSXb.6 , d j l z h z h h k , q v.fXHXSXHXHXKXKXKXHXKXKXKXKXKXKXKXKXKXKXKXKXKXKXKXKXKXKXKXKX",
"KXKXKXKXKXKXKXKXKXKXKXKXKXKXKXKXKXKXKXKXKXKXKXKXKXSXc.0 e B V V V V V V V B 6 w k.kXSXHXHXKXHXKXKXKXKXKXKXKXKXKXKXKXKXKXKXKXKXKXKXKXKXKXKXKX",
"KXKXKXKXKXKXKXKXKXKXKXKXKXKXKXKXKXKXJXKXKXKXKXKXKXSX*X0.{ p.a.a.a.a.a.a.d.a.t.0.<XkXJXHXKXHXKXKXKXKXKXKXKXKXKXKXKXKXKXKXKXKXKXKXKXKXKXKXKXKX",
"KXKXKXKXKXKXKXKXKXKXKXKXKXKXKXKXKXKXKXKXKXKXKXKXKXKX9X'.'.jXkXxXqXgXfXfXkXhX.X'.eXAXHXJXJXJXKXKXKXKXKXJXKXKXKXKXKXKXKXKXKXKXKXKXKXKXKXKXKXKX",
"KXKXKXKXKXKXKXKXKXKXKXKXKXKXKXKXKXKXKXKXKXKXKXKXKXHXeXOX{.AXJXHXFXHXHXSXHXHX+X`.7XDXJXHXDXJXKXKXHXKXKXKXKXKXKXKXKXKXKXKXKXKXKXKXKXKXKXKXKXKX",
"KXKXKXKXKXKXKXKXKXKXKXKXKXJXJXHXHXDXJXJXDXJXKXKXJXKX7X}.`.AXAXzXAXHXSXHXKXAXOX`.7XJXKXKXKXJXJXJXKXKXKXJXKXKXKXKXKXKXKXKXKXKXKXKXKXKXKXKXKXKX",
"KXKXKXKXKXKXKXKXKXKXKXKXKXHXHXJXKXDXJXDXJXFXKXFXJXDX&X|. XBXCXVXVXCXJXVXZXZX#XH.&XHXHXHXJXDXJXJXKXHXKXJXJXKXKXKXKXKXKXKXKXKXKXKXKXKXKXKXKXKX",
"KXKXKXKXKXKXKXKXKXKXKXKXKXJXKXKXKXJXGXHXKXKXHXDXKXCX#X|.|.yXpXpXiXpXpXuXpXpXU.H.@XGXHXHXJXJXZXJXKXJXHXHXKXKXKXKXKXKXKXKXKXKXKXKXKXKXKXKXKXKX",
"KXKXKXKXKXKXKXKXKXKXKXKXKXZXZXJXHXHXHXHXHXKXJXJXKXBX#XH.K.tXiX(.(.iXiXiXiXtXK.K.#XvXHXHXJXZXZXJXHXHXHXJXJXKXKXKXKXKXKXKXKXKXKXKXKXKXKXKXKXKX",
"KXKXKXKXKXKXKXKXKXKXKXKXKXZXJXJXKXHXHXHXJXJXZXJXHXMX@XH.J.!.(.(./.)././.(.!.I.K.XXBXHXGXGXZXGXHXHXHXHXJXZXKXKXKXKXKXKXKXKXKXKXKXKXKXKXKXKXKX",
"KXKXKXKXKXKXKXKXKXKXKXKXKXZXDXJXJXJXGXCXZXCXZXJXHXmXOXP.J.!./.^.).).)./.(.(.L.P.|.BXJXJXVXZXZXGXMXHXHXJXJXKXKXKXKXKXKXKXKXKXKXKXKXKXKXKXKXKX",
"KXKXKXKXKXKXKXKXJXKXKXKXKXHXGXJXCXCXzXzXsXdXMXMXJXaXU.L.I.~.).(.)._.)./._./.F.L.H.BXJXJXsXsXMXMXAXJXKXSXDXHXKXKXKXKXKXKXKXKXKXKXKXKXKXKXKXKX",
"KXKXKXKXKXKXKXKXKXKXKXKXKXGXHXJXDXcXcX5X*Xg.<XkXJXuXI.S.R.(.).(._._._._._.).R.S.P.pXZXMX*Xj.*X2XjXvXMXHXHXKXJXKXKXKXKXKXKXKXKXKXKXKXKXKXKXKX",
"KXKXKXKXKXKXJXKXKXFXKXKXKXJXJXFXbXgX;Xu.W Y l.kXZXtXF.2.E.^.^.(.iX(.(.(.).^.E.2.L.iXVXjXf.T ^ y.-XgXvXDXJXHXKXKXKXKXKXHXKXKXKXKXKXKXKXKXKXKX",
"DXDXDXJXJXGXHXJXHXJXCXDXDXDXDXqX2Xd.T q w ( -XNXmXtXR.<.8.Q.^._.(.(.(.(.).Q.8.3.F.!.VXSX<X] P e E f.4XsXsXFXFXzXvXFXDXJXHXKXJXHXJXJXKXJXKXKX",
"FXDXZXVXZXJXGXGXDXCXDXvXgX4X*Xi.( T W { g.>XgXBXmXtXS.<.5.Q.).)._.(.~.(.^.W.7.<.6.~.VXAXhX;Xl.,.E E ( i.B.3XgXbXAXAXAXHXHXHXKXJXJXJXJXJXKXJX",
"HXJXJXVXCXJXJXAXAXvXbX,Xv.y.Q T ( t.-X2XhXMXGXJXpXT.R.<.<.8.^.)._.).(./.^.Q.4.7.Y.T.VXJXNXMXjX5Xv.t.^ E ] y.l.5XbXcXAXSXHXHXKXKXJXZXJXKXKXKX",
"SXJXJXJXDXKXFXMXdXhXB.*.Q D _ u.B.5XSXNXNXNXZXJXpX#XI.6.4.8.^.).).^.(.(.^.8.<.7.S.U.ZXJXGXMXSXMXkX6Xb.p.~ T W t.-XdXjXSXJXHXHXJXJXJXJXKXKXKX",
"AXFXFXHXKXJXSXhX-Xy.T w W d.,XwXcXnXSXHXNXHXHXHXBX@XP.R.4.4.W.^.).^./.^.Q.5.<.Y.U.H.GXGXGXGXDXJXzXbXnXgX3Xg.^ L T t.*XbXFXzXKXJXHXHXKXKXKXKX",
"VXBXHXjXkX0XB.=.E D ( l.>XgXSXSXvXSXDXDXJXSXMXjXsXOXP.I.4.4.W.^._.iX(.^.W.<.3.R.P.H.VXZXMXGXJXJXDXDXSXSXSXhX<Xl.] E ^ y.*XdXdXMXGXAXDXKXDXJX",
"uXlXjX<Xc.u.~ ~ ) u.;XhXNXHXGXMXvXvXzXzXzXcX1XoXoX[.K.I.D.1.8.^.)._./.^.8.1.D.U.XXG.#X&XyXGXGXAXCXVXlXlXkXAXSX5X=Xp.{ ( ( i.k.eXjXhXHXHXFXJX",
"9X,Xl.| T ` *.c.,X9XSXSXSXeX$X7X&X&XsXZXJXCX@X].[.].K.J.F.D.6.W.Q.Q.E.E.6.6.I.P. X|.K.H.%XNXHXHXyX7X7X$X$XaXDXBXBXdX<Xx.,.( W { x.-XkXSXFXFX",
"x.' u m e x.6XvXzXFXSXSXvXoXN.[.{.].7XJXHXKX@X|.G.].K.K.J.!.3.7.5.5.5.3.2.Q.T.G.|.|.G.H.%XGXHXSX7XXX].[. X$XAXVXZXVXlXhX6Xz.P e u _ b.dXSXSX",
"6 f d d 8 b.SXJXZXHXSXFXjXN.oXXXXXXX&XHXHXKXOX|.|.K.G.P.G.pX).^.Q.Q.Q.^.).pX#XG.|.].].}.%XGXHXlX$X X@XoXXX@XmXJXZXZXJXDXNX-XI 4 f f w i.kXSX",
"p p h p 4 -XnXKXKXJXJXSXmXsXvXsXlXlXaXmXHXJX$X}.[.'.].].'.ZXZXVXVXtXpXpXVXZX@XG.].[.[. X$XAXFXsXaXsXBXlXBXsXsXCXKXHXFXDXkX-Xu f k p 1 ] 6XSX",
"p p h p 8 -XFXKXJXJXJXJXmXGXFXGXJXJXZXaXKXHX+XOX'.'.'.].'.NXGXZXZXZ.BXZXZXHX[.`.[.].[.'.$XFXHXsXMXKXHXHXHXGXMXAXHXJXSXKXbX-Xy f k p > ` 6XSX",
"p g h c 8 -XFXHXHXDXDXHXGXGXAXHXJXJXGXBXJXHX$X$XOX{.'.[.}.HXHXHXHX9.dXJXFXHX'.'.].].XXXX7XDXSXSXDXHXJXGXHXHXSXSXHXKXHXKXNX;Xu f g g , ` rXSX",
"p g h k 8 -XbXFXFXSXFXDXJXHXFXbXFXHXFXHXcXKXeX7X$X X`.'..XSXKXbXNXY <XHXHXHX+X.X[.].#XyXaXAXvXFXFXFXJXHXHXKXHXGXKXHXHXHXkX-XU d g p , ` rXHX",
"p g h p 4 x.8X6X6X4X4X0XqXqX4X6X6X4X3X3X3X1X9X9X$X{.{.{.OXvXFXnXrXO A.NXAXKX+XA.+X}.@X7X1X0X2X4X0X9X0X0X0X5X3X3X5X6X5X6X;Xx.B d k k > ` qXSX",
"p g h g a .. . . .} | }  . . . .} } } { *.*.b.5X+X{.{.}.[.lXFXbX*Xo f.kXDXKX X.XA.Z.%X1Xv.,. .} | | | | } } } | | | } } } ..M k k p 1 Q rXHX",
"i p p g a N M N m m n n M m m m M n n 8 e w z.2X<X}.{.{.{.zXnXbXf.7 y.kXDXJX}.+X}.{.%X1Xp.P m m n B n V M n B n n n n B n n d g p i 2 ^ rXHX",
"3 < > i < 3 3 s s < 1 < s < 3 i i i > 1 : 7 z.rX$XOX{. X].DXnXxXp.7 y.kXKXHXOX+XOXH.%X9Xp.e 3 f i < > i s 3 3 s < i > < 1 4 3 s 1 2 : ^ fXHX",
"R D D D D R P I y D D D y y G I r r r G T T l.fX@X|.{.'.{.DXFXxXp.7 y.hXKXJXOX'.'.H.&X5Xg.E u C y t r G R I I G u u u y R T I I T T T 0.rXjX",
"=X>X;X>X;X;X;X=X;X>X>X>X;X:X>Xv.w.s.d.v.A.A.<XdXoX].{.[.|.JXSXkXp.9 y.kXKXJX[.[.[.`.@X5X>XB.B.v.k.s.q.B.*X,X;X;X>X>X>X=X=X=X=X=X>X>X<X1XhXbX",
"bXbXnXbXbXbXbXbXbXbXbXbXbXcXcXaX.Xh.h.N..X$X.XoXe.e.[. X|.JXHXkXp.9 t.xXHXJXOX[.[.e.e.oXoX*XoXN.e.e.N.9XcXvXFXbXbXnXvXSXnXbXbXvXbXbXkXSXHXbX",
"JXKXHXKXKXJXJXKXKXHXKXHXJXCXmXvXgX:Xs.v.9X9X9XV.n.:XoX[.|.BXNXkXp.9 y.xXJXFXXX[.1XoXw.N.:X9X0XN.h.oXwXcXFXDXKXFXJXKXKXKXJXJXKXKXJXKXDXFXSXJX",
"JXKXJXJXJXJXKXJXJXJXJXJXKXKXAXHXkXgXV.w.C.C.C.m.n.wX9Xe.H.7XaX5Xp.9 t.1XaXaXG.r.9XwXs.m.C.C.C.n.N.wXBXJXKXJXJXJXJXJXJXJXJXZXJXJXJXJXJXDXJXJX",
"JXJXJXJXJXJXJXJXJXJXJXDXJXKXvXHXHXxX8Xo.>.>.M.@.n.xX.X% # - * * O 9 9 * - - @ = '.wXn.+.>.>.>.@.C.wXHXJXJXJXJXJXZXJXJXJXJXJXJXJXJXJXJXZXJXJX",
"FXKXKXFXKXFXFXKXKXFXKXKXKXKXDXSXFXbXC.o.%.:.:.H V.xX$X$ . % # & O 0 X & $ # . = oXwXC.o.:.:.;.o.C.bXHXGXDXJXKXJXJXJXJXJXJXJXJXJXJXJXJXKXKXKX",
"KXFXKXKXFXKXKXKXKXFXKXFXKXHXAXbXnXxXwX-.O.:.%.H 8XwXcX* . # $ & o 0 X & $ # . ; 9XjX8X#.&.;.O.o.wXSXHXAXKXDXKXKXKXKXKXKXKXKXJXKXKXKXKXKXKXJX",
"KXKXKXKXKXKXKXHXKXKXKXKXJXHXSXbXnXzXxXd.J $.K ) 0XwXxX9.  # @ & O 0 X & + # . 9.vXbXqX=.O.%.A =.jXNXHXHXFXKXKXKXHXKXKXKXKXKXKXKXKXKXHXHXKXKX",
"KXKXKXKXKXKXKXKXKXKXHXKXKXHXKXFXDXDXnXV.J $.F u.xXwXkXr.  # # & O 0 9 & @ # + w.CXMX4Xu.J $.A V.kXHXHXFXKXKXKXKXKXKXKXKXKXKXKXKXKXKXKXKXHXKX",
"KXKXKXHXKXHXKXKXKXKXKXHXKXKXKXKXKXDXxX,X' ' F V.nXSXSXoX; X.X./ ! 7 W / / X.X.OXJXGXgXd.F K A 8XSXHXNXKXFXKXKXKXKXKXKXKXKXKXKXKXKXKXKXKXKXKX",
"KXKXKXKXKXKXKXKXKXKXKXKXKXKXKXHXJXKXnX8X[ r F 4XnXFXHXSX&X7X%X1Xv.w p.*X$X$X7XmXHXHXkXV._ A ~ qXbXHXHXHXFXKXKXKXKXKXKXKXKXKXKXKXKXKXKXKXKXKX",
"KXKXKXKXKXKXKXKXKXKXKXKXKXHXKXKXJXKXFXqX=.q [ qXSXHXHXAXDXJXCXDXrXY v.gXSXAXFXHXKXJXHX4X[ 5 p.fXFXHXHXDXKXKXKXKXKXKXKXKXKXKXKXKXKXKXKXKXKXKX",
"KXKXKXKXKXKXKXKXKXKXKXKXKXKXKXKXJXKXJXgXg.S p.gXSXKXHXKXHXJXJXHXNX! =XbXSXKXHXHXHXJXHXkXy.q b.kXHXHXHXJXKXKXKXKXKXKXKXKXKXKXKXKXKXKXKXKXKXKX",
"KXKXKXKXKXKXKXKXKXKXKXKXKXKXHXJXJXKXSXSX*X! k.NXHXKXKXHXKXJXJXJXNXq.hXSXFXKXHXKXHXKXHXSXg.E 2XNXHXHXHXKXFXKXKXKXKXKXKXKXKXKXKXKXKXKXKXKXKXKX",
"KXKXKXKXKXKXKXKXKXKXKXKXKXKXJXDXFXHXHXbX9Xq.oXHXGXJXKXKXHXJXJXJXHX.XMXSXFXHXKXJXKXHXJXHX*X0.hXNXnXFXDXKXKXKXKXKXKXKXKXKXKXKXKXKXKXKXKXKXKXKX",
"KXKXKXKXKXKXKXKXKXKXKXKXKXHXKXDXDXFXHXHXcX.XdXHXHXKXDXKXHXKXJXJXHXlXDXDXSXHXKXJXHXHXHXJXeX.XMXGXnXnXFXKXHXKXKXKXKXKXKXKXKXKXKXKXKXKXKXKXKXKX",
"KXKXKXKXKXKXKXKXKXKXKXKXKXKXKXCXDXHXHXKXFXvXSXHXHXJXDXKXKXHXJXKXKXFXDXFXFXHXKXJXKXSXFXKXJXMXHXKXnXnXFXKXKXKXKXKXKXKXKXKXKXKXKXKXKXKXKXKXKXKX",
"KXKXKXKXKXKXKXKXKXKXKXKXKXKXKXDXKXJXKXKXKXFXKXJXKXKXKXKXKXKXKXKXKXKXFXKXKXKXKXJXKXKXKXKXHXKXKXJXFXFXFXKXKXKXKXKXKXKXKXKXKXKXKXKXKXKXKXKXKXKX",
"KXKXKXKXKXKXKXKXKXKXKXKXKXKXKXKXKXKXKXKXKXKXKXKXKXKXKXKXKXKXKXKXKXKXKXKXKXKXKXKXKXKXKXKXKXKXKXKXKXKXKXKXKXKXKXKXKXKXKXKXKXKXKXKXKXKXKXKXKXKX",
"KXKXKXKXKXKXKXKXKXKXKXKXKXKXKXKXKXKXKXKXKXKXKXKXKXKXKXKXKXKXKXKXKXKXKXKXKXKXKXKXKXKXKXKXKXKXKXKXKXKXKXKXKXKXKXKXKXKXKXKXKXKXKXKXKXKXKXKXKXKX",
"KXKXKXKXKXKXKXKXKXKXKXKXKXKXKXKXKXKXKXKXKXKXKXKXKXKXKXKXKXKXKXKXKXKXKXKXKXKXKXKXKXKXKXKXKXKXKXKXKXKXKXKXKXKXKXKXKXKXKXKXKXKXKXKXKXKXKXKXKXKX",
"KXKXKXKXKXKXKXKXKXKXKXKXKXKXKXKXKXKXKXKXKXKXKXKXKXKXKXKXKXKXKXKXKXKXKXKXKXKXKXKXKXKXKXKXKXKXKXKXKXKXKXKXKXKXKXKXKXKXKXKXKXKXKXKXKXKXKXKXKXKX",
"KXKXKXKXKXKXKXKXKXKXKXKXKXKXKXKXKXKXKXKXKXKXKXKXKXKXKXKXKXKXKXKXKXKXKXKXKXKXKXKXKXKXKXKXKXKXKXKXKXKXKXKXKXKXKXKXKXKXKXKXKXKXKXKXKXKXKXKXKXKX",
"KXKXKXKXKXKXKXKXKXKXKXKXKXKXKXKXKXKXKXKXKXKXKXKXKXKXKXKXKXKXKXKXKXKXKXKXKXKXKXKXKXKXKXKXKXKXKXKXKXKXKXKXKXKXKXKXKXKXKXKXKXKXKXKXKXKXKXKXKXKX",
"KXKXKXKXKXKXKXKXKXKXKXKXKXKXKXKXKXKXKXKXKXKXKXKXKXKXKXKXKXKXKXKXKXKXKXKXKXKXKXKXKXKXKXKXKXKXKXKXKXKXKXKXKXKXKXKXKXKXKXKXKXKXKXKXKXKXKXKXKXKX"
};
