/* XPM */
static char *o_mino[] = {
/* columns rows colors chars-per-pixel */
"20 20 96 2 ",
"   c #9F7A05",
".  c #A17C06",
"X  c #A47E05",
"o  c #A68006",
"O  c #AA8305",
"+  c #AA8306",
"@  c #A38108",
"#  c #B18704",
"$  c #B68C05",
"%  c #BC8E03",
"&  c #BC9005",
"*  c #BC9106",
"=  c #B0900B",
"-  c #B4930C",
";  c #BB910B",
":  c #B7980B",
">  c #B8980D",
",  c #BB9A0C",
"<  c #BC9A0D",
"1  c #BD9412",
"2  c #BF9714",
"3  c #B99A13",
"4  c #BE9C12",
"5  c #BC9D1A",
"6  c #BC9D1D",
"7  c #BC9D1E",
"8  c #AB9623",
"9  c #B59D24",
"0  c #BC9D21",
"q  c #BB9E24",
"w  c #B99F28",
"e  c #B89F2C",
"r  c #BFA125",
"t  c #B8A02D",
"y  c #BDA537",
"u  c #C39B07",
"i  c #C39D09",
"p  c #C19F0F",
"a  c #C09F13",
"s  c #C09F14",
"d  c #C7A40B",
"f  c #C4A10D",
"g  c #C5A20C",
"h  c #C6A30C",
"j  c #C9A70B",
"k  c #C8A50C",
"l  c #CAA80A",
"z  c #CDAA0A",
"x  c #CDAA0C",
"c  c #CDAC17",
"v  c #C4A31C",
"b  c #CDAB19",
"n  c #CEAD23",
"m  c #C1A329",
"M  c #C1A32A",
"N  c #C0A32D",
"B  c #CEAE2A",
"V  c #C7A937",
"C  c #CDAF31",
"Z  c #CAAC39",
"A  c #CFB030",
"S  c #CEB032",
"D  c #CEB034",
"F  c #BCA746",
"G  c #C1A942",
"H  c #C0A944",
"J  c #CFB349",
"K  c #CEB44A",
"L  c #D1B54A",
"P  c #D0B54C",
"I  c #C9B152",
"U  c #D3B853",
"Y  c #D3B857",
"T  c #D4B855",
"R  c #D0B85A",
"E  c #D5B858",
"W  c #D6BA5A",
"Q  c #D6BA5C",
"!  c #C9B461",
"~  c #CFB769",
"^  c #CCB76E",
"/  c #D0BA62",
"(  c #D3BA66",
")  c #D6BC65",
"_  c #D5BD6A",
"`  c #D5BE6E",
"'  c #D1BB71",
"]  c #D5BE71",
"[  c #D5BF74",
"{  c #D4BF78",
"}  c #D4BF7A",
"|  c #D4BF82",
" . c #D4BD84",
".. c #D5B888",
"X. c #D4C180",
"o. c #D4C081",
/* pixels */
"y L W W Q W Q W Q W Q W Q Q W Q Q W W Z ",
"t y Y W Q W Q Q Q Q Q Q W Q Q Q Q W V 3 ",
"e q H _ { ) ] ] { { ` [ ) ] ] [ _ R 2 * ",
"t 0 F | | | X.| X.X.X.X.X.X.X.X.X.! 1 % ",
"t 0 F  . ...|  .X.X.X.] { ' ' ] / G ; * ",
"t 0 F X.X.X.| X.X.( ~ P K D C A B v * * ",
"t 7 N _ ^ Q Q Q I J A n x x x x z f % % ",
"w 4 m Q Q U P C b c x x x z z z z l * % ",
"t 5 m T P D n x z z z z z z z z z u u % ",
"t 0 r A c x z z z z z z z z z z z j % % ",
"t 7 4 z z z z z z z z z z z z z z g * % ",
"t 7 a z z z z z z z z z z z z z z g * % ",
"t 7 f l z z z z z z z z z z z z z g * % ",
"t 7 a z z z z z z z z z z z z z l u % % ",
"t 7 p z z z z z z z z z z z z z x j * % ",
"t 7 a z j z z j l z z z z z z z x i % % ",
"t 7 4 x l l k l z l k f l j f l k u % % ",
"w 7 > < , , < < : < < < < < < < < - $ # ",
"9 = + o . . . . . . . .   . . . . . O # ",
"8 @                     .       .   . O "
};
