/* XPM */
static char *s_mino[] = {
/* columns rows colors chars-per-pixel */
"20 20 112 2 ",
"   c #1BA100",
".  c #1CA202",
"X  c #20A300",
"o  c #2AA506",
"O  c #23A900",
"+  c #2FAA06",
"@  c #33AE04",
"#  c #3AB504",
"$  c #3EB507",
"%  c #3BB803",
"&  c #42BA0F",
"*  c #49BB0B",
"=  c #4FBE0A",
"-  c #4FBE0E",
";  c #51BE0A",
":  c #47B811",
">  c #4ABB17",
",  c #4BBB1A",
"<  c #4FBE1B",
"1  c #55BC1F",
"2  c #589231",
"3  c #5D9738",
"4  c #55C10B",
"5  c #53C10D",
"6  c #53C10E",
"7  c #55C20E",
"8  c #5AC50F",
"9  c #5CC50D",
"0  c #5DC50D",
"q  c #5DC40F",
"w  c #5EC50E",
"e  c #53C311",
"r  c #56C314",
"t  c #59C511",
"y  c #5AC510",
"u  c #5EC511",
"i  c #58C215",
"p  c #5AC515",
"a  c #57C319",
"s  c #5DC41B",
"d  c #60C612",
"f  c #63C619",
"g  c #63C61E",
"h  c #56C220",
"j  c #57C224",
"k  c #57C225",
"l  c #58C223",
"z  c #5AC227",
"x  c #5CC229",
"c  c #5EC32B",
"v  c #64C021",
"b  c #61C520",
"n  c #65C422",
"m  c #6AC627",
"M  c #62C22D",
"N  c #6CC431",
"B  c #69C434",
"V  c #6CC537",
"C  c #6EC53C",
"Z  c #71C532",
"A  c #72C537",
"S  c #72C33C",
"D  c #70C53E",
"F  c #73C83F",
"G  c #76C83E",
"H  c #7BCC3E",
"J  c #6F9C45",
"K  c #6F9C49",
"L  c #709D49",
"P  c #709C4C",
"I  c #719C4D",
"U  c #719C52",
"Y  c #719C53",
"T  c #75C545",
"R  c #7AC64B",
"E  c #7EC54E",
"W  c #85CF4B",
"Q  c #86CF4D",
"!  c #87CF4F",
"~  c #82CC52",
"^  c #85CC57",
"/  c #89CE54",
"(  c #86CA5A",
")  c #87CA5B",
"_  c #8ACE5A",
"`  c #88C95C",
"'  c #88CA5D",
"]  c #8BCE60",
"[  c #8CCC63",
"{  c #8CCE62",
"}  c #8BC964",
"|  c #8ECB66",
" . c #8DCE64",
".. c #8FC968",
"X. c #8FCE68",
"o. c #93CC6E",
"O. c #96CE73",
"+. c #97CE74",
"@. c #97CE75",
"#. c #9ACE79",
"$. c #9ACE7B",
"%. c #9CCE7E",
"&. c #9ECE7F",
"*. c #9FCE80",
"=. c #9ECE82",
"-. c #9FCE83",
";. c #A0CE86",
":. c #A1CE86",
">. c #A3CE89",
",. c #A5CE8B",
"<. c #A7CE8D",
"1. c #A8CE8F",
/* pixels */
"2 3 J L P Y Y P Y Y K Y P Y P L L L L K ",
"v N H W / _ / / _ / _ _ / _ / Q Q Q Q Z ",
"i b c R X.X.X.X.X.X.X.X.X.X.X.] [ ) N : ",
"s b M E #.*.*.*.&.&.%.%.%.%.%.&.%...1 $ ",
"r b z T :.1.1.<.>.-.:.*.:.-.>.-.;.} > # ",
"t l j D *.,.>.:.*.%.%.#.+.o.] ) ~ G & # ",
"t g j C +.#.O.+.o.| ` Q G V b q 9 6 % # ",
"6 l j V ] X.[ ) E A m f d u q t u ; % # ",
"6 b j B ^ _ R A b u w 9 w 0 0 q 9 6 % # ",
"e j j x S N n d 9 u 9 w 9 w w q 9 6 % % ",
"e b j j g d w 9 9 9 9 9 0 q 0 0 9 6 % # ",
"e b j a p 9 9 w 9 9 9 w d q d q 9 ; % # ",
"e b j j a t 8 9 0 0 0 0 0 0 0 0 9 6 % # ",
"e b j a 9 9 9 9 0 0 0 0 0 0 0 0 9 4 % % ",
"e z j j 8 q 0 0 0 0 0 0 0 0 0 0 9 4 % # ",
"e s j a 9 0 0 0 0 0 0 0 0 0 0 0 q 4 % # ",
"e g a j e q q q q q 9 9 9 w 9 w 9 4 % # ",
"e l z < - ; ; ; ; ; ; ; ; ; ; ; ; * # # ",
"e s , + X X X X X X X X X X . . . . O @ ",
"r i + X . . . . . . . . . . . . . . . o "
};
