/* XPM */
static char *t_mino[] = {
/* columns rows colors chars-per-pixel */
"20 20 129 2 ",
"   c #75348E",
".  c #7E339C",
"X  c #7F349C",
"o  c #7802A7",
"O  c #7A02A9",
"+  c #7C02AD",
"@  c #7E03AD",
"#  c #80329D",
"$  c #8202B0",
"%  c #8503B7",
"&  c #8607B6",
"*  c #8604B9",
"=  c #8A05BD",
"-  c #8905BE",
";  c #8D05C7",
":  c #8F05CB",
">  c #8F02CD",
",  c #9004CF",
"<  c #9509CB",
"1  c #9013C3",
"2  c #9011C5",
"3  c #9718C7",
"4  c #9402D6",
"5  c #9A02D5",
"6  c #9702D8",
"7  c #9A02DA",
"8  c #A104DD",
"9  c #A204DE",
"0  c #A404DF",
"q  c #A818DE",
"w  c #9A20C7",
"e  c #9F29D0",
"r  c #AA30DA",
"t  c #A405E0",
"y  c #A604E2",
"u  c #A704E5",
"i  c #A704E6",
"p  c #AB03EB",
"a  c #AC06EA",
"s  c #AC03EC",
"d  c #AF03EF",
"f  c #AC04EC",
"g  c #B005EF",
"h  c #AF15E6",
"j  c #AE19E8",
"k  c #B113E9",
"l  c #B519EE",
"z  c #B003F0",
"x  c #B107F0",
"c  c #B302F4",
"v  c #B401F7",
"b  c #B600FA",
"n  c #B700FB",
"m  c #B800FB",
"M  c #B800FC",
"N  c #B810F4",
"B  c #BA19F3",
"V  c #BB18F5",
"C  c #AF26E3",
"Z  c #B626E7",
"A  c #B22CE6",
"S  c #BC2FE9",
"D  c #B82CEC",
"F  c #B634E3",
"G  c #B437E2",
"H  c #B733E5",
"J  c #B833E5",
"K  c #B23CE0",
"L  c #B53CE3",
"P  c #BA38E7",
"I  c #B83CE6",
"U  c #BB31E8",
"Y  c #BA38EE",
"T  c #BD25F2",
"R  c #BE2BF2",
"E  c #C028F3",
"W  c #C131F6",
"Q  c #BA46E7",
"!  c #B853E1",
"~  c #BF69E2",
"^  c #C14FEB",
"/  c #C35CEB",
"(  c #C547F4",
")  c #C649F0",
"_  c #C94CF6",
"`  c #C847FA",
"'  c #CD5AF5",
"]  c #D15BFB",
"[  c #D15CFC",
"{  c #C866EB",
"}  c #CB73ED",
"|  c #CE7BEF",
" . c #CE7FEF",
".. c #C867F0",
"X. c #CF66F6",
"o. c #CD6FF0",
"O. c #D567FD",
"+. c #D269FB",
"@. c #D76EFE",
"#. c #D073F3",
"$. c #D17CF2",
"%. c #D170F8",
"&. c #D374FA",
"*. c #D872FD",
"=. c #D778FB",
"-. c #D67EFA",
";. c #D77AFC",
":. c #D978FD",
">. c #DA7EFE",
",. c #D780FB",
"<. c #D983FD",
"1. c #DC83FE",
"2. c #DA85FC",
"3. c #DC86FE",
"4. c #D989FA",
"5. c #DC88FE",
"6. c #DD88FF",
"7. c #DF8EFE",
"8. c #DF94FC",
"9. c #E094FD",
"0. c #E395FF",
"q. c #E298FE",
"w. c #E59BFF",
"e. c #E59CFE",
"r. c #E7A0FE",
"t. c #EAA5FE",
"y. c #ECAAFF",
"u. c #EDAAFF",
"i. c #EDABFF",
/* pixels */
"  ! }  .,. .| ,.,.} ,.| |  .| | | ,. .~ ",
". K X.3.6.6.,.4.4.4.3.4.4.4.4.3.2.2.o.3 ",
"X G Q ;.w.w.0.0.8.8.q.q.q.q.9.q.0.$.e % ",
"X H L #.u.u.u.u.y.t.t.t.e.e.r.e.q.$.1 - ",
"X J P o.u.u.t.q.q.9.3.q.6.6.1.-.-...2 : ",
"X J I { r.0.7.3.:.=.&.+.' ( Y A C q > > ",
"X J J / 4.:.*.*.O._ D j k g z z z u 6 , ",
"X J J ^ @.@.[ ` T a g v v m m v g i 7 , ",
"# J U ) ] W N z z m b m M M b v z i 7 , ",
"# J S R l g v m b m M M M M M m z i 7 , ",
"X G E l f v m m m M M M M m M m z u 7 , ",
"# J E B v v m M m m M M M m m b v p 7 , ",
"# J E V v v m M M M M m M m b m c p 7 , ",
"# G E V v v m m M M M b M b b b b p 7 : ",
"# J E V v b M M M m m b b m m m b p 7 , ",
"# J E V v b m b m b M b m b b m b f 7 , ",
"# P E B c v m v b b b b b b b b b u 4 > ",
"# G Z h 0 0 y 0 y 7 8 8 8 8 8 0 8 5 : : ",
"# r < * % $ $ $ + O O O O O @ @ $ $ % ; ",
"# 3 @ O o o o o o O O O O O O O O @ $ - "
};
