/* XPM */
static char *tetris[] = {
/* columns rows colors chars-per-pixel */
"443 410 256 2 ",
"   c #030101",
".  c #0B0302",
"X  c #050901",
"o  c #0C0B02",
"O  c #08040B",
"+  c #120404",
"@  c #1B0303",
"#  c #120C04",
"$  c #150509",
"%  c #150A0A",
"&  c #1A0B0D",
"*  c #1B0707",
"=  c #0E1103",
"-  c #021701",
";  c #121205",
":  c #151409",
">  c #1A140D",
",  c #161A0B",
"<  c #1B1B0D",
"1  c #191904",
"2  c #070217",
"3  c #1D0D11",
"4  c #190415",
"5  c #1E1211",
"6  c #1D1D10",
"7  c #141716",
"8  c #061717",
"9  c #230201",
"0  c #280707",
"q  c #360506",
"w  c #23150A",
"e  c #220E14",
"r  c #290617",
"t  c #370B14",
"y  c #231214",
"u  c #231C13",
"i  c #2B141A",
"p  c #2A1716",
"a  c #35171A",
"s  c #381702",
"d  c #032701",
"f  c #1C2309",
"g  c #1E2211",
"h  c #1A2815",
"j  c #063605",
"k  c #26280A",
"l  c #242413",
"z  c #2A2415",
"x  c #2B2A16",
"c  c #2C2D19",
"v  c #282716",
"b  c #332C1A",
"n  c #36281C",
"m  c #2D3218",
"M  c #33331B",
"N  c #3B341B",
"B  c #383A1B",
"V  c #31330A",
"C  c #07052F",
"Z  c #3C1B23",
"A  c #361721",
"S  c #330829",
"D  c #393C21",
"F  c #3A2A25",
"G  c #0F2C2D",
"H  c #470105",
"J  c #461519",
"K  c #520D10",
"L  c #6A020A",
"P  c #433B1E",
"I  c #45371E",
"U  c #4C2B0C",
"Y  c #451924",
"T  c #511132",
"R  c #70152A",
"E  c #452B24",
"W  c #493823",
"Q  c #563927",
"!  c #512A32",
"~  c #6C2E30",
"^  c #682C11",
"/  c #0B5208",
"(  c #3A4618",
")  c #344F15",
"_  c #0D730A",
"`  c #3C4523",
"'  c #336E2A",
"]  c #25661D",
"[  c #48471A",
"{  c #4F511B",
"}  c #725817",
"|  c #494623",
" . c #564823",
".. c #495724",
"X. c #585525",
"o. c #545336",
"O. c #654728",
"+. c #685625",
"@. c #715528",
"#. c #586728",
"$. c #556F33",
"%. c #637934",
"&. c #646D2E",
"*. c #79640D",
"=. c #020457",
"-. c #050649",
";. c #06096E",
":. c #1C2566",
">. c #580E46",
",. c #6C0553",
"<. c #532F4E",
"1. c #6D3350",
"2. c #7B0764",
"3. c #59376D",
"4. c #6C396D",
"5. c #461E67",
"6. c #304C56",
"7. c #52514F",
"8. c #5A684C",
"9. c #555072",
"0. c #6F4274",
"q. c #5C636E",
"w. c #6B6353",
"e. c #B40F18",
"r. c #8F122E",
"t. c #AF0B34",
"y. c #8C3435",
"u. c #AC2A30",
"i. c #D30D14",
"p. c #EA1516",
"a. c #F92917",
"s. c #FD3719",
"d. c #EC2815",
"f. c #CA0936",
"g. c #F63425",
"h. c #D22D29",
"j. c #975C23",
"k. c #FE461C",
"l. c #FE4825",
"z. c #FF562B",
"x. c #CD7510",
"c. c #B71248",
"v. c #86026A",
"b. c #960279",
"n. c #8E0771",
"m. c #9B245B",
"M. c #D70249",
"N. c #CF084F",
"B. c #E80258",
"V. c #EC0255",
"C. c #FA0268",
"Z. c #FD0277",
"A. c #EB0965",
"S. c #D21A60",
"D. c #934747",
"F. c #AB4B48",
"G. c #986A60",
"H. c #CA4E49",
"J. c #0E9004",
"K. c #27970B",
"L. c #16A603",
"P. c #27A804",
"I. c #37B803",
"U. c #2EB006",
"Y. c #369A2A",
"T. c #47B907",
"R. c #56873C",
"E. c #65853B",
"W. c #4DB031",
"Q. c #3CC305",
"!. c #48C802",
"~. c #58D602",
"^. c #53CD08",
"/. c #66DA05",
"(. c #6FE607",
"). c #5BCD29",
"_. c #6A9346",
"`. c #589548",
"'. c #69CC4B",
"]. c #B19126",
"[. c #D78907",
"{. c #E99803",
"}. c #F49803",
"|. c #E88E0B",
" X c #DBB209",
".X c #F8A803",
"XX c #E5BB04",
"oX c #FDB703",
"OX c #EFAD10",
"+X c #D4902F",
"@X c #D4B12E",
"#X c #EBB42E",
"$X c #E29B2F",
"%X c #88E909",
"&X c #EBC502",
"*X c #FEC403",
"=X c #F8CA06",
"-X c #FBC617",
";X c #F7CF06",
":X c #FAC627",
">X c #F5C534",
",X c #DBC334",
"<X c #D9AC52",
"1X c #FAC650",
"2X c #FCC96D",
"3X c #DBC264",
"4X c #AC9A5D",
"5X c #070C8F",
"6X c #080CAE",
"7X c #1C2F9B",
"8X c #5C3C8A",
"9X c #3349A6",
"0X c #56508F",
"qX c #684588",
"wX c #6A4A94",
"eX c #5554AE",
"rX c #6854A9",
"tX c #685BB6",
"yX c #694FA5",
"uX c #5B65B2",
"iX c #6763BC",
"pX c #576190",
"aX c #0409D0",
"sX c #0202E9",
"dX c #0101FC",
"fX c #0104F5",
"gX c #0318F4",
"hX c #0327FA",
"jX c #0633F4",
"kX c #0C2BD2",
"lX c #0A50FC",
"zX c #0970FE",
"xX c #2C5DE5",
"cX c #6967C6",
"vX c #7074D5",
"bX c #5F66D3",
"nX c #B1058D",
"mX c #9D1183",
"MX c #C6059B",
"NX c #FE0186",
"BX c #FD0391",
"VX c #CA02A6",
"CX c #DA01B4",
"ZX c #D402AB",
"AX c #E704B8",
"SX c #F402C7",
"DX c #C8729B",
"FX c #0A8EFE",
"GX c #12A5FC",
"HX c #7D85E4",
"JX c #7A81DD",
"KX c #FACD89",
"LX c #838AE8",
"PX c #FFFEFD",
"IX c #FFFCF7",
"UX c #C19595",
/* pixels */
"PXPXPXPXPXPXPXPXPXPXPXPXPXPXPXPXPXPXPXPXPXPXPXPXPXPXPXPXPXPXPXPXPXPXPXPXPXPXPXPXPXPXPXPXPXPXPXPXPXPXPXPXPXPXPXPXPXPXPXPXPXPXPXPXPXPXPXPXPXPXPXPXPXPXPXPXPXPXPXPXPXPXPXPXPXPXPXPXPXPXPXPXPXPXPXPXPXPXPXPXPXPXPXPXPXPXPXPXPXPXPXPXPXPXPXPXPXPXPXPXPXPXPXPXPXPXPXPXPXPXPXPXPXPXPXPXIXPXPXIXPXPXIXPXPXPXPXPXIXPXPXPXPXPXIXIXPXPXIXIXIXIXIXPXIXPXIXIXIXIXIXPXIXIXIXPXIXIXIXPXPXPXIXIXIXPXIXIXIXIXIXIXIXIXIXIXIXIXPXIXIXIXIXIXIXIXIXIXPXIXPXPXIXIXPXIXIXIXIXIXIXIXIXIXPXIXPXPXIXIXIXIXIXIXIXIXIXIXPXPXPXIXIXIXIXIXPXIXPXIXIXIXIXPXIXPXPXIXIXIXIXIXPXIXIXIXIXIXIXIXIXPXIXIXPXIXIXIXIXIXIXIXPXIXPXIXIXIXIXIXIXIXIXIXIXIXIXIXIXIXIXIXPXIXIXIXIXIXPXIXIXIXPXPXIXPXPXPXIXPXPXIXIXPXPXIXPXPXPXPXPXPXPXPXPXPXPXPXPXPXPXPXPXIXPXPXPXPXPXPXPXPXPXPXPXPXPXPXPXPXPXPXPXPXPXPXPXPXPXPXPXPXPXPXPXPXPXPXPXPXPXPXPXPXPXPXPXPXPXPXPXPXPXPXPXPXPXPXPXPXPXPXPXPXPXPXPXPXPXPXPXPXPXPXPXPXPXPXPXPXPXPXPXPXPXPXPXPXPXPXPXPXPXPXPXPXPXPXPXPXPXPXPX",
"PXO     O                                                                                                                                                                                                                                                                                                       .   .     . .   .     .     .     .     .     . .     .   . .   O . .   X . o . . X   o . o o . O o o o O o o o . o o o O o o o O # # # O # o # # O # $ o O # # O + O # O # o # . # # O O $ o $ O # O $ # # O o # o O # # O # # O # # O # O o + o o o o . o o o O o o o o X O o o O . o . .   o   . . o   o o   .   X . .         o X     X X                   X                                                                                                                                                                                                                                   PX",
"PX    O                                                                                                                                                                                                                                                                           .   .     . . .   .     .   .           . .   o   . . . . . o . o . o o O o . o o o o + o . o o o # . o . o # o # O # O # o $ o $ o O $ # O # o . o o + o o o O o O o o o # O o o # o o o O o o o # o # o O # # O # # o o o o o o o o o # # o # O # o # o o O O o # o o # . o o o o o o o o o O ; # # O O # ; o o o o o o # O o # o O o o o O O o . o o o   o o   X O   X X   X O X o o     X                                   X                                                                                                                                                                                                 PX",
"IX    O                                                                                                                                                                                                                                                                                           .       .       . . . .   . . .       .   .     . . O . .   o O . . . O . o . . o . o . o . O . . o o o . o . o o o + o o # O o # # # o # o + ; # # # # # # # # o $ o $ # # # : % # # ; # : # # : # # : % # : # # # # $ o # # ; % # # # # # : # # # # # # # # o $ o # # # o $ o o o o o o o O o o O o o O o o o O o o . o . o o . o X X . X O   o   o o   o X X X   X   X                   X   X       X                                                                                                                                                                                                         PX",
"PX  O       O                                                                                                                                                                                                                                                               .     .       .   . .   . .   O .   . o . . . o . . . . o o o   o . o . . . . o . . . o . . o . o . . # o o . o . o o . . + o o . o + o . # o . # O o o . o + o # + o # o $ o o o # # # # # o O # # + # o o # # # # # # # # # # # O + o + o o O # # + # o o # o # + # # # o o # o o o o o o o + o o o # o o # o o . + O o o o O o . O o o o o o O o o . o . o . o X   X                 X X X     o X   . o   X o   o     o       X       O X         X   .                   O         O                                                                                                                                               PX",
"PX        O                                                                                                                                                                                                                                         O                       .     . .   .   . .   .   .   . .     .       . .   . o   . . . . .   . o O . . o O . . o o . o . o o . . . o o + o o # o o . # # o o # o o o # o # # # # + # o # # # # # # # # # # % # # # : # # : # : # # # # # # ; # # # : % % # ; # : ; # # # : # # # # # # # # o # # # $ o # o # # + ; O ; # # o # # o o # O o o o $ o o o o . o o . o o + o o O o o . . o   . O o o   o o O o X o       o X     o X   X   O X   O   X O X   O X     X     X           X                                                                                                                                                                           PX",
"PX                                                                                                                                                                                                                                                      O     O .                   .     . .   . .   . . . . . . . . . . . . . + . . . . . o . o . o . . . . + . o + . . o + o o o + o + + + o + . # + # # + # # # # . . # # # ; # # # # # # # # # # # # ; # # # # # # # # # # # # : # # % * ; # % : # # # # # # # # & # # # # # > # # # # # # # # # # # # # # # # # o o # o # # o # o # o o # o o o o . o o o . o o o o o O o . o o o o o O o o . X o   o   X o   X O   X .       o     .     X o         . X           .       X X                                                                                                                                                                               PX",
"PX                                                                                                                                                                                                                                                O         .   .     .   .   . . .   .   .   . .   .   .     o o   . . . . . o . . . o . . + . . + . + o . o . . . o o + + o + + # o # + o . # # # # o # # o # # # # # # # # # + o # # # # # # # # # # % # # # # : # : # # # # & # # # # ; # ; # # # # # # : # # # # # # : # % # # ; # # # # # # # # # # + # # # o o # # # o # # o # # o # # o # # O o o o . o o o + o . . o o o o O . o O o . . o o   o   o     o o   o .   X o       X   .         O   X     o     X       X               X       O     X O                 O                                                                                                                                   PX",
"PX                                                                                                                                                                                                                O                                               .         . .     .     . .   .   . . .   . . . . . . . . . . . + . . + o . . o + o . . o o + + + o + o + o o + + o + o # # o # + o # # # # # # + # # # # # # # # # # * ; & # ; * # # ; # * 1 # # # : ; # ; ; # * & ; ; # # # ; * ; & & ; & ; > # # & ; ; # & # # # # # # # ; # # # # # # # # ; ; o # o ; # o ; o # # o # # # # o o # # # # o # o o o o o o . o + o o o . o o o . o o . o . o o o   o o   o   X .   X   .   X   X o     X o         X     X     X                       X                                             O                                                                                                           PX",
"PX                                                                                                                                                                                          O                               O                     .   .   .   .       . .   .     .   . .   . . . .     . o . . . . . . o . . . . . o . . . + o . . + + $ + . . # o + o + . # + # o # # # # # $ o # # # # # # $ # # % # # % % # # # ; # # # # # # ; # ; # & # # % : & # & # & # # 1 > # & # > # > ; # # ; # ; & > # # : # # # ; # # > # * 1 # & ; # > # # # : # # # ; # # # # # # # o ; # # ; o # # o o O o o o # o o o # . o o o o O o o O o O o o . O o   o . O X o     o   o O X o   o   X     .   X .       o         .           .   X           X                                                                                                                                                             PX",
"PX                                                                                                                                                                                                  O                                         . .       .       .     . .   .   .   . .   . . .   o o . .   . . . . . . . . + . # . + o + . o . + o . o o + . # o # o + . # . # o # o # o # # # $ # # # O # # # # # # # % ; # % # # # ; 1 > # # # 1 ; * # ; ; # # : ; : : # # : # # ; # # : : # # > > ; ; & # # # # : # # ; 1 & # : : # : # : # & ; : # > # # # # ; # ; # ; ; # # ; # : ; o # o o o # o ; o o o o o o + + o o o # o # o o o . . . o . o . o O o . o . o o     o X .   o   X o   o         X o       .   o     X X   O                               O                                                                                                                                               PX",
"PX                                                                                                                                                                                                                                  .                 .             .       . o   . .   .   . .   .   . . o . . . . . . . . . o . . . . o + + . . $ $ o + o o $ + + o # # # # o + # + # $ # # # # # # % # ; % # # % > # # % # : * 1 # * * # # ; # & ; * ; & # & : # : # # : > # : > ; > : > # ; > ; # ; > ; : : : : # > > ; & ; : > # : # : # : # ; # : # ; : # : # ; # # ; # # # # # # # # : # o : o # # o # o o # # o o o o + O o o o # o o o O o o o O o o . o . o     X .   o   o   . X     X     o           X   X               X   X     X                                                                                                                                                                   PX",
"PX                                                                                                                                                                                                          O       O                           .     . .     .   .   .   o .   .   . .   o o . .   . o o .   . . . . . + + . o o + . o . # + . o + # O # + o . o + + # # o # # # # # # # $ # # # $ # : > # # # % # # : : % # % & # 1 ; & # # ; 1 ; 1 * * & : ; # > # : : # # : : > # > : : # > # : > # : # > # # : > # : # > ; > : # > : # # : > # ; & # : # : # : # # : # : # : # # ; # O : = # # ; o O = = # ; o # o # o o + O o o o o # o o o . o o + o O o o O o . o .   o   o X   o     o .   o       X         o       X   o       O X                 X                                 O                                                                                                                   PX",
"PX                                                                                                                                                                                                                                  .     .   .   . .       .   .   .   .     . . .   . . .   . o . . . . . o . . o . + o . + . + . . $ # . # # $ o # # # # $ # # # # # + # # # # # # # # # # # % : # # # % % : % : % % % : : > ; # & # ; & 1 & & & # > 1 ; # > # : : : : > : > > ; : : : > : : : > > : > # : : > > : : : > : > # : : # : ; > # ; > : ; : # > # : # : # # : # # o : ; # = : = O : # ; # ; # # o # # o ; o ; o = # o # o O o . o o o o O o o o . o o O o   o o X o   O o   o   o   X o   o     o X o       o                                               X X                                                                                                                                       PX",
"PX                                                                                                                                                                                                    O                       O   .   . .         .       .       .   .   . X       o       . . . . . o   o . o o . . o o + o + + o o + . # O # # # + # # O o $ + # # O # # # # # # # # : # % # % # % : : # # # : % > # > # % > & ; & ; 1 & ; ; 1 # > > ; & : & > # > & > > : # : & : > > # > > > ; : > > : : : > : > : > # : > : # > # & : # > : > > ; : : % : % # : : : # : : : # : # : ; % % O : # ; # # ; # # = o # # # # o = ; # o # o . # # . o # $ o . o . o O . o o O . o o     o   o   O o   o o   o   .   X       o   X       X         X X         X                                                                                                                                                     PX",
"PX                                                                                                                                                                                                                                .       .     .     . .   .   .   .   .   . . . . . . . o . o   o .   . o . . . o . o . o + . o . $ . o $ + # . # O + $ o $ # # o # $ # # # # # : % # # % : % : : % % % # > > # > # > % > % : & 1 ; & & 1 & > & > > # > # > > : : : : : # > : > : > : > : > : > > > : : > > > : > : > : > : > : > : : > : : : > # : > % : , : , : > # % : : # # : # : : % : : : # ; % ; # # o ; # # ; o o ; # O # # # o # o o o o # . . # o o o o o o o . o X X O o o   o   o X   o     o   o   X .   X o           o     X           X       O                                         O                                                                                                         PX",
"PX                                                                                                                                                                              O                     O                         .   .     .   .   .     .   .       . . . . . . . . . . . o . + o . . + . # . . + o o + o $ o $ $ o + $ o # # . # # . # # # # # # # % # % # & # % # # % % % > % % : # > % : % > % : > > % > % > : % > ; & > > ; > > > > > & > > : > > : > , > > : , > > > > > : : > > : > , > : > > > : > > > , , : > : > : : : % : : > : % : % : > : > : % : : % : % : # : # : : : : % ; % = : # ; # # = % : o # o o # o o o o # o o o + o o + o # o o o . o o o . o o O o o       o   o   o     o   X   .   X X         o                 X               X                                                                                                                                       PX",
"PX                                                                                                                                                                          O                 O                               .       . .   .   .   . . . .   . . . . . . . . . . . . . . . . . . . . . . . + o . + + . + o o . . # o $ # # # # # # $ # # # O : # # # # # # # # : # > : > : # # : % : & : & > # % : : % & : > > > : # > 1 & & 1 > > > > 1 ; > > > : < > : < > > > > > > > : > > : > > : > > > , > > : > > < > > > > : > : > , > > : : > > : : : > : % : > > : % : : : # : # : # o : # ; ; # : O ; # : # # = o : # # = # o # o # o o # o o o o o o . o o o o o O o o . . o . o o o o   o   o   o X   o   o   o     . o         o X     o                         X             O                                       O                                                                             PX",
"PX                                                                                                                                                                O                                                     .   .   .   .     .   .   . .       . . . . . . . . . . . . . . . . . . . + o . . # . o o . . o + o $ # $ o # # o # # o # # # # % # % # # # # % : # % : # % # % # : : > & : # # : & % > % > % > > > > > > > > > > > w > > > > > > > > > > > > > > > < > > 7 > < < > 7 < > < > > , > > > > < > : < > > : > > > > > > > , > : > : > : > : : > > : : > : : : : : : : : : : : > # # ; # ; : : # O # ; = % = ; # # # = # : o o # o # # o o o O # o o # . o o O o O o . o . . O o o   X   o   . . X   o     X X       X o             o   X   X                       O         O       O                                                                                                         PX",
"PX                                                                                                                                                                                                                                          .   . .   . . . . . . . . . . . . . . . o . . + . o . . o + . # . $ $ # $ # # + % O o # $ O # # $ # # # # # # # # # # % # : # % # # # > > # > % % > : & > > > : & : > > > > > > > % > > > > > > > > < 5 w > w > > w > < > < 7 > > > > < > < > < > < > > : < 5 > < > , > > 7 > > : > , 5 , > > > > > > > > > : > , : > : > : > : > : > : : > : % : % : # : : : : : # = : : : % = ; O : o ; # # # o # # o ; o o # # o o # $ o o o o O o . o o   o o . X   o o O o   o X     o   X   .     o o           X                 X                 X                               O   O                                                                                         PX",
"PX                                                                                                                                                                                                                        . .           . .   .   .     .   O   . . . . . + . o . . . . . . # . o + . + o # # . # # # $ # # $ o O # # # # # # O # # # # # % : # % # # : # & # : % : % : # > % # % > > > # > > & > > > > > > 5 > > w > > > > w > w 5 < > > < < 5 > < > 6 7 < > < < > < > > 5 < 5 < > < > > < > < < > u 7 < < > 5 > > , < > > > > > > > < > > > > > : : > > , : : : 7 # > : > % : : : : : % : % : % = : = ; ; # # o : : O : # ; # = o ; # # o o # o o # O o o o o o o o O o . o o o     o . X o     o O o o     o   X .         X o         .     X         X                                               O                                                                                         PX",
"PX                                                                                                                                                                                                                              .   . .     .   . . . . . . . . . . . . . . . . + o o + . . . + o . . + # . . + . # O o o $ o $ ; O $ # # # % : # % % # # : % # : % % % : % : & : % : % > # > > > # > % > > > > > > > > 5 > > > > > > > > > > > > > > > > y > > < > 5 > > 6 u > > u 6 u 6 6 < > 5 6 5 > < 5 > > > > < > > > > < < > > > < < > < > , > > < > > : : > > > > > > > > : : > : , , > : % : : : : : : : % : % % % : : : # = : o # ; # ; O # o o = # o # # o = # o # # . o o o o o o O o o o X X o X . o   X     o     o     X X o   . X   X   X     o     X                 X X                                                                                                                           PX",
"PX                                                                                                                                                                            O                       .   .           .   . .     . .         . .     . .   . . o . o . o . o . + . . . . # + o + o + o . o $ o # $ $ o O # $ # # % # # # # # # # # # # # # % % : & : % % : % : % : % > % > > % > > > > % > > > 5 > > > 5 > > 5 < > 5 > w > w > < > w < < w < w 5 6 < 6 6 5 6 5 5 6 5 < 6 5 6 > 6 > 6 6 7 < 5 6 u < 5 6 > 6 7 u < 5 > < 5 < > > 7 < > < > > > > > > < > > < , 7 : > > : , > > > > : : % : % # : : : : = : ; : # # : % = ; # # ; ; # # # # ; o # # = # # O # # o o o o o + o o o o o   O O X o o   o o     X o   o   X   . X       X       X                   X                                                                                                                                     PX",
"PX                                                                                                                                                                                                              .                       . . O   .   . . . O O   . . . + . + . . . o . + . # . . . + o + # + o $ $ o o $ # # $ # % $ # $ # # # $ % : % > % : : # # : % : : % > % > > % > > > > > % > > > > > > > > > y < > 7 6 5 < y < 5 6 < y < 5 6 5 5 5 6 y < < > 6 5 5 6 6 6 6 6 5 6 < 5 u < u 6 5 6 u < u 6 u 6 6 > u > < < > 6 6 < 7 5 < 5 < > 6 5 6 > y < < > < > > > > > < > : > > > : : > > 7 : > : : : : % : : % : # : : # : = % : = % # # ; ; # o # o # = O # # o o # o o + . O o o o   o o o o . X O   o o   o O o     X . . X   o   .   . X           X                               O O                                                                                                               PX",
"PX                                                                                                                                                                                          O     .       .   .   .         .   .     .   .   .     . . . . X o . . . o + . # . . # . . + o $ o # . + o . # O # # O # $ # $ % # % % # % # # : # # % # > # : # > & : : % > & : & % > > # > > > > > > > > > w 5 > 6 > 6 5 6 5 5 5 > w < > > > w w < > w < > u > < < w u w < > u w u 6 > w 6 y < u u > 6 6 u > u < 5 < < w < > < > < 6 > < > < > < u > > < w < > > > < > > < > < 1 : < : : < > 1 > : > : : : > : # > : % : # > : : : # : # # : # : O : o # ; O = o # ; # # O # # O o # o o # o o # o o o o X o O o o O   o X   o     o     X   o         X       X   X X       X               X         O                             O                                                                               PX",
"PX                                                                                                                                                      O       O                                   .                 . .     .   . .   .   .   o .   . . o . . + . . . . . o + + o . # . $ . # . $ o + # # # # + % O # # # O % # O : $ # : # % % : % # % % > % > # & : > : : > > > > > > > > > > 5 > > > 7 6 5 5 5 7 5 5 5 6 u u > > u u > u < > u u u u < u w y 6 > u u u u < 5 u u u u < u w u 6 u 6 6 u < u 6 u < u u 6 < u 6 5 6 6 < u u < < < u > < > u w > < u > > < > > < > > < : < < : > : > > > : > : : : : : > : : # # : : : : # % = : = : # # # ; # ; O # o = = = = o = # O o o o o O X o X o o X o o X o   O o X o   o X .   o   X   o     o X               .             X               O                                                                                                           PX",
"PX                                                                                                                                                                            O                           . .       .     .   .   o   .   o .   . . o . + . . . . + . + o . . + # . o $ o $ o o $ o o # $ # # O # # $ % $ # : # % # % % % # % : : % # > > : # > & % > & : > > > > > > 5 > 7 5 5 < > 5 < w 5 < 5 > u u > 5 6 u 5 w < w u < u > u 6 w w < u y u u u u u u w u u u 6 u u u u u u u u u u w u u u u u u u > u u u < u 6 u 6 u > u < u < u < u > < 6 < < u < u > w < < > > < < < > > > > > : , > > : > : > : : : : : : % % : ; : ; : : # # : # ; : # ; ; O # = O # # # O = O # # o o o o o o o   o X . O o o o o O o o   X O   X     X     .       .     .         X   X X           O           O     O                                                                                                 PX",
"PX                                                                                                                                                                                              .   .     .     . .   . .   . . .   .   .   . .     o . . . . . o . . o . $ . o . $ o . $ o + $ # $ # + % O $ # # # # # % % % # : % % : : % ; % % : > % > % : > : > > : > & > > > > > > > > 5 > w > 7 5 > < y > w > < w 6 w < > 6 w < u w u u u u u u u 6 w u u u < u u u u u u u u u u u u u > w < u u u u u l u u u u u u w u 6 u 6 6 6 u 6 u u u < u < u 6 5 u > < > < < < > < < < > > < < < , 7 < > < > > < > : 7 > 7 : > : : : : : : % : % % : ; # # : o = # # ; = = # # ; ; # o # o # # O o o o o o o X o X o   o     o     o   o o .   o   o X   o     X X   X   X   O     .                 O                       O                 O     O                                                               PX",
"PX                                                                                                                                                              .             O                     .     .   . . .   . .   .     .   o .     o o . . . . + # . $ . o $ + . o + o + o + $ o # # O # $ # # # O # # % : O O % : % # % > % # : > # : > : % % > > % > > > > > > > 5 > 5 > > 6 > 6 > > > > > w < > u 6 5 u > u u u u u w < w u u u u w u u u u u u u u u u u u u u u u u v 6 u u u u u u u u u u u p z u u u u u u u u u u u 6 u u 6 < 6 < u < < u 6 < > u < u > < u < > < < < < < < > < < > > > : > > : > : , > : > : 7 : # : : % : ; : : # : % O : : O ; # : # : o # # ; o o # ; O o = o o o O = o o O X O o o   o X . X   o   X O .   o       X       .             X     .   X                                                                                                                       PX",
"PX                                                                                                                                          O   O                               .     O O .   . .       .   .   .   .     .   o . . . . . . . . . . . o o . . . o . . . o $ $ o o $ $ o o + # O # # $ o O # % # % % # % : # % % % % % % % % # > > % > > > > > > > > > > > > 5 > > 5 6 5 5 5 5 5 > u u > < y 6 w 6 u > u 6 w > u u u u u u u u u 6 u u u u u u u u u u u u u u u u u u p p l u l u u u l z u u u u u u u u u u u u u u u u 6 u 6 u u 6 u u 6 6 w u u 6 u < u u < 6 < u < < u > > 7 > > < > < 7 > > > > > : > > : , % : : : % : : % : ; % : = : # ; : # ; # o : # # o O ; # o # o o O = o o o o o X o o o o O o X O o . X   o   X X     o o     . o X   X   o O X                       O X                                                                                                           PX",
"PX                                                                                                                                                                  O   .           .             .       . . . . .   . . . . . X . o . X o . . . . o . + o + . . $ . # o $ . # $ o $ o $ # o $ % $ # $ # % O % % % = % % : % : $ : > % > # > % % > > > > & > > > > > > 5 > 5 > 5 < 5 6 6 5 6 5 u u > > u > u < u u u u u < u u u u u u u u u u u u u u u u u l u u p l l p z u p l p u l u l p l p p z u u u u u u u p u u u u u u u u u l u u u 6 u u u 6 6 u u u u < < u < u 6 6 u < < > < < 6 6 5 > , < > > < > < , > , > > : : > > : : : : : : % : : ; : : : # ; % # # # # ; ; ; # # # = : = = O = o o o o o o o o o   O o o   X . o     . X     o o   o           X       o     X X               O     O                                                                                                     PX",
"PX                                                                                                                                                                                O       .   .       . .   .   . . . . .   .   .   .   . . . . . + . + . . . + . o . # . . # . o $ o $ o $ : O # # # # $ # ; % = % % % % % % % 7 % % % : > # > > > > % > > > & > > > > 7 5 < 5 5 6 5 5 6 5 5 < u > u u > u w u y < u > u y u u u u u u u u u u u u u u z u z p p l l p l z u z l u l l p l p z u l p u z p z z p u u z u p u u v p l u l p u l u l u u 6 u u 6 u 6 u 6 u u < u u 6 6 6 6 u 6 < 6 < 7 < 7 > < > > < 7 5 < > > 7 > > > : > : : % : : : : % : % : : : # : ; : o : ; O # ; O : O ; # O o = = O = O o o O o o o o   X O o X O o o   o . X     X     o   o     .   X                 O                                     O                 O                                                           PX",
"PX                                                                                                                                                          O         .   .       .     .       .     .   .   . .   . . . . . . . . . . O + + . . . . + . + . . . # + . o + o # # # $ # # # # $ : O # # % # % # % : % % : % % % % : & % % > % > % > > > > > 5 > > > 5 5 5 > 5 5 < 5 5 < 5 u 6 y y 6 6 y u u u u u w u u u y u u z p u u u u u z l p l l l p p z l l p l z l p l v v p l p l p l p u u u p u l z l p v p l l l l l p l v u l l l p u u l l u u u u u u u u u u l 6 u 6 6 6 6 6 5 < < < w u < < < < > < > < < > < < > < : > : 1 : > : % : : # > # # : : # : O : # # ; : o # o # o o # # = o # o # # O = O O o X o o O X X X   o   o     o       o   X       X o       .     X   X     X                           O                                                                                   PX",
"PX                                                                                                                                                                            .   .   . .   .       .   .   .   . .       . . . . o . . . o . . . o + . . . + + # . o $ $ . + O $ + o $ $ # O % O $ % # # % % % : O % % % % 7 % : & % 7 > % > > > > > & > % > > 5 > > 6 < 7 6 5 w 6 > u 6 5 5 6 > u y 6 w y u y w u u u u u u u u u u u z u u u l l p p p z l l v p v p p l p v z i z p l z l l v z u z z v z p z v p v z p v p v p l p l p p l v l u u l p u l u u u u l u 6 6 6 u 6 u 6 6 6 6 u u < < > > < > u < < < > > < > : > 1 : 1 : > : : : , : : : : : : # % : # : ; : ; # o : # : o # = O # O ; # o o O = o = o o o O X o X . o     o o   X     o X   .     o .         X X   .                           O                         O   O                                                                 PX",
"PX                                                                                                                                                                        .   .     .       .   .     .   .   .   .   o . . . . . . . . . . . # $ o + . + . . o + . o $ $ o # # o O # # # $ : # % # O $ % % % % % % : % % > % 7 % 7 > % > : & > > > > 7 > > 5 5 5 6 5 5 y 5 > < > < u 5 5 u 5 u u u u y u u u u u u p u u u p l u z u z p z p l z p p z v l v p z l v v v z z z z z p z v z z A z z z z z i z z z z v p z p z p p v v p l p l p l p z l p l l p z l p u l u u l h u u 6 u 6 6 6 < u u < w < < < < < > < < < < < < > > < > : : < : > > : > : > : : : : ; : # : # : : O # ; # : # # ; ; # O # # = o o o o = o o X o   o .   o o       X o o   .     X X     X   X   .                     X             O                                                                                             PX",
"PX                                                                                                                                O           O                       .         .         .   .   . .   .   . .   o . . . . . . . . . . # . . . . . . + o $ $ . . o $ o o $ o O $ # % # % # % # % # : : % : % : % % : % % > % % % & > > % 7 > > > > > > > < > 7 > 5 6 6 < u u 5 u y < u u 6 u 6 y u u u y u u z u p u u u u u p u u v p z z z l z z v l p z p l p z p z z z i v z z z z i v z z z i z z z z z z v i z z z v z z v v l z l v v v z l v p l z l l z u v l u g v p u 6 l l u u u u < u < u < u u < u < u < < < > < < < < < > < > : : 1 : : > : > : % : : % ; % : : % ; : = ; # ; # ; O # = = o # O O = = O O o o o o o o X o . X o o o .     X   o   o   . X   .   X   X   X         X         X                                                                                                       PX",
"PX                                                                                                                                              O                     .       .       . .       .   .     . .   . X . . . . . o . . . . . o . o o . $ . . . $ + $ o o $ $ o # # % # O # % # # % % % % % # % % % : % > % 7 % & > > > % > > > > > 5 > > > 5 5 < 5 > y < 5 5 5 u > y u < u y u u y u p u u u p u p u p z u p l z z z z z u l p v p z z v v z v v z z z z z z i z z z z z u z z z a z z z z z z z p z z n p z z z z z z z z z k z z l z p z z l p l l l l l l u u l u l 6 6 u 6 u 6 u u < u u < u < < u < < < > u < < < < > < > < < : < : 1 > : : : : : : : % : : # % : % ; % # # : # # ; O # o o # = = = = o O = o o o o o X O o     o o   o   o O X   X X o   o         X       o                       X       X                                                                                     PX",
"PX                                                                                                                                                              .       .       .   .       . .   . . . .     . . . . . . . . . o . . . . $ . $ $ . . # $ # o + . # + # o $ $ # # O : % O : % % % % = % % % 7 > % 7 % % % > > > > & > > > > > > < > 5 5 5 > 5 6 y > u w u u w u > u y u u u u u u u p u u u u u u u z u p v p l z p u z z p z z v p v A p v A v n z z v z z z z z p n z z n z z v n z v p n z z n z v z z z z z z z z z z p z z z z v z z z z z p p v p v u l u l 6 l u l u l u u u u u l < < u u > < u < < < < u > < < < > > < > : > > : > > : : : % : : : : % ; ; : ; ; : : O ; # # ; # : # o O = O # = = O = X o o X o o O o o X . X   o o   .   .     X       o       .       X X                                                                                                               PX",
"PX                                                                                                                                                                        .   .     .   .     O .     . . .   . . . . . + . o . . . o + o . $ o o $ $ o $ . $ . # O % + $ # $ o % $ # % # % % % % : : % > % % % % 7 % > > > > % > > > 5 > > 5 > 5 > 5 < 5 > 5 6 > u > u u > u y u u u u u u u u u z u u z u z p p u p z z z p v z z z p z z z z z p z z z n n z i z n p z z n z z n b p z n z z z n p n z b z z z z z z n z n v z z z z z z z z z z z z z v z z v v v v l v v u u l l l u l u u l u l w u u < u w u u < < u < < < < < < < < < > < > < : : 1 : : 7 # > : : : % : : : : % : # ; : : = % ; ; # # ; = o = = o o o o o o o o o o o X o O o O   o X . . X   o . X   o     X X X o   X         X                                       O                                                                   PX",
"PX                                                                                                                                                        O     .   .             .     .     . . .   .   . .   . . . . . . . . o . . . . . . . + + . $ o $ . + + + # # # $ # $ % # % % % $ : % % % % % % : 7 % : & % > % > 7 3 > & 5 > > 5 5 5 6 5 5 y 6 y 6 y u y u u y u u y y u y u u p u p u p u u p u u u v z p z i z z z p p z b p n z p z n z z z z i z v n z v n i n z z n z n z z n z n z z z z z z n z z z z z z z z z v n z z z z z z v z z v p z z i z v i v v i v l v p u l u l p u u l g u l u l < < u u u < u u < < > u < > < < 1 < > < < : > < : > : : # : : : = % ; % : : ; # O ; ; # ; # o # = = # o o = o o O = o o o X O o o X o   o   o X X   o   o     o o     .         O X           X           X                             O                                                           PX",
"PX                                                                                                                                    .                       .   .       .       .     .   .     .   . . . . O . . . . . + . . + . O # + + . $ $ . # $ o $ # # # $ % # $ # # $ # % # % % % : % % % % % > % % > & > 3 > 3 > & 5 > 5 5 > > 5 < 5 5 y 6 5 y 6 y 6 y < u u y < u u u u u p u u p l u u u p z z p z z v p i z z v i z z p z z p z z p z z z n p n z z n z n n z z n z n z n z b z n z b z z n k b z z b k z n z V p z z n z z n b z z b b z z k z z z z v v z k u l u u l l u u l k l u l u u < l u u 6 u u 6 u u < u < < < u < 6 > < > < > < : : > > > > : : ; : : : ; : : ; : ; ; # ; ; : # ; o : o = = = o o = = o = X o o o o o o O O X . O X .   o   X . X X     o o   .     X     .   X     X                 O                     O                 O                                           PX",
"PX                                                                                                                                          O     .                 .         . .     .       . .   .   .   .   . + o . o . . $ + . . . . o # o # . . $ + # O + + # # O # $ # # % % % % % % % % % % > % 5 % > & > % > & > 5 5 > 5 5 w > 5 > y 5 u > 5 5 6 y 6 y u u y u u u y u u u u u u l p y z p z p z p p l a z v z z z v z z z z z z n z z b z b z z n z n n z n z z z n z n z n x b z n z b x n b z b b n n z b z b z z b n x x z z x z z z x s z n n z z z z p v z z v z l l z u k z l u l l u l u u l u u g l 6 u 6 u < < u 6 6 < < u < > < : < < > 1 > < : 1 : 1 > 1 : : : : # : # ; : : ; ; # ; ; ; # ; o = O = = o O o O = o O o o X o o o o X o o X o   o   o   . X X     X   X   .   X                   X                 O                                                                           PX",
"PX                                                                                                                                .       .             .                 .   . .   .     . . . O   . O . . . O . . . . + . # o o o . + # . + + . $ % O O $ # + $ o $ # # % # % % % % % % % & > % 7 % % % 5 > & & > 7 3 > 3 5 5 > 5 > 5 6 > 5 5 5 u 5 u 5 u y u u y u p p u u u p u p l p l p v u z p u p v z z z z z z n z n A z a z n z n n n a n z n n z n z b n n z n n n z z n n n b n n n z n b b b n n x n x n b x n b z n z b z n n x x b z z n z z k z z z z z z z z z l z z k p k u k u u z u k u u u u u u u u 6 u u u < 6 < u < < < < 6 < < < < > < : < > : > > : : : : : : > : # ; : ; : # # # ; # # O # = o o o o = o = o = o = o X o o o . o   o   o o     o O   .   .   X   X                 o                                                                                                     PX",
"PX                                                                                                                                    .                   O     .   .     .       .   . . O     . . . . . . . . . . o + . . . . . + + o . o O + # + # # % # $ # $ $ % # $ % % % % : % % % > % % & % > > > % & > 3 7 & > 5 > 5 7 5 6 y < 5 y 6 5 u 5 u 5 u 6 y u u p u p u p u u u u l p l p v p z p z z z z z p z i z p p z z z n n n z n z a n z n n n n n n n z z n n n z n b n n n z b x n n b b s b n z x n z n n x b a V n n n z b x z n z z b z b z z b z b z v n z z z z z l z z z z z z z z u z u l u l l u l l u u l < < u u < < 6 5 6 < > u > > < < : < : 1 < : : > : : : : : 1 ; ; > ; # : : ; ; # ; = = ; o o : ; o ; o O o = o O o o o   o o X O o o O X o o     o   o X   o       o     X X       X           X     O                                                                                 PX",
"PX                                                                                                                                O             .     O     O .     .   .   .   .     . .     . O   . . O . . . . + . . . + + . + . . # $ . $ o # O # $ $ # $ : # # % # % % % % % & % : % % % > > % 5 & 5 % & & & & > 5 5 5 5 5 5 > y > u 5 6 y y 7 p y y u u y p u u u u u l p u u p z p v p v z i p p a n i z p n z n z n n z z b n n n n z n n z n z n n b b n n n n b b n b n b b n b n n n z V z b n b b n a V b b b z n b b b k z z b b x b z x n x z b z z b z n v z z z z z z z z z z z z z z u z z u z u l u l u g l u u 6 6 < u u 6 6 6 < > 6 < > < > > > < 1 > : < : 1 : : 1 : ; > ; : # : : : # ; ; ; # = = ; O = = O o = o ; O = o o o O o X X O o   o     O o   X o o         o .   o X               X X X           O                                                                               PX",
"PX                                                                                                                                            .     .     .       .       .   .   . .     . .   . . . . . . . O . o o . o . o # O o $ . o $ $ . O % $ # % $ # O # $ % % % % % % % % % % > % 5 % % 5 % 5 > > 5 3 5 > 7 5 7 5 5 y 6 5 5 u 5 p y 6 u u u 7 u u u u u p u u p l p z p z p z v z v p n z z n z z z n z n n z n p n n n n s z n z b n z b n n n n n n n n b n b n b n n b n n n n n b n n b n b b b x n b b b b b b b b z b b b x b n z b x z n z z b b z c z n z z v l z v v z k z z z z z z u z k u z u l p l u u u l l u l 6 6 6 6 6 < 6 < < < < < < < < > < : 1 > : > > : > ; : ; : % : # : # : O ; ; ; O = ; = = = = = o = O = o o = o o o o   o o O o o X   o .   X   o o     X       . . X X   X           X   O       O       O                                                                   PX",
"PX                                                                                                                                      .       O               . .   . .       .   . . . . . . . . O . . . . . O . + . $ . + O # + # # o + o $ # $ % # % % # $ # $ % % % : % % 7 % % % % > % > > % 7 > 3 > > 7 > 5 3 5 5 y 6 5 y 6 5 u 5 7 p y y u u u u l u u l u p u z p z p p v z z v i z z p z v z A n n i n z z n n z z n z n n n n n z b b b n b n n n n n b b n n n V n b n n n n n b b n n b b b b b b n b n b n b b b b b b b b b b x b x n x b z x x n z c n z z z n x z z z z z z z z z z z z u u u p l u l u l u l 6 l u 6 6 u u 6 6 6 < u < < < < < : < > > < 1 > > < > : : > : > : : : % % : % : = % ; ; = O O = ; ; o o ; o = O O = o o o o o o X o O o . X O X   o o     X o   X   X           X         X         O                                   O                                           PX",
"PX                                                                                                                  O               .               .     .   .       .   . . .   . . . . . . . . . . . . + O . + . o . + o o . $ o O . $ o $ . $ # % O $ # $ % % % % # % % % % > % & > & % 5 % 3 % 3 5 & > > & 5 5 5 5 5 5 5 5 5 5 u 5 u 6 u 7 l p 6 i u p y u p u l z p l i v v p v p z A z z p n A z v z n z p n n z n n n n n n z n n b n n n n n n n n n b n b n n n n U n n n V U b n n b n n n n n N n b b b n N b n n z b b b b b b b b n b b n n V n n c n n c b c b z b x z b b z z z u z z z z z b z v l v v p l l u l u g u l g u 6 u 6 u < 6 u u < u u < < < > < : < : > : 1 1 : ; : : 7 : : ; : : = = = ; : = ; = O o o : o = = o = o o X o O o o . o X o   o o   o   X O . X       o     o   o       X X     X               O                                                                       PX",
"PX                                                                                                                                          O         .   .       . .   . .   . . . o     . o . . . . . . + . . # . + . $ # + + $ o . $ + $ $ # $ # # % % % % % % % $ % % % % % # & & * & > > & > > 3 > 5 5 5 5 y y 5 5 5 6 5 5 u y u 5 u y u u u u y i u u i l p v z p z z i z z z i z a z n i z a z n n z n n A n n z n n n z n n n n n n b n n n n b N n b n n n n N n b n n n n n n n b N n I n N n n N n n n N n N n n n n n N n b n M n N b b b b b b b n n z b z b z b x z b b k n z z z z z z z z V z z z u l u z l z u z k u u u l g u < < l < u < < < < < < < < < > < < > > < > 1 : < : : : : : > # : # : # # ; O = % = = O ; = = O = o o o = o o o X o o o O X O X . X o     X .   o .   o   X     .       X     X               X                                                                       PX",
"PX                                                                                                                O                             .             . .     o     . . .   . . . . . . . . . + + . . + . $ . $ o + O + + . $ o $ o # O # $ $ % % O % % % : 7 % > % % > > & ; w > & & 3 > & > 5 5 3 5 5 7 y u y u y u y y 6 y u y u u y l p p v u p u u p p z i a z i n A z n z n z z z n z F z z n n z z n n n n n n n n n n n n n n N n I U n n n E b I N n n N N E N N N N E I E n N n N N N n N N N N n n N N n n N n n N n b b n b b b N b V n b n n n b b b b b b b z b n x x n x n v b z z z z z z k v z z l z l u l u l l w u g l u < u < u u < u < < w < u < < < > < : < : 1 > : > > : : 1 : : > # : : = : = ; o : = = = # = = o : o o o o o o o X o o o o o X . o o O   X   o   X X   .   X     X .           X       X                         O                                                 PX",
"PX                                                                                                                            O             O     .   .   .   .   . .   . . .   X .   . . . . . . . . + . + + . + o + o o + # . o $ + . o o $ $ # O # % % % % % % % 7 & & > > % & ; & > & > & > > & y 5 5 5 5 5 5 5 u 5 y y u u y 5 u y i u u y p u v p p l i i v p z z p n z n z z z A z n z A n n z F z n n z F n n n n F n n n n n n n N n n n N F b E N N N n n E N N E E n E N N N n N n E E n N E n E n N N n N N n N N n n N n n N n N n b b b b b b b b n n b b b b n b b z n x n x z n b z z z z z z z z z z v z l l l u l l u l w l u l < l u < 6 < 6 < < < < < < < > < < < > > < : : 1 < : 1 : ; > ; # : % : ; ; = ; ; ; O = O = o = o o = o O o o o o = o O o o o O X     o o   o X     .     X               O o                               O                                                       PX",
"PX                                                                                                                                      O                   .   .   .   .     .   . . o . . . . + . + . . # . . . $ . $ $ . $ # $ o $ $ $ $ $ # # % % $ % % : % % % % & & & % > ; & > & > & > 5 y > > 5 5 5 5 y 5 5 5 5 5 6 y 5 u u y u 6 u p y u u i z l i v v p v i z z z i z A z n z A z F z z z F i n n n n n n n n n n n n N n n n E n N n N F N n n N n n n I n N N n N n N n n E N N N n N N N n N N E N F N F N F N N N N n N N n N n n b b n N b N b n b n n n b b b b b b x n x n x x x b c b z b z z z z z z l l z v l z l l l l l l u u l < l 6 u < < u u < u < w < < > < < < > < > > : > : : > ; > : ; : : ; : O ; ; # ; ; = # = # o ; o o = o O = o O o X   O o X o O o o   o O   o o   X   o   o o   X   X                                                                                           PX",
"PX                                                                                                                                        .   .   .   .   .   .     . .   . . . . . . . . . . . . . . + . + . $ # . $ . $ o $ o # + O # $ O # # % % % : $ % % % % 7 & & > % > 7 & > & & > 3 5 5 w > 5 5 5 5 5 5 i 5 6 y y 7 6 i p y p p i u u p p p v i p v i z A z i n z n z z v A z n n z n n n n n z F n n n n n n n n n I n E b n E n n I n E n N E n I n E I E N N I b I N E N N N N n E I N n n n I n b N I N N n N N N N n n N n N N n n N V n b b N N N b b b N b b b b b n b b b x n b b b x z n x z z z z z z z l z l z l z z u l u k l < u l < u 6 u < u < u < < u < < > < > < > : < < > > < : > : : : % : % : : : ; ; ; ; = : O = = o ; o o = o = O o o = O o o o o O o o   o X O o   o X .   X       X X       X                     O                                                                 PX",
"PX                                                                                                                                    O         .       .   .   . . . . . . . . . . . o . . o + . + . + + . + . + $ o + . $ # $ $ o % # # % % O % % % % % % % % % % % & % > 3 % > > > > 5 5 5 5 5 5 5 5 6 y 5 u 7 y y u p 6 i u u y l y u i y v v z i z v p n z z z z z A z A n F z n z n a n n z n F z n n n n n n N n E n U n n n I n E I n E E N n E I n N E n N E N n E n I N E E N N I N N E I I N N I E N N n E I I n E n U n N N n n I b n I I b b N b b n N b n n M M b b z x b b b x n b z x b n x z b b z x v z z z z z v l l z l l u l l l u u l 6 g u < l < u < l < < < < < < < < > : : < : 1 : 1 : : : : : = = : ; : O : # ; = = ; = o o = o o = # O o o o o O O o X O   o   . X   o     X o   X     .                   X       X       O                                                             PX",
"PX                                                                                                                                O       .       .   .   .   . . . . . . . . . . . . . . + . + . + . . . . + o + + # $ + # + + # $ % O $ # % % % % % % : & % % & & % 7 & & % 3 > & > > 3 5 5 5 5 > y 5 7 5 y 5 u 5 u y u u i 6 p u p u p p p v z i z p i z i z i z i z i v z z A z z a n z n n F n n n n n n n n E E n E n F n n I n E N E N n N n E N n I N N I n n I n I n I E I I N E n N E N N E I I N E N I n N n N N N N V I I b I N n I I b I n I I b n n b n N b n N n b b n b b b b n b z b z x b z x z x v v z z z l z z z l z l l z l u l l l l u u l < < u l < < < < u < < > < < < < > > 1 > : > > : : : : : 8 : O : = : ; = ; = o = ; = # o = o o = = = o o X o o o o o X o     o   X . .       . o   o   X     o X                       O                                                           PX",
"PX                                                                                                                      O         .     O   .   .   .   .   .   . . .   . . . . . . + . . + o . + . . + # + . $ # O # O + $ # O $ $ # % % # % % % % % % % % 7 $ % > % > > > & > & > & & 5 > 5 5 > y 6 y y y 5 u y 6 p 7 i u u p u p u p l i v p i z p z n i z A z n n z n A n n n n n n n n a n n n F n n F F n N n n n N N E N E n I I n N E I E I I N I E E I E I I I I I I N I N I E N I I N I I I n n I N I N I I n I I N I I n N I n I N N n I b I n V n I N I n N b N b N b b M b b b b n b b b b x b z b b b n x b b x x z z l z z l z z l l l u u g g u g u l u < u < u < u < > u < > < < < < > < 1 : : : : > % : : : # = : = ; # ; o ; = = O ; o o = o o o o = O o o o o X . O o o o X o   X     o X   X       O               X             X         O                                                   PX",
"PX                                                                                                  O                         . .                 .   . .     . .   . . . . . . + . . . . + . + . + . + . o o $ # $ o $ $ % # # # % # % % $ O % % % % % % 7 % > > & & & & 7 3 3 > > & > 5 5 7 6 y < y 5 7 i 6 5 y 7 y p u u i u p p p v z p z p z z a z v z i z n z n z z n n z n F n n F n n n n F n n n E I n E n n I E n I U I E n n E I E n n E N E I I E E I n I E I E I N E I I I I E I I n U I E I I I I I I I U n I N I N N I N I N n I n I B b I n I b n I b N n N b b b n N b N V N V b n b b n n x b x b b x x x n k z z z z z z k z z l u l u l u k l < l u 6 u 6 6 6 6 6 < > < < < > < > < : < 1 : > : : : : ; : : : : ; = : o ; = # = o ; = = o o O o o o O = o o X o o X o O X . . X . X X     o   .   X   X   O X     X                       O               O                                     PX",
"PX                                                                                                                        O           .   . .   .   .     . O   . .   . . . . . . . . + + . . + $ . # . $ $ + . $ . $ o O # + $ O % % % # % % % 7 % & % & % % % % 7 & 7 > & 5 > & > > 5 5 5 i 5 > y < y y 5 y u u i u u i h u u p l u i i z p v i z p n A z n z i n A n n a n A n z n n n n E n n n n N n n n n n I n I n E N F n E I I E n N I I E I I I E I I I I F U I I I E W I I E E I E n I I I I E N I I E I I I N N I N E N N E I N N N I n I N N N n I N b I n I n b N N b N b b b b b b x b b b x n x b b b x x x x n z z z z z z z p z z l l l z l l l u l < l 6 6 u 6 l 6 6 6 < < 5 < < < > < > > : > 1 : > : : : ; O : : ; = ; : o = ; ; o O ; o = = = = O o o X = O o o O X . . X X o     . o     X     X .   X   .                 X                                 O                               PX",
"PX                                                                                                                    O       . .   .     .   . .   .   . . . . . . . . . + . + + . . . . . + . . # o $ . $ . $ o o $ $ # O $ # # $ % % % % % % $ % 7 % % & & & % & & 5 > > & 5 e > > y 5 5 u 5 y y y y u u u p i u i u p i v p v y v i v i p n z A z z A v i F z A z F n n a n n n n F F n n n E N N n I n n E E N E n N I E N I n n E I E N E I I E I E I I I I I I I I I I I I I I I I I I U W I I I I N I U I I I N I I I N I I I I N n I I N I n U I N N N I b N N I n U M N N n n n b b b b b b b b V b b b b b b x n x x b z z z V z z k l z l l u v u l l l u < u 6 g u 6 u < u u < < < < < < < < : > : < > 1 : : ; : : : = = : = ; ; = o ; ; o ; o = O = = = o = o o o o o o o X o o   o     o X   o             o   o   X                       O                                                         PX",
"PX                                                                                                            O O           O           .   .     .   . .   . . . . . . . . . . . . # . + . . + $ . + . $ o # $ $ $ $ # $ % # $ $ % $ % % % % : % % % % & > % 7 7 > & > 3 > 5 > > > e > y 5 5 5 w y w u p y y y u u p y u p p p i z i v i v p z v z p F z n z z n n z n n F n n F A n n n n E n E n n E n E I n n E N E E F I E E I I I I I E I E I I I E I I E I E I I I E I I I U I I I I I I I W I I I I I I I I I E I I I E N N U I I I I N I N N I N I B I n I I b N N N b N n I N N N b B M b b b b b b b x n x b n x x n z z V z z z z z z z z z u l l u k u l l 6 l u g u < u < 6 6 6 u < w < > < > < < : : < > : : : 1 : ; : ; : = ; ; : ; o ; o = = ; o O = o = O o o o o o X O o o o O o o o   o       o X .           . X       X                                                                       PX",
"PX                                                                                        O                             . O         .   .   .   . .   . .   . . . . . . . . . + . . + $ . . # . . # + + + O # . $ # $ # # % $ # % O # : $ 7 % % > % > % & 7 & & & > & 5 > 5 5 3 > e > w 5 5 5 y u y y u y u y y u i i p l i v p p z z i z a i z i n z z n A A z n A A n n F n n n n n n F n n E n N n I E N E N N N N E E I E I E I I E E I I E I I I I I I W W I U I I I I I I I I Q I I I I W I I I I I I I I I I I I I I I n I I I I I I I I I V I I I N I b N N I b n N N N n N N V N V N b b b b N b V n b b b b b V x b z x b z z x z z z z z z l l u z l u l u u l l 6 u 6 6 u < 6 u 6 < < u 5 < < > < > < > : 1 : : : , : = : : = : ; = ; = ; = o ; ; = = o ; o # O = o o X O = X o o   o o   o   o O o   . X . o o     X         X       X     O                                                           PX",
"PX                                                                                                                  . O       . .     .   .   . .     . . . . . . . . . . . . . + . . . + $ . + . + O + + # $ # # $ # % $ # % % % % % % # % & & % % 7 & % > & > 3 7 5 3 3 7 5 > > w y 5 5 u 6 5 y y y y y y u p y u u p p v i v z i i v i z z a A z A v z z n z n n n n n n n n n n n E n E n N n E E n n E n E E E E N N E I E E I E I U E I I I E E I U W I I W I I I I I I I I W I I I W W I I I I W I W Q I Q I I I I I I I I I I I I B U I N I I I I I N U I I N I I N n I I N N n N b N N N b b N N N b b b b b b b b b b x x x b x z b z x l v k z k z l u l l l l u l u g u < u 6 < 6 < < < < 6 < < < > : 1 < : : : : : : : : = : O ; ; ; ; ; o ; o = O = o o = = = O o o O o o X o o O X .   X o     X X X           X     o                                                                               PX",
"PX                                                                                                O                                 .   .   .   .   O . . . . . . . . . . . o + . o o . . # $ . . $ # + o $ o $ O % % O % # % % % % % % % % > % 7 % % % > & > 5 3 5 & 7 5 3 5 5 y 5 5 5 y u y i u y y p u p y p i p u i l i v i p z A A z z n z z n z A F z n n n n A n n n F F n n E n n n E n n N n E N E N E E N I E I n E I I E I I W W W I W I I I I I W I W W W W I I W W I I  .I Q I I W I I W I I I I I I I I I W I I I I I I I I I I I N I I N I V I N N I I B B N I N N N I n N N N N b b N b b b n V b m b b b x x b b b x x x n n v z z v k z l z k l z l l u u l g l u < < l u < 6 u u < < < < < < < > < > : : : : : : : : , ; ; = ; ; = : ; = # = # = = o o o O = o = o o o X o X X . o o   o o     o   o X   o     .       X   X X               O                                                   PX",
"PX                                                                                                                  .     O   .   .   .   .     . . . . . . . . . . . . + o . . . . $ . + . . + o . $ o $ o $ $ % # # O % % $ % % % % & % > % % % & & 5 & & 3 & % 5 > 5 5 > 5 5 > w 5 u 7 i y u y u u u u p p u u p p v i v p z z i z z n i i n n i n n n A z F n F n n A F n n F F n F E n n E E n E I E N E N I E F U E I E I I I E W I W E W W W I E I Q I W W W W W W I Q U Q I I I Q I I Q I Q I W Q [ I Q I I Q I I W I I I I I I I I I I I I I I I I N I I N N I N U n I N N N I N n N N N N N b b M b N b b b b m b b b b x n n x x z b z z v u z z z z l l l u g l l u u 6 l 6 6 < u 6 6 < 6 < < > < > < > < : < : : : : : : ; = ; ; , ; ; ; = o ; ; # ; O = o o = = o ; O o o o o o O o o X O o o   o     X   . o     o   . .                     O               O                                       PX",
"PX                                                                                                    O             . O       .   . .   .   .     . . . . . . . . . . . o . + . . + + + . $ . $ $ o + $ + $ # $ $ # # % % % % % : % % % % & % 7 & % 7 & 5 3 y > 5 5 5 5 5 y 5 y 5 y y y y u u p 7 i u i i u i l i u i v A v A v z z i F i n F z z n n z n n n n n n n F n F E n n E n N N E N E I E N E I N E E I E I E W N W W W W U I W Q W W Q W W W Q I Q I U  .I W Q I  .W P I W I W  .I Q P P  .W Q P P Q P Q W I Q P P Q I Q P P P I I I P I P I I I I I I I P I I I B I I N I N N N N N N N N N N n N N N b b b M b b b b x b x b x x x x x x k z x z k z l l z l u l u l u u l u 6 u u l < g < < < < u > < < : > : < : , : : : : : : : ; : ; : ; o o : o ; = o ; = ; o = = o o = O O o o   o   o   o     o     o     X   X       .                     X                                                   PX",
"PX                                                                                        O                 O     .     .             .   .   . .   . . . . . . o . . + . . . + + . . . $ o + o . + $ o # O % O # $ % % % % % % : % > % > % % 3 & & 3 3 3 > & 5 3 5 y 5 5 5 y 5 u y 5 y u p y y y u i u u p u p v i v i v i v A A A z z z z i n F z F A n n n n n n E n E n N n E n E E E n E N N E E I E I W I I W E W W W E W W W Q W W I W W U Q W Q I Q I Q W W Q I W Q I Q Q W  .Q Q I  .I I Q Q W P P Q P Q | | W P Q Q P P Q I Q W W P P Q P Q I [ W I I I I I I N I I I N N N I N I N N N F N N N n N n N N N n F M b b b b b b b b b x x n z b x x z x l z z l z l z l l u l u l u l u u u < u u u < < < < > < 1 < > : : , , , : : = = ; o : o : = ; o ; ; o : # # o o O O ; = o o o X o o o X o O   o o   o   o   . X .     X     X   X         X                                                         PX",
"PX                                                                                                              O   .       . . .   .       . . . . . . . . . . . + o . . $ + . . $ . $ + + $ . O # $ o # $ # % $ % $ % % % % > % O % % % % & & & > 3 % & > 3 & 5 5 5 5 y y y 5 y y 5 u y p p u p l i u i v v i i v i v i v i z z A A v n A A z A n F n n n n F E n E n n N E N N E E n N E N E W E N E I E E E E W W W W W I W I W U I Q I W W Q I Q W I [ Q W Q W Q Q W W Q  .Q | Q | [ | Q Q | Q | Q P Q W  .P I Q Q [ W P P P I Q I  .P I Q P I P P W I I I I I P P I I I N I I I P P I N I N E N N N N N N b n N M N b M b b b M b x b b b b b b z x z z V z z v z z l z l l u u u u u u l < l u < < < < < < < < > < > : > : , : : : : : : : = = ; = ; ; ; ; o = o = O o = = = O = o o O o o o o O o   o X   o . X     X     o .     X               X                                     O                   PX",
"PX                                                                                                                        .       .   . . . .     . . . . .   . o . . . . + o . # . + o + # o $ + + # $ $ # $ # % % % # % % % % & 7 3 % & > & & & & > 5 5 3 > e 3 5 5 5 y 5 5 y 5 y y u y p y u y p u i u i i p i i i v A v n z A z v A n z F z n n n n F n n F n F n F n E n F E n N E N E E E N N E W E W W W W E W W W W W Q Q I  .Q I Q Q W [ Q I Q Q Q I W  .W Q [ Q  .Q W W  .P Q Q Q W | Q W  .P Q  .Q W I  .W [ W Q [ Q Q W [ I I Q  .I Q  .I I W I I W I I P I I I I I P I B I I N I N N N N D N N N b N N M N b N b b b b b b b b c b b n x x x x z z x x v v z v l z l l l l u l u u u < < u < u < u < w < > < < < : > : : , : ; : : : : : : = # ; o : ; = = ; = ; o O ; o = = O o o o X O o o o X . o   X   X .   o       X     o       X                   X                                           PX",
"PX                                                                      O                                       .       .     . .   .   . .   . .   . . . . . . . . + o . + + + $ . $ o O o $ + + o $ o O $ # $ % O % % % % % % % 5 % % & & 3 & & & 5 5 > 3 e > 5 5 5 5 y y y y u u i y u u y p p p p p i p v v v i v z v A z i c A c A F z F n n v F F n n F n E E n E F E N E I I n E I n E I E W I E W W E W W E W E W W Q W Q I Q I Q I  .W Q W Q W Q I Q  .Q W W  . . .W Q Q | Q P [ Q  .Q P  .Q [ W Q  .I  .I Q [  . .Q P W  .I Q Q [ Q [ P Q [ I Q P I [ Q I W [ I I P P I I I I B I I P I N I B I N N N N N N n B b N b b b b b M b M b x b b z x x x z z z x l k l z l l l z p u l u l l u g 6 < l < < < < 6 > < > < < > , , : : : : = : : : o : o ; : = = = ; = o ; o = = o o o o o = o o X o o o O   o . X o o   X   o     .   X o                         X X                                           PX",
"PX                                                                                        O             O     O       .     .     .   .   .   . o . . . . . o + . . . + + . . + o + . + # $ $ o $ o $ $ % % % # % : % % % % % % % % & 3 7 % & > 5 & > % 3 > > y 5 5 5 5 5 y 7 i y y u u p p p p v i i v v p i i v A z A A z z n A c F c z A A n n F n F n E n E F n F N N E E N n E N E E I I E F W E W W W W W W W W W W W Q W I Q I Q W Q W [ W  . .[ Q  .W  . . .Q W W Q W  .| Q  .Q Q  .I I I Q | Q Q [ Q I Q Q  .W Q I  .I W I Q [ W W W W | P Q W  .I P Q [ I P I I I I P I I I I I I P P N I N N I N N N N N N I N N N N M N n M b b b b b V x x x n x z v z z z z z l z z l l v u z l u l u l u u < u < 6 < u < < < u > , , , > , : : : : = : : = : : = ; # : o ; ; o ; = o # = ; o # O o o o o O X o o   o o   . X . o   X X             X       X   X                             O     O                 PX",
"PX                                                                                                              .   .   .     . .     .   . . O . . . . . . . . + + . . + . + o + + O # + + $ O # $ $ % # # % $ % % % % 7 % & % 5 % 3 % % 3 & > > & > 3 > y 5 5 5 5 5 y y u y 5 y i i p y p i v i i p v v i l A v A A z i n n z A c z A z n n n Z n F n F n F N n E n E n E N E E E E I I E I E W W W W E W W W Q I Q I W Q W Q Q I Q I  .W I ^ Q Q Q ^ W [ Q Q Q  . .Q Q [ Q  .Q | Q W Q  .Q  . .Q  .Q  .Q  . .[ Q W  .Q W W  .W  .Q W  .W  .W W W [ [ I I I I Q I P I I I P P I [ P I P I I I I I N I N N I N N I N V N N N b M n n M b V b b b c b b n b x x z x x z z z l z z l v l l l z l u l 6 u < l < u < u < < < > < < , > : > , > : : : : ; : ; ; ; : ; ; = = ; o ; o o = ; o o o = o O o X o o X o   o     o X       o   X   o   o X   X   X X   X                                                       PX",
"PX                                                                                                  .         O       .   . .     . .   .   . . . . . . . . . . . . . + o + . + O + + + # # % # % # O # $ % % % % % % : % % % 7 % 3 % 3 % 7 & > & 5 & > 3 > 5 5 y y 5 y y y u y u u y u u p p p v i v i A z i z p v A z z n i i v A v F n A F n F F F F n E n F E F N E E N E n I n I E E I E E W E F I W W W W Q W W I Q I W Q  .I Q Q  .Q Q [ Q [ I  . .Q Q  . .Q Q Q  .Q  .Q Q  . . .Q  . .Q Q  .W  .Q  .I  .Q  . .Q [  . .W  .W  . .W  .W  . .W Q W Q [  .I [ P P Q  .I | W I P I P P P I I I N I N I N N I B b N N N N N V N M N b N b N b b b b c b x x x x v x k v v v z l z l l l z u u l l u g u g u u < > 6 < < u < < , > , , : : : : ; : : = : o : o ; ; o ; ; o ; = ; = = O = o o o o o o o o o o o O X o   o o o     .   o                     X     X                                                 PX",
"PX                                                                                                    O   .         .   .   . . . .   . .   . O . . . . . . . . . . . + . . # . # + . $ # O # $ % # $ + % % % % & % % % % & % & & & > & > & w e > > w & > e w > 5 y y y y 5 y u w u p p y p p y i p i z i z i n n i n a z n n n F A z F n n F A n F n n E n n E N n F N E n E E E I E I I E I W W I I Q Q I I Q W Q I  .U Q W Q I ^ { I  .Q Q Q ^ Q Q [  .Q { ^ Q [ ^  .Q  .Q  .Q Q  .Q  .Q  . .Q  .[ Q Q  .^  .[ Q  .Q  .W  .Q  . .I  .I  .Q W Q I [ I I Q [ I I W  .I I [ Q Q P I I [ I I I I U I P I I I I B I N I N V N V n N b N b b b M b V b b b x x x b x z k x z z z z l z k z l l l l l < l u u k < u < u u < < u u < < > , , > : : : : : : ; : ; : : ; = ; ; o o = ; o ; o o = o o o o o X O o X o X o o   o X o   o   o     o       X .     X     X               X                         O           PX",
"PX                                                                                                            . .     .   .   .   . O   .   . . . . . . + . o . + . + . # $ . $ # . $ o + $ $ # + % % % % % % % % % % % & % > & & & > & & e & & & e y & e > 5 y y 5 u 5 u y y y y y p p p u z p i z p p n i z i i n z n n a i n n c A n n F F F F n E N E F E F E E I F E I E I E E I E I E W U W W Q U I I Q I W W Q I  .Q Q Q Q Q Q Q [ Q Q [ [ Q  . .Q Q  .Q  .Q  . . . . .Q  . . . . .Q Q  . .Q  .Q  . . .Q  . . .W Q  . .[ Q  . .Q  .W [ Q [  .Q Q  .[ Q Q  .I  .I W [ I I [ I I Q W W [ I B P P I N I B P V I V N I b N I N b N V N B n V b b M b n b b x c b b x x x x x z z v l l z l z l l l u l < u 6 < l < 6 < < < < , , > , , : : , , : : : : : = : ; ; = = ; ; ; o = = o ; ; o = o o o o = o o o O . X X O . X o   o   o o     o o           X     X                     O                             PX",
"PX                                                                      O           O                     .         .     .   . . . . . . O . . . . . . . . . + . + . + + + $ o + # + + $ $ # $ O % % % $ % * % % % 3 % % & & & & & & & & > & w e > > e e e w e y w y w u y w y p p p p p p u p i p v n a z a n n i a n z n A F F A F n F n n F F E W F n E E N E E F E W E W N W W W E I W Q Q W Q Q I Q Q I Q Q Q Q Q Q Q I  .U  .{ ^ ^ Q Q  . . . .^  .^ Q  . .^ Q  .^  . . . . .^  . . .^  .O.Q  .O.Q  . . .Q ^  . . .Q Q  . .W  .Q Q Q [ [  .Q  .[ [ Q Q [ Q [ I  .Q I W [ [ I [ I I [ W [ [ I P I P P P P I I N N N I I N N N N N b b b N M b M b b b c b b b x x b x z x z x z z z z k u l l l l l < l < u < u < u < < < < , < > , > > , : : : : ; = : ; ; ; ; : : # = # = # ; o o o o o o = o o o X X o . o o     o   X   o     X   o   X X   X X   X       X   X                       O                   PX",
"PX                                                                                                          . . . .   .   . .       .   . . . . . . . . . . o . . o . # O + . $ + O # $ o o $ # $ $ % % % % % % % 3 % % 7 % > % > & > & & e & > & & e > > y > > 5 y y y w y p u w p p p p p p p z A i i i A z i i n z z n Z n z z F n F n F n F F F F F E F F E N E E W F W E E E I W W E W E I W W I Q I Q Q Q U Q Q I Q Q  .U Q  .Q Q  . . .^  .Q Q  . . .O. . . . .Q  . . .^ O. . .O. . . . . . .O.Q  . . .Q  . . . . . .Q  .{ ^  . . . . .Q  .[  . .U  .[ Q [ W  .I [ Q [ I Q [ I Q Q [ I I P I P I I I P P I I I I N I V I N N N N N N N N b b b b M b b b c x x x x x z k k x l z z l l z l u l u u l u l < 6 l < < u u < < > > , > , , : , : : : : : : : : ; : = = = ; = = # = o = o ; o o = O o o o o o o X o o O o o . o   o   X .       .         X                                                       PX",
"PX                                                                                              .     .           .   .   . . . . . . . . O . O . . o . . . o . + + . $ + o $ . % O o $ $ # $ $ $ $ # % % % & % % % % % % 3 % 3 & & % > & & e & e > w e & e w e e w p y y y p p 0 p p p p p p p p p p a n i n n i n a a a n n F Z n n F F F F E F E F E F W F E E E E W W E E W I W U E U W W W Q U Q Q I Q Q Q Q  .Q W ^ Q ^ [ Q Q ^  . .^  .^  . .O.^  . .O. .O. .Q  . .O.O. . .O.^  . .O.O. .O. .O. .^  . . .^  . . .Q Q  . . .Q  .Q Q  . . .Q Q  .I Q  .U [ Q [ Q [ Q [ [ Q [ Q [ I [ Q I [ P I Q P I P P Q P P I P I I N N N N N V N N N B N b M b b b b b M x x x b x b x k z z x z z z l l l l l l l k < u l < u l < u < < < < < , < < , , : : : , ; : : : ; ; ; : ; = = ; o ; = o = o o = o o o ; o O = X o o X o     o X o   X X   o o   X X       X   X               O                                   PX",
"PX                                                                                                O     .   .   .   .     . . . .     . .   . . . . . . . + . + + . . # + # + # # + $ o $ $ $ # $ % % % % % % % % 3 % 3 & > 5 % & : > & & 5 > & & w > w e w e y w y w y p y w p p p p p p a p n z a z n p n a p n i n n n n a a F F n n n F F n F E E F E F E E D F W E W W E W W E W Q Q I Q I W Q Q W Q Q U Q Q U Q  .[  .Q  . . .{ Q  . . . .^  . . . .^  .^  .^  .}  .O.O. .O. .O. .O. . .O. .^ O. . .O. .} { O. . . . . . . .Q  . .[  .Q Q  . . . .[  . . .[ Q [ Q [ Q Q [ Q [ Q [ [ I Q [ [ I [ P W [ I I P I B I I I I P I B N N V N b b N N N b M b b M b b m x x c x x x z x z z v l z l z l z l u l u u < l 6 < u < < 6 7 < < , 7 : , , , > , : : : : : ; ; ; ; o = # = = # = ; o ; = o o o o = O o X X o o o o o o X O   o     o     X .     X   X                                                       PX",
"PX                                                                                  O         O   .   .     . .   .   . . . . .     O   . O . . . . . . o . + . + # $ o + O $ . + + $ $ $ $ $ # $ % % % % & % & > % % 3 & % > & & & > > > & y e > & e e w w w w e y w p 0 p y p p p p p p p p p a p p p n p n n n n n n n Z n n n F E Z n F E F F F E F F E W F E E E W E Q W E Q E E W W W I Q Q W Q U W  .Q Q Q U Q ^ ^  .Q  . .^  .Q O.^  .Q O.O. .O.O. .Q O.O.O.O.^  . . . .O. .O.O.O. .O. .O. . . .[  .O. . . . . .O. . .O.Q  . . . .Q Q  .{ ^  . . .Q  .[ Q W [ [ Q U  .W [ I [ Q Q [ I I [ W W P I I P P P I I P P P I N N N N I I N N N N B N M N b M n x M x b c c b x x x x z z l v v v v l l l l u l g l l < u l < u 6 6 < < < , < > , , , : : : : : : # ; : : ; ; : = # o ; o ; ; o = = o o o o o o o o o   X o . .   o .             .   X               X       O                         O           PX",
"PX                                                                      O                               .       .   .   . . .   . . . . .   . . . o . + . + o + + . $ + + o $ # $ o o $ # # $ $ % % % % % & % & % 3 % % & & & & & : & & 3 > & > > e w > > e y y y w y w p w p y y p p p p u p a a z p n p a n p a n a a n F F a n n n F F F F E W F E E F W F E W E W E E W W E E W W W I Q W Q W Q Q Q  .^ I Q Q  .[ Q  .Q  .^ Q  .^  .Q  . .^ Q  . .^  .^  . . . . . .} ^ O.O. .O.O. . .+. .O. .Q } O.^ }  .{ O. . .^  . . .Q O. . . .O. . . . . . .Q [  .Q  . . . .Q [  . . .Q [ Q [ [ Q [ Q W W [ W [ I I P I P I I P I P P I I B B N N B N b b N b N n M b M b b c M b b x b z x x x x v v v p l u k l u l u l u l u < l < 6 < < 7 < < > < > 7 , : , : : : : : ; : : = : o ; ; ; o ; o o o o o o = o o = o o o X o o   X X o X . X o   o o   X   X   X     X                   O                               PX",
"PX                                                                                  O       .               .     .   .   .   . . . . . . . o . . . . + . + + + + # + + # $ + . $ $ $ # $ # $ # % % % % & % & & % % > & % > & & & > & 3 & 5 3 5 5 7 5 5 > y w y w w y u p u y u p p l p u p i z p n i z n A n a n z n F n Z n n F F n F F F E E F W F E W W F E F E W W W E W E ! W E Q W Q W ! Q U Q Q W Q W Q Q Q I Q Q  .Q Q O.Q Q  .Q Q O.Q  .Q O.Q O.^ Q O.O. . . . . .O. .O. . . .O. . .O. .O. .^ O. .^  . . . . . .Q O. . . .O. .O. . . .Q  . . .Q [ Q Q  . . .W  .I [ Q  .I [ Q Q [ W [ [ Q P I W Q [ I [ I I I I I P P P P I N V I V N N n B b N b b V M m b m b b b c x x V z z z x z z l x l l l l l u w k 6 u < < < < < u < u < < < < : < 1 , , : : : : ; ; : o ; = : = # = o ; o ; = = = o O o o o o o X o O o X o     o   .   X   . X o         X                                                     PX",
"PX                                                                  O                         . .   .     .     .   .   . . O   . . . . . . . O . . o . . o + . + O $ . $ . + $ $ # # $ $ $ % % * $ % % % % % % & & & & & > & > & & > > & 5 & * 3 % > 5 3 3 y y y y 6 y p y y y p w p y 7 i i F a p i p i z p n a n n Z F a F E Z F E F F E F E E F W W F E E W W W W E W W W E W Q W W W Q ! W Q Q W W | Q Q W Q W  .W Q Q Q Q Q  . .|  . . .O. . .Q O.O. . . .Q O. . .O. . .o.o.O.O.O.o.O.o. . . .O. . . . . .o.o.Q [  .O. . . . . . .O.Q O. . .O. .Q  . . . . .Q [  . . . . .[  .Q [ [ W  .I I [  .I [ W [ I W I W [ I P I P I P P I I B b I N V N N N N N N m b m b b b b b x n b z z b l x z z z k z z l u l l l g l < f u u < w < < < > < 1 < : , : : : : : , : : : : ; : o : ; = = # = o = O o o = o = o o o o o o o o X o o o X X     o           o     X     X       X     X   X   O                       PX",
"PX                                                                                          O         .   .   .   . . .   . . . . . . + . . + . + . # . + + + + . + + + # $ $ # # o $ # $ % % $ % % & % % & % & % 3 & > & & w > > & % > > & + .     .     .   .   .     .   . . . . . . .     . . . + . 5 F i a n F n F n E n F F Z F F F F F E E E W F E E E W W E E E W W Q Q W F Q ! W 0 w @ @ * # # # + # # @ @ # # * # @ @ @ # # @ + @ @ @ + # * @ + * * @ * @ @ @ % % # @ + + + + @ @ + . + o o o + + # + + . + 0 0  . . . .O. .O. . . . . . . . . . . . .Q  . . .Q  .Q [  .I [ Q Q [ I  .| I  .I W [ W W I [ I I I I I I P I V P P N I N I N N N N n b b M M b m b V b b n x b x x x x v z k z k k u l k l u u l u l l < f g f < < < < < < < , < , , : : : : ; : ; : = o ; o : o = = o = o = ; # = o o o O o o X X o o o   o O     o   X o .   o     o       O                 O           O                 PX",
"PX                                                                                      .       .       .   .   .     .   . . . . . . . . o o . . o . . O + . + + + $ o + $ . # $ $ $ $ $ % # $ $ & % 7 & % & % % % & 7 & & & & & > & 5 & & .   .         . O   . O . . . . . + . + . . . . .       . . % n v n a a n A F a F Y n n E F E F W F F E F E W W E E W E W Q ! W Q E E o.! D # @ + . + . + + + + + + + + + . @ + + + + * @ + @ @ + + @ + . + # + . 0 + @ @ @ + + @ @ @ @ @ @ @ + # + . o . # . . @ . . +   + @ * o.O. .+. . . .O.O. .O.O. . . . .Q  . . .{ ^  .[  .[  . .Q  .I  . .P Q [ I  . .I Q [ W [ I W I [ I P I P I P B N I B B N N B N V B B M N b V b m b n x n x b b z x x z x z z z l l z l l l < < k u u u w < u w < < u < < , : > > : , : : : : : ; : : : : ; ; ; o ; # = o o = o = o o o o o o o o X o o o   o o   o     X X   X o     X       X               O             O             PX",
"PX                                                                                        O   .   .       .   .   .   . .   O . . . . . . . $ . + o + . + . $ + $ . + # + $ $ $ $ $ % % # % % % % % % % % % % & 3 % & > 3 3 & > e & & y % % + . .   O O 4 O 4 4 $ $ * 4 * $ 4 * * 4 * * 4 $ $ O   O     . + 3 z a n a n n n n E E F E F E F E E E F E E E W E W E E W W Q E Q Q Q E . + . . . $ . . * * @ @ @ @ @ @ 9 0 0 9 9 0 9 @ @ 0 9 9 0 @ 0 * w . # # s * U s 9 0 0 0 w 0 0 9 9 0 @ 9 0 * 0 0 & @ @ @ 0 w + . $ $ + +  . . . .O.O. .O.+. . . . .O. . . .X.[  . . . . .Q  . .Q  . .Q  .I  .[ Q Q [ W [  .I [ W W [ [ I Q I P P P P P I V P I N B b N M N V N M b b N M b b b b b b x x z x z z k x l z l l l k u l l u u < u f < l < < < < < < , < , > , , : : : : : ; : ; = : ; # = ; o = # = = : # O = = o = = o X O = o o O o X   o X . X     o   X                 X           X                           PX",
"PX                                                                                          .         .   . .   .     .   . . . . . . o . . o . . . + + . + . + + + + + $ # o $ # $ % # % % % % % & & % & & > & % 3 > % 5 % e & > > & > # o O   . . $ 4 4 4 4 r r r t t r S r S S T S t t S r + O     .     $ n n a E b n E F E E E F E E E F W W W E W W E W ! Q W ! Q U Q Q E Q W @ . . . . + @ 0 0 s 0 q q 0 q 0 q 0 s q s s q s U a U H s U U U U w @ 0 +.} ^ U U U U U U U U U U U U s U H H U s w U U ^ [ 9 + . $ . .  .o.O. .{ O.O.O. . . .O. . . .O.O. . .O. . . . . . . .[  .[  .|  . . .[  .[  .I I  .W [ [ W W I [ [ P P P P P P I I B N N I N N N N N M M b b M N b b b c c b c x b x x x z x z x z l l l l l l l < l u u < < u < < < < < , > < : , , , , : : : : : : # ; ; ; O ; o ; O o = ; o = o o O o o o o o o   o   o o     o   o     .     o X   o   X                           O               PX",
"PX                                                                              O           .         . .   .   .   . . . . . . . . . . . # . + $ . . $ + . + + $ + + % $ $ $ $ $ # $ $ & % % % % % & % % & % 5 5 & 3 3 & & > > e 3 5 5 .       O 4 r S S >.>.T >.T ,.>.,.,.,.1.,.,.R 2.1.,.>.S O       . . . i F E a J E n E F F F E F E F E E E E W E E E W W E Q Q E ! Q Q Q P W . . . . $ @ G.j.G.j.x.j.j.].x.G.G.].].x.j.+X+X].].x.+X+X+Xj.j.].4Xj.s j.+X+X+X+X+X+X+X+X+X+X+X+X+X+X+X+X+X+X].+Xx.x.x.j.].G.j.. +   . . o.Q X.O. .O.O.X.O. .O.{ O. .O. . . . . . . . . .[  .^  .Q  . . .[  .Q  .[ Q  .I [ Q [ Q [ I I [ I P [ I P P P P P P I N N P N N N N N N M B N N V b M b b b c x c x b z x x x k v z z l l u l l u k < l < f u < < g 7 < < < < , > , : > , , : : ; : = ; = ; ; = ; : ; = : # ; = ; o o o O = = o o o o o     O   o   o   o     X           O                       X                     PX",
"PX                                                                                    O .   O   .   .     .   .   . O . . . . + . . . . . . # . . + . o + # . . # + O % $ # $ # % % $ $ & % % % & % % & % % % % & > 5 3 5 & 3 e e 3 5 5 O     . + 0 S S S T >.>.,.,.,.2.2.,.2.2.2.v.v.v.,.2.,.S r O . .   . O Z a n E n n E E Y E E F E E E E E E W W W ! W W ! W Q E Q Q Q Q Q I  ..     + . 9 j.j.j.x.].x.x.x.].x.[.x.x.+X+X[.+X[.x.+X[.[.[.[.+Xx.+Xj.t j.+Xx.[.|.[.[.+X[.[.|.[.[.[.x.[.[.x.x.[.x.x.+Xx.x.x.x.j.0 + . . . o.o.O. .} O.X.O.O. . .O.}  . . .O. . . . . . . . . .{  . . .Q  . . .[  . .Q [ [ Q [ I  .I Q [ I [ Q [ I I P P P I P P B I B N N N N N M b N N b n M b b b b b b b x x x z z x z k z l l z k u l l u l u w l < u < w < < < , > < , > : , : : : : : : : : : ; = ; = = = O ; = = = O o = o = o = O o X o X o o   o   o X .   o       o o       X   X   X               O                   PX",
"PX                                                                                            .   .   .   .   . . . .   . . . O . . o . + + . + . + . + + + . $ o $ $ # O $ $ $ % % % % % % 3 % % 7 % 3 % 3 & 3 > & > & & > w > y & 5 5       . 4 S S S T >.>.,.,.,.,.2.2.2.2.2.v.v.v.v.r.2.,.,.S 4 O O . . $ F Z n a n E E F E F ! F ! E E E W ! W W W E W W ! E W ! W Q Q Q U W W . . . . @ 9 G.x.x.x.x.x.x.x.x.x.x.[.[.x.[.x.x.[.[.[.[.[.[.[.[.+X+X4XK +X+X$XOXOXOXOX{.{.{.|.|.[.{.[.[.[.[.[.x.[.x.x.x.x.].x.j.4X0 + . + O. .}  . .O.O.O.+.O. . .}  .O.O.{ O.O. . . . .O. . . . . . . . .^ {  . .[  . .Q [ [ {  .I  .[ I [ [ I I [ I P I P P I I B I I N N N N N N N N V N N N b M b b b b c x b x x x k z x x l l k l u l l u f g w 6 6 6 6 < < 6 < 6 < , 7 > , , : : > : : : : ; ; = ; # : ; = ; o = o = o = = o o o o o o X o . o o X X . . X   o     X .   .           .   X                                 PX",
"PX                                                          O                       .       .   .   .   .     . .   . . . O . . . o . + . . o + # . $ . . + + + $ + + $ # # $ % % % % % % % % % % & 3 % % % & 3 & & e y e e & e e 5 5 5       O r S T T >.>.,.,.,.,.2.2.2.2.v.2.v.v.v.v.n.v.2.,.T S $ . . . O F Z E n U n F E E E F W F E E W E E W ! W ! W W W Q W W Q Q Q Q Q Q Q + . + @ 9 t j.].j.x.x.x.x.].x.].x.x.x.[.[.[.[.[.[.[.|.[.[.[.[.[.+X+XH 4X@XOX#X#X.XOX.X{.OX{.{.{.[.{.{.[.|.x.[.x.[.].[.x.x.x.+Xj.s @ + +  .O.O.O.} O.+.{ O. .} O. .O. .+. . .}  . . .O.{  . . . . . . . .{ Q  .Q Q  . .I [ ^  .I W [ Q [ Q I [ I [ I [ I P P P P P B B I B I N N N V n N N b b M b b b M M b x x x x z b x z v x l z v l l u l l l < u u 6 u < g 6 < < < < < , > , , , , : ; ; ; : ; : : = = = ; ; o # = o ; = O o o o o o o o o X X   o   X o   o     o X   X   X     X   X             X                       PX",
"PX                                                                                    . .   .     .   .   . . . . . . . . . . . + . . . . + + + + + . + $ $ # $ + + $ + % % % $ $ # % % % % % 3 % % & & 3 & & 7 & 5 > & e > & e y 3 y 5     O 4 r S S >.>.>.,.,.,.2.2.v.2.v.v.v.v.v.v.n.v.v.v.2.,.1.r 4 O + @ Z a 0 E n E E F E F E E W E E E E W W E W Q W Q ! Q W W W W Q Q Q W Q + + @ Q G.].].j.[.x.[.x.x.].x.[.[.].[.[.{.[.[.[.|.{.|.{.{.OX}.$X$X<XK <X1X#X>X:X-XoXoXOXOXOX{.{.{.{.{.[.[.[.[.[.[.x.[.x.x.x.[.x.4X0 + @ O.O.}  . .} O.O.} +.O.+.O.{  .}  .O. .{ O. . . .}  . . . . . . . .{ Q [ [  . . . .[ [ Q  .[ [ Q [ I [ Q Q I P P P P P P I B N B B N N N N N N N b B b N b M M b x c b b b x x b z x v z l l z l l k l u u l g u 6 6 < 6 < < 7 < < > , , , > : , : : : : ; ; = : : ; ; = o ; o ; o ; # = = o = o o o o o X o o o o     .   X o     o o       . X         X           O   O               PX",
"PX                                                                                    .         .   .   .   . . . . . . . . O . . . + . + . + . + . $ . + . . + o $ # + + % % % $ $ % % & % % % > % & & > & > & > 3 & e & w & w 5 > y 5   O $ 4 S T T T >.>.>.,.,.2.2.2.2.v.v.v.v.n.n.v.v.n.2.m.2.2.S 4 $ . 0 ! a r Y a E n E F E E E W F ! ! W ! W ! W W ! W W E Q Q Q Q Q Q Q Q | + + * 4Xj.j.x.x.x.[.x.x.x.x.x.x.[.x.[.[.[.[.{.{.{.{.{.OXOXOXOXOX#X<XH <X1X1X1X:X:X-XoXoXOX}.OX{.{.{.{.[.[.[.[.[.[.x.[.].[.[.x.].j.U 0 @  .+. .} O.O.O.+. .O.O.X.+.O.X. .+. .O. . .} } O. . . .}  . .O. . . . . . . .[  .Q  . .[  .Q [ Q  .Q I [ I [ P I [ P P P I I I B I P N B N N N N N b B b V n b b V b m x x x x x x z v z z v v l l l l l g u l 6 6 6 g < g < < < < , > > , : > , : : : ; : : ; # o : o ; : o ; o = o o ; o o o o o o o   o o o   X . o X o     o         o X           X                                 PX",
"PX                                                                                        .   . .   .   .   . . . . . O . . + O . . . + . + + . + $ o $ + $ $ + $ . % $ # % % # % & % % % % % & % 3 % & & 5 > 3 3 3 5 5 e > w e e > y y . O O r S T >.>.>.>.5.,.,.2.2.2.v.v.v.n.n.n.b.n.n.n.n.n.v.2.<.r $ * r ! T J T E E ! F E E E E W E W W E W W ! W ! W Q ! Q Q Q Q Q Q Q Q Q Q $ + 0 G.x.].].x.j.[.].x.x.[.].x.[.[.[.[.[.[.{.{.{..X.XoXOX-X-XOX$X<XU 2X2X1X2X1X:X:X-XoXOXoXOX.X X{.{.[.{.[.[.[.[.[.[.[.x.x.x.+Xx.U 9 @ O.+.} O.O.+.O.+.O.+.+.X.O.+. .+.O.O.O.+.}  . .O.{ }  . . . . . . . . . . . .[ ^ Q  . .[  .Q [  .[ [ [ [  .I [ I [ I P P P P P P I N B B N N N N N M V N M b M b M b c b x x x x x z x z z k v l l k l u l u 6 u 6 u 6 < g < < 6 < < < > , , , , : : : : = : o : ; = # = o ; o o ; o O = = o = o = o o o o o X o   X   o o   o .   X o         .               X                         PX",
"PX                                                                                        . .     .   .   . . . . . . . . . . . o . . . . # + + + + + + + . # + + $ $ # $ $ $ % % % % % % 3 3 % % 3 3 > & % 3 3 & 5 5 & e & e e 5 3 e y .   O S S T >.>.,.,.,.,.v.2.2.v.v.v.n.n.b.n.n.b.n.b.b.n.n.2.1.S 4 @ r ! T T r ! E F W F E E ! E E W ! W Q ! W W W Q W Q Q Q Q W Q  .~ Q  .Q + + q G.j.[.x.x.x.x.x.[.x.[.x.[.[.[.[.[.{.{. X{.{. XXXoXoX*X=XOX#X<XK <X1X2X2X1X1X>X-X-X=XoXoXOX.X.X.X{.{.{.[.[.[.[.[.[.[.[.[.x.+XU 9 @  .{ O.} } O.+.O.+.O.O.+. .O.+.+. .+. . . . . . .O. .+. .+. . . .}  . . . . . .{  .[ Q  .[ [ [ Q Q [ [ Q W [ [ W Q P [ P W P P B B I P I I B N N N B N N b M b M b b b x m b c b x x z x v v v x z l u k l l l u l 6 g l 6 < 6 < < 7 < < < , , > , : : : : : : : : ; ; ; ; ; ; = o ; = # = o o o o o o o o o o o o o o X . X   X X .     o   X   X     X               O                 PX",
"PX                                                        O                           .     .   .   .   . . . . O . . . O + . . . + . + . + . $ + + + o $ o o $ $ o + $ $ $ % % % % & % % > % % 3 % > & > 3 > 5 3 > 5 e e w w e e w p e . O O S S T >.>.,.5.2.2.2.v.v.v.n.n.b.b.b.b.b.b.b.b.b.b.n.n.,.S 4 * r >.,.T t T F E E F E W E W E E E W E ! Q Q W Q Q ! Q Q Q Q Q O.Q Q W Q @ + 9 4Xj.x.[.[.x.x.[.x.[.[.[.[.[.[. X{.{..X.XOXoXoXoXoX=X=X-XOX#X2XU 3X2X2X2X2X1X>X-X-X*X*X=XoXoXoXXX{. X{.{.[.[.[.[.[.[.[.[.+X].H 0 9 O.} +.O.} O.+.O.+.+.O.+.} +.+. .+.X.+.+. .+. .O. .+.O. .+. . . . . .{  . . . . . .[  . .[ Q  .I  . . .[ W I W [ I [ P [ I W P P B B I I N I N I N M N N N N M M V b M c c b b x b z x x x v x l l z l u l u 6 l 6 l 6 g < g 7 6 < < < < , , , , 7 : : : : : : = : : = ; ; o ; = ; o o = # = o = o o O o X O . X o o o X X .   o   o   o .         o           X     O             O     PX",
"PX                                          O                                   .         .   .   .     . . O . . . . . + . $ . . . . . + + . + + + $ $ + $ $ + + $ # $ $ & % % % % % & % % % 3 % & 7 & > & & 3 5 y & 5 & e e e w e e e . O O r S >.>.,.,.,.2.2.v.v.v.v.n.n.b.b.b.b.b.b.b.mXb.b.n.n.2.S 4 * t ~ ,.T r ! F F W E E F ! E W W ! ! W W ! | ! ! Q | Q Q Q Q Q Q Q Q  .Q + @ 0 ].+Xx.x.x.[.[.[.].[.[.[.[.[. X[. XXX{..X.XoXoXoX*X*X-X-XOX#X<X^ <X2X2X2X2X1X1X:X-X*XoXoXoXoX.X.X.X{.{.{.{.{.[.[.[.[.[.[.x.+XU 0 + +. .} O.+.} +.+.O.+.+.+.O.+.O.+. .O.}  .O.+.+. .+. .+. . .O.+. . .{  . . . . . . . . .[  . . . . .I W  . .[  .I  .P P I I [ P P P I N I B N N N N N N B b M N N n M b b b c b x x x x x l x x l x l l l l l l u l u 6 l g u < 6 6 6 7 , > > > : , , : : : : ; : ; o = : ; ; o ; o ; = o = o # o = = = o o = o o X o   o o   o   o   o   X X   o   X   X                 O               PX",
"PX                                                        .               .   .   .   .   .   .   .   . .   . . . . O . + . . . + + . # . $ + $ + # + + $ $ + + $ # $ $ # # $ $ $ % % & % 3 % & > > & 7 3 & 5 3 5 5 5 y > > e w y e y y + . $ S T >.>.>.,.2.2.2.v.v.n.n.b.b.b.b.mXmXmXmXb.mXb.b.b.v.2.S 4 @ r 1.,.R H Y E E Z E Q E E ! E W W Q E Q E Q Q Q Q Q W Q Q Q Q Q Q Q Q Q + + 0 4Xx.[.[.x.[.[.[.[.[.[.[.[.[.{.{.{..X.X.XXXoXoX*X*X*X=X-XOX#X<XJ <X2X1X2X2X2X1X:X;X;X;X*X*XoXoX.X.X{.{.{.{.{.{.[.[.{.[.[.[.+XH @ @ O.+.+.O.} @.+.O.O.+.+.+.+.O.O.+.+.+.O.+.+. .+.X.O. .+. .} O. . . .O. . .}  . .{  . . . .[  . .[  .[  . . .I  .[ Q [ [ P P W P P P P P N B P B I B B N M b N N M M M b b b b x x x n x x x z z v z z l l l p l l u l 6 6 6 6 < < u 6 < < , , > < : : , : : : : ; ; : : : o ; o ; o o = # o = o = o o o = o X o o o O o o o O   o   o   O X     X   X           X       X                 PX",
"PX                                                                          O     . .   .   .   .   .     . . . . . . . . . $ . . . + . + + + . $ . $ o # + + % $ $ # $ % % & % # % % % % 3 3 % & & 3 3 5 % 5 > 3 7 5 3 y e e w y y y y . . * S S >.>.,.,.,.2.2.v.n.b.b.b.b.nXb.mXmXmXmXmXb.mXb.b.n.1.S r * t >.2.,.T ! ! E W E E E Q E E Q ! E Q ! Q Q Q ! ! Q Q Q Q Q Q  .O.Q O.Q + @ q <X+Xx.[.[.[.[.[.[.[.[. X[.{.{. X.X.XoXoXoXoX*X*X*X-X-XoX#X#X1XU 3X1X2X2X2X1X1X:X:X-X-X*X*X*XoXoXXX.X.X X}.{.[.{.{.[.{.[.[.+XU @ # O.+.} O.} O.} +.+.O.@.O.+.+.+.+.O.+.+. .O.+. .+.O.+. .+. . . .+. . . . .[ O.}  . . . . . . . . . .[ [ I  .[ Q I [ I W W | [ W I P P P P P P I V N I B N N N M B N b M b b V M b b x x x x z x v l z z z v z l l l u u l 6 u u < < < 7 < < > , 7 , < < : : : : : : : ; ; : ; : o ; ; = = ; o # o o ; = O O = o X X o o   o   o   o   X X   X X   X     o   X                             PX",
"PX                                                                  . O   .     . .   .   .   .   .   . . . . . . . . . o . + . . + . + . + . $ + # $ $ * + % + $ o # $ % $ % % % % & % % % % & & > & 3 3 3 3 5 3 5 5 y y y y e y y i y . . 4 r S >.>.,.,.2.2.v.v.n.b.b.b.b.b.mXmXmXnXmXmXb.mXb.n.n.2.S 4 @ t ,.1.1.R ! E W E E E W Q E Q Q ! Q ! Q ! Q Q Q o.! Q Q Q Q Q Q ^ O.O.Q + @ 9 <Xx.[.].x.[.[.[.[.[. X[.{.{. X.X.X.X.XoXoXoX*X*X*X*X*X-X#X#X<XU <X2X1X2X2X1X1X>X:X-X;X*X*X*XoXoX.X.XOX{..X{.{.{.[.{.[.|.[.+XU 9 @ +.O.@.} @.O.@.O.+.@.@.O.} O.@.O.@.+.@.+.O.O.+. .+. .O. .O.X.+.+. .} }  . . . . .{  . . .Q  . . .^ { W  .[ Q [ P  .P  .P P P [ W [ W P N P N P N I N N N N N b N N N b M M b b x b c x x k x z v z z v l z l l u l l l g l 6 l < u < < < < < < > : : , : , : : ; : ; : : o : ; ; # = o ; o o = = o # # o = o o o X X o O X .   o   o X X X   X   X     X                   X             PX",
"PX                                                .     O               .   O .     .   .   .   .   .   . . O . . O . . . . . + + . # . $ # + + . $ + + % + % * $ $ % $ % % % % % & % & % 3 7 > & & & > 7 3 5 5 5 3 5 5 & 5 w e y y 5 y . . * S S >.>.,.,.2.v.n.n.b.b.b.mXnXb.nXmXnXmXmXmXnXnXb.mXn.2.T r 4 J 1.2.,.T ! Y Y E W E ! E W E E W Q Q Q E Q Q ! Q Q Q Q ! o.Q O.Q Q Q Q @ + 9 4X+X+X[.[.[.[.[. X[.[.{.{.{.{..X.X.XoXoXoXoX*X*X*X=X=X=X#X$X1XU 3X1X1X2X2X1X1X>X-X-X;X*X*XoX*XoX.X.X.XXX{.{.{.{.[.{.{.{.+X+XU 9 @ @.+.@.} } } +.@.@.+.+.+.+.+.+.O.+.O.O.+.+.+.+.O.+.+.+. .+. .O.{ O. . . .{  . . . .O. . .[  . . . . . . .[ Q  .[ [ I  .I | P | W W I P P P P N P N N N B N N B n V b M N n M b b b c x n b z x v v k z z l z l z u l u u l u < u < u < < < > < < < : > : : : : , : : ; = : ; = : = = ; o ; = = O o = = = O o o o o o X o o X O X o   . X   o X     X X           X             X         PX",
"PX                                                      .     .     .   O           .     .   .   . . . . . . . . . . . . + . . + . . + $ + . + $ . # $ + # # $ $ $ # % % % % % & % % % 7 & & & 7 3 & 5 3 7 3 5 5 y 5 5 y e w y e e y 5 . . * S >.>.,.,.2.2.v.n.mXmXmXmXnXmXnXmXnXnXnXnXnXmXnXmXmXn.4.T 4 * S 1.v.,.1.! ! J I W Q E E ! W W ! Q Q Q Q Q Q ! O.Q Q Q Q Q Q Q Q O. . .@ + 9 <X+X+X[.[.[.[.[.[. X{.{.[.{..X.X.XoX.XoXoX*X*X*X*X=X=X-X-X#X1X^ <X1X1X2X1X1X1X>X:X=X=X=X*X*XoXoXoXoX.X.X{.{.{.{.{.{.[.|.|.$XU 9 * +.+.} @.} +.@.+.@.+.+.@.+.} O.+.+.+.+.+.+.+.+. .} X.+.+. .+. .O. .} } O.{ O.}  . . . . . . . . . . .[ W  .[ [ Q [ [ | W [ Q P | I [ P P P B P P I V I N N N N N N b N b b M b b b b b x x z x x z z v z z l z l l u l 6 l < u < < < < < 7 < < , , 7 , > : : : , : : : ; : = ; = o ; ; o o ; o o = o o = # o O o o o o O o o O   . X X       o               X     X                     PX",
"PX                                              O                         . .   . .   . .   .     . . . . . . . . . . . + . + . + + + + $ . $ o # $ + $ $ $ $ $ # $ % % % % % % & % & & & & & & % 3 > 3 3 3 5 5 y 5 y y y y y y p y y y . . 4 S S >.>.2.2.2.n.n.mXmXmXmXnXnXnXnXnXnXnXnXnXnXnXnXnXn.n.S 4 * T 1.m.m.R T ! E Q E E W ! W Q ! W Q W ! ! Q Q o.! O.~ Q Q O.O.Q O.~ ~ O.@ @ q 4X+X[.[.[.[.[.{.[.{.[. X{.{.XX.XoXoXXXoX*X*X*X=X*X*X*X*X#X#X1XU <X1X1X1X1X1X1X:X:X-X=X*X*X*XoXoXoX.X.X.X.X X{.{.{.{.{.{.|.+XU 0 * O.} } O.O.} } @.O.+.+.+.@.+.+.+.+.O.+.+.O.O.+.O.+.+.O.X.+.O.+.+.X. . . .O.{ {  . . .{  .}  . .O.[  . . .I  .[ Q  .W Q [ W [ | Q P I P P P I P B I I B N N N N N N N N M N M M b b b c x b x z x z v v l k z k u l k u l < l l u l < 6 u < < < > < < , , , : : : : : : ; O : = : : o ; ; ; o = = = # o = O = = o X o o o   o X o X .   o o   o   o   o X                     X           PX",
"PX                                                  .     .       O           .     .   .   .   . . . . . O . . . . . . . . . . . . + . + $ + $ $ . $ o # $ $ # $ % % % % & % % % % & % & & > & 5 5 5 > 5 7 3 5 5 5 y y y y y w p e y y . . 4 S >.>.,.2.2.v.b.b.mXnXnXnXnXnXnXnXnXnXnXnXnXnXnXnXnXn.2.S 0 * T D.,.m.m.! Y E J Q W ! W W Q E Q ! Q Q Q Q Q Q Q !  .O.O.Q Q Q O.^ O.Q + @ 9 4X+X[.[.[.[.[.[.{.[.{..X{.{..X.XoXoXoXoXoX*X*X=X*X*X*X-XOX#X3XU <X1X1X1X1X1X>X:X-X*X*X=X*X*X*XoXoXoX.X.X.X{.{.{.{.{.{.{.+X+XU 0 @ @.O.} } @.} @.+.@.} @.O.@.+.@.O.+.} O.+.+.+.} O.O.+.+.+.}  .+. .{ O. . .{ +.{  . . .O.{ [  . .{  . . .[  . . . .[ Q  .I [ W I [ [ I P P P P P I N B N N N I N N N N M M b b b V b b b c x x x z x x k z z k l u l u l l < u < u < u 6 6 6 < 7 , : < , , > : : : : : ; ; ; ; : : o ; o ; ; = o ; o = o o = = o o = o o o o o .   o X o   o o   o           o X     X X                   PX",
"PX                                        O                           .   . O     .   .   .   .   . . . . . O . . . . + . + + + + $ # $ + o + + + $ # $ $ # $ $ $ $ & % % % 5 % & % % > & & 7 & 3 % 5 3 3 5 3 5 5 y > y y y y y y y y 5 . . 0 S >.>.,.2.8XmXmXnXnXnXMXnXnXMXMXnXnXVXVXnXMXnXMXnXnXn.m.S r * 1.m.v.1.G.! ^ ! E E ! W ! ! Q ! ! Q Q ! Q Q Q Q Q Q Q Q ~ Q O.O.Q O.Q Q @ + q <X+X|.[.{.[. X{.{. X{.{.{. X.X.XoXoXoX*X*X*X*X*X*X*X*X-X#X#X1XU <X#X>X1X1X1X>X:X-X-X*X*X*X*X*XoX*XoX.XXX.X.X.XOX{..X{.{.{.$XU s @ @.@.@.} } } @.@.&.} +.} +.+.+.} +.+.+.+.+.+.+.+.+.+.X.O.+.+.+.+.+.+.+.+.+. .+.+. .}  . .O. .{ O.{  . .{  . .[  . . .[  .| | [ I  .W I [ P P [ P P P P P B B N B N N N M N N b N b M m b b x b x b x x z z z z v l l l l l u k < u < 6 6 6 < < < < > > > , , : , : : : : : ; ; = ; ; = ; o ; ; o ; o = o o O = o O o   o X O X o o O   o     X     o X                             X     PX",
"PX                                              .     O       O         .       .   .   .   . . . . . . . . . . . . . . . + . $ . $ # . + # $ + $ # + $ # $ # $ % % % % % & & % % & % & & & 5 % 3 5 3 5 e y e y y 5 y y y y y p p e y u . O * S T ,.2.v.v.b.nXnXnXMXnXVXVXnXVXnXVXnXVXMXnXMXnXnXnXmXn.S 4 0 4.m.m.r.G.~ Y U ! E W ! Q W Q ! Q Q Q ! Q O.! Q Q Q ~ Q Q O.~ O.O.~ O.Q * @ 9 <X+X+X{.[.[.{.{.{. X{.{.OX.X.X.XoXoXoXoX*X*X=X*X=X*X*X*X#X#X1XU <X>X>X>X1X:X:X:X-X*X=X*X=X*X*X*XoXoX.X.X.XXX{..X{.{..X{.$X$XU s * +.} @.} } +.@.+.@.@.+.@.} @.+.+.+.+.} +.+.@.+.+.+.+.+.+.+.+.O.X.+. .+.+.+.O. .+.+. . . .+.+. .{  . . . . .^ {  .[  . .[ Q I [ W W [  .[ I I P P P P P P B I B I N B N N N B b M N V b c b c c x x x z z x z k z l k l l k f < k u g g g 6 6 6 , < < , , < , , 1 , 1 : : ; : ; : ; : o ; ; ; o ; = o = O = = o o ; X o o o X o O X O . X   o     o     .   .             X               PX",
"PX                                                        .     . O   .     O     .   .   . . . . . O . . . . . + . + + . . # . + . + $ $ $ . # # $ $ # $ $ $ # # $ % % % % % % & & & & > 5 % 3 7 3 5 5 7 3 7 e 5 y 5 y y y y y p y y y . . 4 S T ,.2.v.b.mXnXnXnXnXnXMXnXVXVXVXVXMXVXnXVXnXVXnXnXmXm.S r 0 1.D.m.v.DXR ! ! ! Q ! W Q ! Q Q ! Q Q Q Q ! O.~ o.Q O.O.o.~ O.O.Q O.O.O.@ @ q 4X+X[.{.[.[.{.{.{.{.{.{..X X.X.XoXoXoXoX*X*X*X=X*X*X*X-XoX#X1XU +X#X>X:X>X>X:X-X-X*X*X=X*X*X*XoXoXoXoXoX.X.X.X.X{..X{.{.OX$XU 0 * @.@.} } } j.} @.@.@.@.@.+.+.@.@.} +.@.+.+.@.+.+.@.} +.+.X.+.+.+.+.+.+. .+. .+. . .X.+. . . . .O. . . . . .{  .{ [  . .[ [  . .[ [ W P P Q [ P P P I P P P N I V N B N B b b b M b b M b c b c b x x x x k z z z z l l l u l l u g u 6 6 6 6 g < , 6 < < , < < : , : : : : : : = : o o ; o ; ; o o ; # o = o o o o o o o o o o o o o o   o   o o     X   X   X     X                     PX",
"PX                                          O                                 . .   .     .   . .   . . . . . . . . . o + + . + + . + + . $ + $ $ $ $ $ $ $ % $ $ $ % % & % % % % & 3 % & & 3 & 3 3 7 y 3 5 y 7 y y y y p y p y i y y 5 . . r T >.,.2.n.mXmXnXnXnXMXVXVXVXVXVXVXVXMXVXVXMXMXMXMXMXmXm.S r 9 1.m.m.m.DX~ J Q U ! Q ! ! Q ! ! Q o.Q <.Q Q ! O.O.Q O.! Q ~ O.~ O.O.~ Q @ @ 0 <X+X+X[.[.{.{.{.{.{.{.{..X{..XoXoXoXoXoXoX*X=X=X*X=X*X-X#X#X1XU +X>X:X:X:X:X:X-X*X*X*X*X*X*XoXoXoXoX.X.X.X.X{.{. X{.{.{.|.$X^ 0 @ @.+.} } } @.@.@.@.@.+.@.+.@.@.} +.@.+.@.+.} +.+.} @.@.+.+.+.+.+.+.+.+.} X.+.+. .}  . .X.+. .{  . . .O. .{  . . . . .Q [ [ Q I  .I [ [ W [ P [ I [ I P P B I B I N B B B N N B b b N m b b c b x x x x z x z x z k l l l k u u l 6 g g 6 g < g < < < < , < , < : : , : : : ; = : = : : ; o ; = ; ; o o ; ; o o = o o O o o o X o   o   o   o   X . X                   X X               PX",
"PX                                                        . .   .     O   .       .   . .   . . . . . . O . . + + . . $ . . + + + + + . $ # $ . $ o # $ # % % # $ & % % % 3 % 3 > % 7 % & > 3 7 3 3 4 7 e y y y y y y y y y p y i y i y . . 4 S >.,.v.b.mXmXnXnXVXVXVXVXVXVXZXVXVXVXVXVXVXMXMXnXnXnXn.T 4 0 0.m.m.n.DX^ ^ J Q Q W ! Q ! W Q Q ! ~  .O.! O.Q ~ Q O.O.O.O.O.O.~ ~ O.O.@ + 0 <X+X X{.{.[. X{.{. X{. X{..XXXoXoXoXoX*X*X*X*X*X=X=X*XoXOX#X<X^ +X>X-X:X:X-X-X=X*X=X=X*X*X*X*XoXoXoXoXoX.X.X.X.X}..X{.{.OX<X^ 0 @ @.} @.*.} @.} @.@.@.} @.+.@.+.@.} @.} @.+.O.@.+.+.+.+.+.+.+.+.+.+.+.+.{ +.+.+.}  .+.}  .X. .+. .}  .{ O. . . . .[  . . .[ [  .[ [ W Q [ W [ I P I P P P I B P B P N B N B B b B M M b m V c x b b x x x z k k z l v z k l l l u k w 6 g 6 6 < 6 6 < < < < < : : , 1 , : : : : : : ; ; = : o # ; o ; ; o o o o o o o o o X o o . o O . X o   X .   X o   o   X X   .         X           PX",
"PX                                                        .       .       .   O     .   . . .   . . . . . . . . . . + . + . + + + + + % . $ # # + # % O % % % % % % % & % % 3 % % & & & > 3 & & > > 3 5 y y 7 e y y p y p y y t p y p i . . 4 T >.2.v.b.b.nXMXMXVXVXVXZXZXVXZXVXZXVXVXVXVXVXMXMXMXnXn.S * 0 m.D.m.m.DXR ! Y Q Q Q ! Q Q Q Q O.!  .Q Q Q  .Q Q o.Q o.~ o.~ O.O.O.O.O.@ @ 0 <X+X|.{.{.{.[.{.{. X{. X.X.X.XoXoXoXoXoX*X*X*X=X*X*X=X=X#X#X1XU ].>X-X-X-X-X-XoX*X*X=X*X=X*X*XoXoXoX.X.X.XOX.X{.{..X.X{.|.$X^ 0 @ @.+.} } } } @.} @.} @.@.@.+.+.} @.+.+.+.+.@.+.@.+.+.+.+.+.+.+.+.+.+.+. .+.} +. .} +. .}  .+. .{ {  .{  . . . . .{  . .[ Q [  .[ [ I | P [ W P P [ I B I I B I B I N N N N B b N V M M m M b m V b x z x x z z k x l l l l k u l < l g 6 g 6 6 6 6 , < < , < , , : < , , ; ; = : : ; o : = ; = # = = o o ; = = o o = = o o o o X o o X o X     o       o o       X       X               PX",
"PX                                              .           O   O   .   O   .   . .   . . . . . . . . . . . + + + . . + + . + . + + + + $ + $ $ % $ % $ O % % # % % % % % > % % 7 & & & & 5 > 5 5 3 5 5 e e e e y y e e y p p y i e e y . . 4 S >.,.v.b.nXnXMXMXVXVXZXZXZXCXCXVXZXZXZXVXVXVXVXVXnXnXn.T r 0 4.m.b.S.UX~ J Q U ! ! Q Q ! ! ! Q Q ! O.o.~ ~ o.~ O.Q ~ O.O.O.O.~ O.O.O.@ @ q 4X+X{.[.[.{.{.{.{..X{.{..X.X.X.XoXoXoXoX*X*X*X*X=X=X*X-XOX#X1X^ +X>X-X-X=X*X-X*X*X=X*X*X*X*XoXoXoXoXoXoX.X{..X.X.X{.{.{.OX$X} s @ @.} } } } @.@.@.@.@.&.@.@.@.@.@.+.@.@.@.+.+.@.+.@.+.+.+.@.+.+.+.+.+.+.+.+. .+.X.O.X.+.+.X. .} O.+.+.}  . .{  . .[  . . . . .[ W  . .Q [ | W I [ I P P P P B B I B N I N b B M B N N b M b b b m b x b x z x z x l z l z l l l l l u g g 6 6 6 6 6 , < , < , : , : , ; , , , : : = : : o : ; ; = o ; ; o o o o o o o O = o o o o o X o   . o o     o         .                 X         PX",
"PX                                              .     .   .       .     .           .   .   . . . . . + . . . . + . + . . $ + + + + + % $ # $ # $ $ + % $ % # % % % % % 3 % % 3 3 % & > 3 % & 5 4 5 7 3 e 7 y 5 y i y p y p y y i p i y . . * T T ,.n.b.nXnXMXMXVXZXCXZXCXCXCXCXCXVXZXVXVXVXVXVXMXnXm.S 4 0 D.m.m.m.DXy.K Q ! Q ! Q ! Q Q ! o.~ ! Q Q ~ Q ~ ~ o.O.o.Q O.~ O.O.O.Q ~ & @ q <X+X+X{.{.{.{.{.{.{.{.OX.X.X.XoXoXoXoX*X*X*X=X*X=X=X*X-XoX#X<XK ].:XoX=X-X*X*X*X*X=X=X*X*X*X*XoXoXoX.XoX.X.X.X.X{.OX{.{.OX+X^ s @ @.@.} } } } *.@.@.@.&.@.} @.@.+.@.@.+.@.+.@.@.} &.+.+.+.+.+.+.+.+.+.+.+.+.+.+.+.+.X.+. .}  . .X.X. . . .{ {  . . . . .[ [  . .W  .[ [ Q P [ [ I P P P P P I I P I I P B B B N N b N m V V b b m c x x z x z x z z l z l z l u l u l 6 6 6 g g 6 < 6 < < , , : : < , : 1 1 : ; : ; : ; : : o = # ; ; o = = o o = o o O o O = o X O X   o X o   o .   o     X   o X     X                 PX",
"PX                                  O                     O   .       O   O   O . . .   . . . . . . . . . . . + . . + + + + . + * + + + . $ # $ # $ % % # % % % % % % % 3 % % 3 % % 3 7 > 3 5 3 7 5 3 y y 5 y y 5 y p e p p t y i y y y . + r T ,.v.n.nXnXMXMXZXCXCXCXCXCXCXCXCXCXCXCXZXCXVXVXVXMXmXn.>.r e m.m.b.m.UXR ^ ! U ! Q ! Q ! Q Q ! Q O.~ Q o.O.Q Q O.O.~ O.~ O.O.~ O.O.O.* @ 0 <X+X|.{.[.{. X{.{.{..X{..XOX.X.XoXoXoXoX*X*X*X=X*X=X*X-XOX#X#XK ].:X*X*X*X*X*X*X=X*X*X*X*X*XoXoXoXoXoX.X.X X.X.X{..X.X{.$X@X^ s & @.@.j.} } &.j.@.@.@.} @.@.+.@.@.} @.@.+.@.} @.@.+.+.} @.+.+.+.+.+.+.+.+.X.+.+.+.}  .O.+.X.+.O.X. .}  . .^ }  .{  . . . . . .[  .I [ | [ [ Q Q [ | P P P B P I B B B N b I B b B N M N M m b m c b b x b x x v k v l l l z l l l l u g l 6 6 6 6 g , < < < > < < 1 , : , , : : ; : ; : = ; = : = ; o ; ; o = o o o = = o = X o o o o o X o   o   X o   X . X           X   X             PX",
"PX                                                  O O         .     . .     .   . . . . . + . . . + . . . + . + + + + + + + . $ + $ + + + % + % # $ # % % & % % % % % 4 & & & 3 % 5 & > 3 3 5 y y y 5 y y y y e y p i p e p p p w y y . . r T ,.v.n.b.MXMXVXZXCXCXAXCXAXCXCXSXAXCXCXZXZXZXZXVXVXnXmXZ r 9 D.m.m.m.DXy.~ W ! Q Q ! Q ~ Q Q ~ o.Q ! O.~ o.~ Q O.O.O.O.O.O.~ O.O.O.~ @ @ e <X+X{. X[.{.{.{.{. X{..X.X.X.XXXoXoXoXoX*X*X&X*X*X=X*X*XOX#X<XU ].OXoX=X*X*X*X*X=X*X*X*X*X*XoXoXoXoX.X.X.X.X.XOX.X{.{. XOX$X*.q @ +.} @.} } } @.} @.@.@.@.} @.} &.} } @.@.} @.@.+.@.@.} @.+.+.@.+.+.+.+.+.} X.+.+.+.+.+.+.} O.X.+.X.X.{ +. .}  . . . . . .{  . .[  . .[ Q Q [ [ W Q P P P W P B P I B P B B I N B M M b N M b M M c c c z x x z z x z l z l l k l l u l w < l < l g < < < < < : , < > , , : : : ; ; : : = : = : = = ; o ; : o = o = o o o o o O = X o o X   o o X   o X .     o   o             X       X PX",
"PX                                                        O O     .   .   . .   .   .   . . . . . . . . O + + O O + + O + . . $ + + o $ + % % O % % $ $ $ % % % & % & & & > 4 7 % & 3 > & 5 5 5 y y 3 y y y e 5 p y p e p i y i p y i y . . 4 S >.n.b.MXMXMXZXZXCXCXSXCXSXCXSXCXAXCXAXZXZXZXZXMXMXmXmX>.r q m.m.mXm.UXR ! ^ ! Q ! Q Q Q Q ! Q Q ~ o.Q o.O.~ O.~ ~ O.1.O.O.@.O.~ O.O.@ @ 0 <X+X$X{.{.{.{.{..X{..X.X X.XXX.XoXoXoXoXoX*X=X=X*X*X*X-XOX#X1XU j.:X-X*X*X*X*X*X*X*X*X*X*XoXoXoXoXoX.X.XoX{..X.X{..X{.OX|.$X^ q 0 +.@.j.} @.j.j.&.j.&.@.&.@.@.@.} @.@.@.@.@.&.@.@.+.@.&.+.@.@.+.@.+.} +.+.+.+.+.+.+. .+. . .+.+. .+.O.+. . . .{  . .{  .+. . .[  .Q [ | [ [ Q | [ [ [ [ | B | I P P N I B N N N N N B N b M b c b b c b c b x z x z z x l x l z l l k g l l g g < < 6 < < < , < < , : , , : : : : : ; = : ; O = ; : o ; o o ; # o = O ; o o o o o o o X o o X   o o     o X   X       X   X   X           PX",
"PX                                            O           . O       .     .   .   . . . . . . O . + . + O . . + + + + + + + + . + O $ $ $ + $ # % O % # % + % % $ % % 7 $ 7 & % % 5 & 5 5 3 5 5 5 5 y 5 5 y i 7 p e y p p t p i t i i i O $ r >.,.n.b.nXMXZXZXAXSXSXCXSXSXCXSXCXAXAXAXCXZXZXZXZXVXnXm.S r r 0.m.m.b.KX1.~ Q Q E ! Q ! o.Q  .Q O.1.Q ~ o.~ o.O.~ O.O.~ O.~ @.~ @.O.1.@ + 0 <X+X|.[.{.{.{.{.{.{..X{.{..X.X.XoX.XoXOXoX*X*X*X*X*X*X#XOX#X<XU x.#X*X*X*X*X*X*X*X*X*X*X*XoXoXoXoX.XoX.X.X.XOX{..X{..X{.$X$X*.s w +.@.&.} @.} @.} @.@.@.&.j.+.@.@.j.@.@.+.@.} @.&.&.} @.} +.+.+.@.+.&.+.+.+.+.+.+.+.+.+.+.X.+.+. . .+.+. .+. . . . . .{  . . . .[  .Q  .[ [ [ [ Q [ W W P W B P P P P P N N N N N M N M N b M M M c b c x x x x x z z l z k l l l l l l u l w g < 6 < < 6 < < < < , , : < 1 : : ; : ; = : ; ; : o ; : ; o ; o ; o = o = o = o o o o o . o X X X o   o     o     X       X                 PX",
"PX                                              .     O O       .     . .   .   .   .     . . . . . . . + + . . + O + + + . + + $ + o $ # $ # $ # $ $ $ % % % % & & 4 % 3 & & 7 & 3 > & 7 3 5 3 y e e y e y y i y p y i y p p e i a i r O O r S ,.n.nXMXMXZXAXAXSXAXSXSXSXSXSXAXSXAXAXCXCXZXZXVXMXnXqX>.r r G.m.m.m.DXr.J U ! ~ Q ! Q ~ Q 1.Q <.O.Q O.~ O.~ o.O.~ O.O.O.~ @.@.~ O.@.@ O 9 <X@X|.{.{.{.{.{.{. X{..X.X.X.XoX.XoXoXoXoXoXoX*X*X*X*X-XOX#X<XU j.:X-X*X*X*X*X*X=X*X*X*XoXoXoXoXoXoXoX.X.X.X.X.X.X.X}.{.{.@Xj.U * @.@.j.@.*.} } @.@.*.@.} @.@.} } &.@.&.@.@.@.@.} } @.+.@.} @.&.} @.+.+.} +.+.&.+.+.+.+.+. .+.+.}  .+. .+.{ X.}  .X. . . .{  . .[ { [ [ Q Q [ | [ | W P | [ P P P I B N P P N N N N N N M M M b b M c b x b x x z x k x x v l l u k l l l u l < l g 6 < < < < < , < , : : , , : : : : : ; : ; = : ; = o ; o ; o = o = o o o o o X o X o X o . o X .   o     X .     o       . X X         PX",
"PX                            O                     .   O   .   .     .   .   .   . . . . . . + . + O . . . O + $ O + O . + . + + + # % $ $ $ # % % % $ % % % % % % & & & 4 & % & & 5 3 5 & 5 3 y y 5 y i 7 e i y p y y p p i t a i t i + + r T ,.n.nXMXMXZXAXAXAXSXSXSXSXSXSXSXCXAXCXCXCXZXZXVXVXnXn.T r r G.n.m.S.DX~ ^ ^ ! ! ! o.~ Q ! Q ! ~ Q Q 1.O.Q O.o.~ O.O.O.O.@.~ @.} O.O.r + q <X+X{.{.{.{.{.{.{.{.OX{..X.X.X.XoX.XoXoXoXoXoX*X*X*XoXoX#X$X<XU j.#X=X-X*X*X*X*X*X*X*X*X*XoXoXoXoXoX.X.X.X{..X.X{.OX{.{.$X$X].U s O.@.&.j.} j.@.} @.&.j.+.@.@.*.@.@.@.} *.@.@.&.@.@.@.+.@.@.&.@.} +.@.+.@.@.+.+.+.+.+.+.+.+.+.+.+.O.+.+. .X. .+. . .{  . . . . . . . . .| [ Q [ Q [ [ P [ P P B W [ P P B B I N N D N N M b M M b m c c x b b z x x k x l l z l l z k u < u l l < g < 6 6 , < , < , < : : , , : , ; : : ; ; : : O : = ; o ; o ; O = = o = o o o o o o X . o o   . X   o             X o                 X PX",
"PX                                                          O       .   .   .   .   . . . . O . . . + . . + . + . O + + + $ + $ # + + O $ o $ $ % % % $ % % % % 7 % 4 & & 7 & 3 3 > 3 > > y 5 y 3 5 y y 5 i 7 i i y i p i i p y i i i e + + 4 T ,.n.nXMXZXAXSXAXSXSXSXSXSXSXSXSXSXAXSXAXCXZXZXZXMXMXmXS r r m.m.b.b.KX~ Q ! ~ ! Q ! Q ! o.~ o.o.~ o.O.O.o.~ O.~ 1.O.O.O.^ O.@.~ @.~ @ @ q 4X$X|.{.{.{.{.{..X{..X.X.X{..XoX.X.XoXoXoXoXoXoXoX*X-XoXOX#X<X^ j.#XoX*X*X*X*X*X*X*XoXoXoXoXoXoX.X.X.X.X.XXX{.OX{.{..X{.OX$X].U 9 @.&.} } } @.*.@.j.} &.@.@.@.&.@.@.*.@.@.&.@.*.@.} @.@.} } } &.} +.@.@.+.+.+.+.+.+.+.+.+.+.+.X.+.} { +. . .} { +. .+. . . . .{  .{  .|  . .[  .[ [ W [ Q W [ W | D P P P P I B B N B M N N N M M M b b c c x x z b x x x x l l x l l l k l u < g 6 g < 6 6 < < < < , < , : : : : , ; ; : ; ; = : = # ; ; o = # = = o o o o o o o X o o o X   o X   o   o o     o         X X   X         PX",
"PX                                            O O         .   O .     .   .   .   . .   . . . . . . . + . + . + + + $ . # + o + $ + + $ $ $ $ # $ # % % % $ & % & & 7 $ & 3 3 & 3 & y & e y > y y 5 5 y y 5 i y y p t p p p p p i p i p . + r T ,.b.nXMXZXAXAXSXSXSXSXSXSXSXSXSXSXSXCXAXCXCXZXZXMXnXm.>.r r m.m.S.m.DXy.^ ! ! ~ Q Q Q  .~ Q Q ~ ~ o.~ ! ~ O.1.O.~ @.1.@.O.O.~ @.O.O.@ @ q <X$XOX{.{.{.{.{. X{.{. X.X.X X.XoXoXoXoX.XoXoXoX*X*XoXoXOX#X<XU j.-X=X-X*X*X*X*X*X=XoX*XoXoXoX.XoX.X.XoX.X.X.XOX.X{.{..XOX$Xx.U 0 O.@.@.j.j.@.j.@.@.@.j.} &.@.@.&.} @.&.} j.@.@.@.&.@.@.} @.@.@.@.&.@.+.@.@.+.} @.+.@.+.+.+.} }  .X.+.{ } }  .+. . . .}  . .{  . . . .[  .| [ W  .[ W | [ | P W B [ P P B P V I N I N N N b b M b b m M c c b x x z z l z l x x z k l l u l < l < < g 6 < 6 , , < < , < , , 1 : : : ; : : ; : : = = ; = o : o o = # o o = o o o o o X o X X o . X o   o     o X     .         X           PX",
"PX                                                    .     .     . .   .   .   .   . . . . . . . . + O . . + O + $ . $ . $ + + $ + # $ # # $ $ $ $ % $ % % % % % % % & & 7 & & & > & 5 5 & 3 y y y y y y y y y p y i p y y p i i y p y + O r T ,.mXS.MXAXAXSXSXSXSXSXSXSXSXSXSXSXAXSXAXAXCXCXZXZXMXmXT r r G.m.nXm.UXR U ^ ! Q ~ Q ! 1.Q Q o.~ o.~ O.O.O.O.O.O.O.~ @.~ j.~ @.@.~ O.@ @ r <X+X|.{. X{.{.{.{..X{..X{..X.X.XoX.X.XoXoXoXoXoXoXoXoX#XOX$X<XH j.,X*X*X*X*X*X*X*X*X*XoXoXoXoXoXoX.X.X.XXX.X{.}.{.OX{.{.$X@Xj.s @  .j.@.*.} *.@.@.j.@.} @.@.j.j.} @.@.j.@.} @.} @.} } @.} &.@.@.} } @.+.@.&.} +.+.+.@.+.+.+.+.X.} O.+.+.+. .X. .}  .}  .{  . .{  . . . . .[ Q |  .| [ P W [ P [ P P P P P P P N B N N N M M M M M M b b c b b z x x x x x x l l l l l l l l l g g g g < 6 g < < < < < < : , , : 1 , , ; : : : = : : = = ; o = = = # = o o o o o o o X o o o o X o   o   o     X . X     o X     X         PX",
"PX                                      .       . O     .   .   .   .     . .   . . . . . . O . + + . + . + + + + + + + + $ # $ o $ . $ # $ # % % $ % % % & % % 4 & 3 7 3 & 3 3 3 5 3 5 5 y 5 5 3 y y y y y i i i i p y p i p p p i A y . $ r T ,.b.MXZXBXAXSXSXSXSXSXSXSXSXSXSXSXSXAXAXCXCXZXZXCXnXmX>.r r D.m.S.m.KX,.~ ! ~ ~ ! Q Q Q ~ o.~ Q 1.O.O.O.O.~ ~ @.1.@.O.O.@.^ y.@.y.@.* @ q <X$X$X{.{.{.{.{.{..X{.{..X{..X.XoX.XoXoXoX.XoXoXoXoXoXOXOX$X<XU j.#X-XoX*X*X=X*XoX-XoXoXoXoXoXoXoX.X.X.X.XOX}.}.}.OX{.$X$X3XH 9 @  .j.} j.} } } } } } &.j.@.j.j.@.} &.+.} j.+.@.&.j.+.*.@.@.&.@.@.@.+.} @.} &.@.} @.+.+.+.+.} &.+.} +.X.} X.{ }  .{  . .} { O. . . . . . . .{ |  .[ | W [ I I [ P I P B W B P B P N N D N B M M M M b b c b b c c x x l x x k l x z l l l l u l g < g g < 6 6 < < < , : 1 , , : 1 : : ; : ; : : ; ; # ; ; o ; ; o ; o = o ; o = o o o o o   o o   o   o   X .   X                         PX",
"PX                                                  .     .   .   .   . . O   . .   . . . . . + . . . . . O O + + O $ O . $ $ . $ + # $ $ $ % % % % % % $ & 4 % & & & 4 3 3 3 5 5 & 3 5 & e 5 y y y y 5 y y i 6 i 7 p i i p i p i i i y . O r T 2.b.nXBXAXAXSXSXSXSXSXSXSXSXSXSXSXAXAXAXAXCXAXZXVXmXn.S r r G.n.nXm.DXR ^ U Q Q ~ Q ~ Q Q ~ o.~  .~ O.1.O.O.O.~ ~ O.~ O.~ } O.@.~ @.9 * q <X$X|.{.{.}.{.{.{.{..X{..X.XOX.X.X.X.XoXoXoXoXOXoXoXoXOX#X$X<XU j.#X:XOX:X-X#X-X-XOX-XOX#XOX#X#XOX#XOXOX$X|.#XOX$X|.@X$X3Xs 0 @ @ { @.} } j.} } j.} } } @.} &.&.*.@.j.*.@.&.*.@.} @.} @.&.@.*.@.@.} @.@.@.@.} +.&.} +.+.} +.+.+.+.+.+.+.} +.+.}  .+. . .{ O.{ {  .{  .X.|  .|  .| I  .| | [ | P | | W P I P P P P B N N N F N M b M M M c c c x x b x c x z x z k l l l z l l u g l < g < 6 < < g < < < < < : , : , : : : : : ; ; ; : # = ; o o ; o ; o o o o o X o o o X o o X o   o   o   X . X . X   o   X X   X     X PX",
"PX                                          O         .     .   .   .   .   . .   .   O . . O . . . + . + + . $ + $ + O . $ # $ $ $ $ # # % % # $ % & $ % 7 % % & & & 3 3 5 3 5 5 & 5 3 e > > e 5 y y y 5 y y u y i p p p a p p i p i i O + 4 T m.nXMXZXAXAXSXSXSXSXSXSXSXSXSXSXSXSXAXAXCXCXCXZXVXmXm.T r r G.m.mXS.DX~ R U ^ E ~ Q Q Q Q ~ o.Q ~ O.~ O.~ O.O.O.@.O.~ } @.@.y.@.O.O.9 9 q <X+X|.{.}.{.}.{..X}.}..XOX.X.X.X.XoX.X.X.XoXoXOXoXoXoX#X1X<X<XU j.1X@X1X#X>X#X1X#X1X>X#X>X#X#X1X#X#X#X<X$X$X$X<X$X$X+X<X4Xq @ 3 +  .} } *.} j.*.} } j.j.} @.*.} @.*.@.@.j.@.@.} @.} &.@.} &.@.*.&.j.&.} &.@.@.} } +.} +.} +.} +.+.+.} +.X.{ } +. .+. .+. .{  .} [  . . .[  . .[  . .[ W [  .I I P I [ [ W P N W B D I N N B M M N M b M b b c c x x k x x x l x k l z l u z u l l l < u g g < 6 6 < , , < : < 1 , , ; ; : ; : : ; ; : : o ; o ; o o = ; o = o o o o o o o X o X o O X   o o   o   .     o   o X           PX",
"PX                        O                     . O     .     .   .   .   .     . . . . . . + . . + O + . $ . o O . # $ # + $ . + . # $ $ $ % $ % % % % % % 4 & % 3 & 3 3 3 3 3 & 3 5 5 > y y e y y y y i 7 i i p y p i i p p i a a i y . O r T ,.nXMXBXAXAXSXAXSXSXSXSXSXSXSXSXAXAXAXAXCXZXZXMXMXnXn.T r r 4.m.DXm.DXR ^ Q ^ Q Q Q ~ ~ ~ Q ~ O.Q O.O.O.~ O.~ @.~ @.@.~ ^ ^ y.O.y.O.@ 9 0 <X+X|.|.{.{.{.{.{.{.{.{.{..X{..X.XOXoXoXoXOXOXOXoXOX#X#XK K s 0 s U ^ *.U U U U U U U U K U U K K K U K U U K H U U U w w + * O O @.*.j.} *.*.*.j.*.} } *.} } *.j.@.} *.&.} } &.} } j.} @.j.*.@.@.} } } } } } } &.} } } +.} +.} } } X.+.} +.X.{ } { } }  .+.O. . . .}  . . .[  .|  .[  .[ [ [ [ | [ P ( W P P P B B B D N D N N b M B M M c b b x b x c x x z x l l k l l l l g < l g g g 6 6 < < < < : < : , : , , : : ; : : ; : ; = = : = ; o = ; o O # = o o o o o o o o   . o X o o   O o   X   X           X         PX",
"PX                              O                   .     . .   .     .   .   .   . . O . . . + + . + + . . + O + $ . $ # $ + $ # $ # $ $ $ $ % % % $ % & % 7 & 3 3 & & 3 3 3 3 5 5 & e e w y 5 y y y y y p i u p i i p i p p p a s p y O . r T v.S.ZXAXBXAXAXAXAXSXSXAXSXSXSXAXAXZXCXZXZXVXVXVXMXmXm.S 0 r m.m.nXm.DX^ ! U ~ W Q Q ~ Q ~ Q O.~ ~ O.~ O.~ @.~ ^ ~ @.@.~ y.y.} ~ @.~ 9 @ r <X+X$X{.{.}.}.}.{.{.}.}.{.}..XOX.X.XoXoX.XoXOXOXOXOX#X1XH w s w 0 s s s s U s s s s s s s s s s s 0 s s s 0 s s 0 0 w w * + . . # +.} } *.} *.*.*.j.} *.*.} *.*.@.j.*.} *.j.@.j.+.} } *.@.@.@.*.} } } } +.} &.} +.} &.+.} } &.} } +.} +.} X.} }  .{ +.{ X.+.{  .{ O.{  . . .[  . .[ |  .[ W I P | [ P W W P B P B B W B F N D N N M M M b M m x b b x x x x x x l k x l u l l l l < l < g < 6 < < < < < < , 1 , , : : , ; ; , ; ; = : : o o ; ; o # = = = o = o o o o o o o X o   o     o   . X       X   X     X   X   X PX",
"PX                                          .   .       .     .   . .     . . .   . . . . . . + + . O . . $ O + $ + $ # $ . # $ + # # $ $ # $ % % % & 7 4 % & % % 3 4 7 3 3 5 3 3 5 e > 5 y y y y y y y y u u i p p p p z i p a p i A A . + * T ,.n.nXS.MXMXMXZXZXZXZXVXAXCXVXMXMXMXnXMXnXnXnXmXmXm.4.S * r Y DXS.S.DXR R Q Q Q ~ Q Q ^ O.Q ~ Q O.~ ~ O.O.~ O.O.O.O.^ @.@.O.y.} @.~ 0 @ 9 4X+X$X$X|.$XOXOX$X$XOX$XOXOX#XOX#X#XOXOXOX#X#X#XOX#X@Xj.9 0 * * # # w ; w @ # @ * # ; * @ ; # # * @ @ @ # + @ e % + + + + . . . * +.j.j.*.j.} j.} *.*.@.j.*.} @.*.*.&.} &.*.} *.*.&.*.} } *.} } &.} } *.} } *.*.#.} } } } } +.X.} } X.+.} } X.X.+.}  .}  .+.O.X. .{  . . .{  .|  .[  .|  .[ | | [ W P [ D W P W B W B I D N B M N M M M b c b b m x x x c x x v x z l v z l l l g l g l g l < g g < < < < < < : : 1 : ; , , ; : : : = : ; : o ; = ; o o = = = o o = o o o o o o o . o . X o   . X o     .   .             PX",
"PX                                                    .     .     .   . . .     . O . . . . . O . . . + + . $ + . . $ $ + + $ $ $ $ $ # # % % $ & % % % % & & & 3 3 & 3 3 3 5 5 e & y e y 5 y 5 5 y y 7 y 7 y p i v i p A p p z a A i 7 . . 4 S >.2.n.b.m.mXnXnXS.mXnXnXnXnXmXmXnXb.mXb.m.n.b.n.n.2.1.r O + r DXmXm.DXy.^ ~ Y ~ ~ Q ~ Q Q ~ ~ O.Q ~ O.~ O.O.O.O.O.~ @.~ O.@.} ~ ~ j.@ @ 9 4X+X+X+X+X+X$X+X$X$X$X<X$X$X$X$X#X#X<X$X<X#X#X#X1X$X<X} w * 1 & # # @ 0 + @ 0 @ @ w @ * * * * @ @ * * + * @ . 2 4 $ 2 % . . & . @ } *.} *.*.} *.} j.*.} *.*.j.*.*.*.j.*.*.*.*.} *.j.} *.} *.} } } *.} } *.} } } } } } &.*.} } } } } X.X.} +.} } X.X.} { +.{ } X. .{  . . .{  . .[  .[ | [  .[ I [ P | D [ [ D B W W B N D N N B N M M M M b M x m b x x x x x x k x l l z l l l g g l g 6 g 6 6 6 g < < < < , < : < , , : : ; ; ; : : ; = # = o ; o = = # o O o o o o o o X X o o O   X o O o X       X o     X           PX",
"PX                                    O   .     O   .     .   . .   .   .   . . .   . . O + + . . + + . + O . + $ $ $ O $ # $ o # # # $ % % % % $ % 4 % % 7 & 4 3 & 3 & 5 3 3 3 > e & y y y y y y y i i i i p p p i i i i i i i a A i i . . . r r T T T R >.R ,.,.1.,.R >.>.>.<.T >.T T >.T T S >.T 4 2 4 O 2 T 0.m.DXT R Q E ~ Q Q Q ~ Q Q Q ~ O.o.~ O.~ O.~ ~ ^ @.~ @.^ ^ y.} @.O.@ + @ K U U U K U U U U K U U U U U U U ^ K U U K U U K U K s @ & @ @ @ b n n E E n N E I E E F N E F F F E E F F F F F F F F F F Q o.U } j.j.*.j.j.*.} } *.} *.} +.@.*.@.} } @.@.*.} &.} } &.} @.} } &.} &.+.+.} } } +.} +.} +.} +.#.+.+.} +.} { +.{ } }  .+.X. . .+.X. . . .X.|  . . . . . .[ W P  .| | [ P | W I W P B D W N N M N N N M M b m b m b M x c c x z x l z k z l l l l u l g l 6 g 6 g < < < , < < , : < 1 , 1 : ; , : ; ; ; ; : = ; ; o ; o # = o = = o o o O = o o o X X o . X X     o o         X   X   X X   PX",
"PX                                            . .     .     . . . . . .   . . . . . . + O + + O + O . + O + $ . + $ O $ o $ $ % # $ $ # $ % % % % % & % % 4 & 3 w & e & 3 3 5 5 & e & y e w y y y y 7 i i 7 i i p A i a i n i i i A A y .   . + * r r r r t S Y S J t S S S t S t S r S r r r r r r + O O O 4 r 1.1.UXT Q ! ! ! ! Q Q Q ! Q Q Q ~ O.1.o.Q O.1.O.1.O.O.1.O.@.~ @.@.O.0 + + @ @ q 0 q 0 q q q 0 9 q 0 s 0 s 0 s 0 q s 0 0 s 0 s q s . . # @ * I I s a n U s s n a z s n a n a a n Z n F F F F F F F F n p s 4Xj.} } } } @.@.@.@.&.} @.@.@.} @.@.&.@.j.@.&.@.@.&.j.@.&.@.@.&.@.@.@.&.+.&.@.+.@.&.@.&.+.+.+.&.@.&.O.+.+.o.+.+.o.+.X.o.o.O.o.X.X.o.X. .o. .X. . .[  .[ [ [  .P | | [ P P P P P B W B B D N B D D M M M b M M c x b c x x x x x x x l l z z k l l u l l 6 g 6 6 6 6 7 < < < , : , : , , , 1 , , ; ; ; : ; ; # = ; = # ; o = o o o o o o o o o o . X o X O o   X . X     X X     X         PX",
"PX                        O                 O     .     . .       .   . . . . . . . . . + . . + + + + + . + + O + o $ + $ $ $ % % # $ $ # % O % 4 % & 7 % & & 3 * & & e > > 3 & 5 > 5 5 y e y y y y y i u i l i p p p i i i a a i A i 5 . .   . $ * r 0 r r r t r r S t r r r r S r r r r S r r r 4 * $ $ O O $ 9 0 9 9 @ @ @ + + . + + + $ + + $ + + @ @ @ # + . . @ @ @ 9 9 D.O.O.9 + + @ 0 0 s s q s s U s U s U s s s U H U U K U U s U U O.U 0 + * 0 U 4XG.s s 0 0 w 0 s 0 0 0 0 w 0 0 w 0 0 e 3 3 w & 4 & 4 8 @ p k  .*.j.} 3XH 0 w s * 1 w w w s w w w w : < w w w w 1 < 1 w w w w w * w w * ; ; # w * * # & # 1 & ; & > ; 1 1 1 * 1 * ; 1 1 1 ; ; 1 * # # O 1 V  . . .[  .[ [  .| Q W [ P [ W [ P B ( W D P N N N N N M M M b M m b c c M x x x x x l x l l l l l l u l g 6 6 g 6 g 6 6 < < < < < < < < , : : ; ; ; , ; = ; = ; ; o ; = o ; o ; = = o o o o o o X o o o . o   o   X X X   .     X X         PX",
"PX                                    .   .       . .     . . . . .   . . . . . . . . O . . . + . + + O + + + + O $ + $ $ O $ O $ $ $ # % % % % % % % % 7 & & $ e * e > 3 5 > e 5 3 > e e y y e y y y y i i u i i p i z a i p i a a i i . . O 4 r r S S t T T T T >.T T T >.T T >.>.T >.T T T T S S r 4 .   2   O . . . + + . . . . . X . . . . . . . . . . .   . + @ . + @ 9 w.1.O.9 @ 9 s ^ j.^ } } y.} ^ y.} } j.^ j.} j.j.j.j.j.j.j.j.j.j.j.j.0 @ + w Q Q V w @ w * 0 9 * * @ @ # * # @ @ @ @ + $ + . + + + 4 . * + # s } } j.P 9 9 * # # + # ; # # * # # # # ; # # # ; # # ; * # # 1 # # ; # ; ; # + # # # # # # # ; # # # @ + + # # @ + ; # + # @ + o o . + #   ; Q o. . .| [ [  .[ Q [ P | [ [ D D W W ( I N B I N N B M M b b M V b c b b c x x l x v k x l l l l l l l 6 l l g 6 6 < < < < < < < , : : 1 : ; , ; , , ; : = ; ; o ; = = ; o o o o o o o o o o o o o o X X X o   X o X O X     X       X   X PX",
"PX              O                           .         .     .     . . O . . . O . O . . + . . + + O . + + O + $ . $ + $ # % $ $ $ # $ $ % % % % % % 4 % & & & & * e & & y & y & & 5 y > e y e y u p u y i y p i p i i i i a A a A i i y . . $ r T T >.,.m.n.mXm.b.S.mXmXnXm.b.nXm.mXb.m.b.n.b.n.n.m.>.r r O O O O 4 $ O + + . . . . O O O + O + + O . + O + O . . . .   > w @ 0 Q O.9 @ 9 G.+X+X$X+X[.[.$X|.[.$X|.$X|.$X|.$X$X X$XOXOX$XOX$XOX$X3Xs @ @ s UX0 @ @ * + + @ + 0 @ 9 @ 9 9 @ @ @ @ 9 @ @ + @ + @ * O . $ + @ . } j.* * @ n + + + * * * # # # * # * # * 0 ; * 0 ; * # * # * 0 # * # # + 1 # # # @ ; * # * # # * 1 * 1 * ; 1 * 1 # * # ; + + # . . . . o   . ! Q o.o.| [  .[  .[ [ [ P W [ W [ W B W D I B D B B N M M M M M b M b c m x x x x x z x l x z k k k u l l g 6 6 g 6 g < 6 < < < < : , 1 , : , : 1 ; ; ; # : ; ; # ; # = o ; = = # = = o o o o o o X o o X .   o X   o   X .   X   X         PX",
"PX                                      .       .     . .   . . .   . . . . . . . . . . . O + . + . + + + O + O $ + O $ $ + % $ $ $ $ # # % % % 7 & & % 4 & & & & e & e > 3 y 5 y y & y y y y y y y i y p i p p i i i i A i a a a i i p + + 4 S T ,.v.v.m.m.b.nXmXS.nXS.MXS.nXnXnXnXm.mXnXb.nXmXb.n.mX>.i 4 2 2 4 r 4 r r 3 r r & 4 4 4 4 4 4 2 4 4 4 4 4 4 O 4 4 4 . . v A % . a O.0 @ H UXx.$X[.|.|.|.|.|.|.|.OX|.OX}.{.|.OX|.|.OXOX}.}.OXOX$X<Xq 0 * 4XKX# * w * + @ 0 q q q q q q q q q q q q q 0 q 9 0 q 0 0 @ . 5 w # @.&.# + ; u w * # # 0 w # 0 w w 0 w w 0 w 0 w s w w w w w w w w w w * # = # # w 1 0 w w w u w 1 w w w w w w w w w s w 0 % # + # 1 + o > v # 7.o. .o.|  .[ [  .[ | | [ W ( W | B W B B B W B B B N B M M M b M c b c c c c x x x x x x l l z l l u l g g l 6 6 g 6 6 < 6 < , , : < , , : , : : ; , = ; : = O ; = = ; ; ; o ; = o o o o o o o o X o   o o   o o   X o     o   X     X     PX",
"PX                                            O   .         . . . . . . . . . . . . + O . + + + . + + O + + + + $ + o $ $ % O % $ o # $ $ % % % O & $ 7 7 & & & & & & > y & & 5 5 5 & y y y y y y i y i y i i p v i A z z i A i i a p p . + r T >.v.nXS.ZXAXAXBXAXAXAXAXAXZXCXZXZXZXAXZXMXVXMXMXnXnXmXm.m.r 4 4 5.>.1.>.>.>.>.>.>.>.>.>.>.>.>.>.>.T T T >.T >.T T T 4 $ 2 O   . + a * @ q 4Xx.x.|.x.x.}.|.|.|.{.|.|.|.|.}.}.}.}..X}.}.}.{.}.{.$X+X0 @ 0 UX2 * . % . @ 0 K ~ R r.R R r.R R r.R ~ r.R y.R R R ,.R T 0 + # o . [ G.o # # > . @ V 4X4X3X3X<X<X3X3X3X3X3X3X3X3X3X3X3X3X3X3X3X3X3X3X3X4Xs < 4X3X3X3X3X3X3X3X3X3X3X3X3X3X3X3X3X3X3X3X3X3X3X<X3X3X4X@.# &   o   ; b  . . .[  . . .[ | | | | W | | W B P W W B B P N B B M M M N M M M b c b x x x x x l l x x l l l l l l 6 6 g g 6 g 6 g 6 < < , < < < : 1 , ; : : ; , = : ; : # = # = = o ; o o ; # = = o o X o o o o o     o X X X   o   o     X       X PX",
"PX                          O       O             . .     .   . . . . . . . . O . . . . . . + . . + + . $ + + + O $ $ $ O % O % $ $ % $ $ % % $ % % & & & & & & & e e & > e 5 & e > y y y e y y y i i y i 7 i A i i i i a A i A i A i p + + r T ,.m.MXBXAXBXAXAXAXSXAXSXAXAXAXAXAXAXAXCXZXZXVXVXVXMXnXn.4.S r S 4.m.2.4.1.1.,.,.5.,.>.,.>.>.>.,.>.>.>.>.>.>.>.>.>.T r 4 O % . . @ n @ 0 q 4X+X+Xx.x.|.x.|.|.|.|.}.{.{.}.}.}.}.}.{.}.{.}.}..X{.|.<Xs @ @ UXz $ . . 9 @ t m.u.c.c.u.c.u.c.c.c.f.c.t.u.c.t.c.c.r.r.R H @ * + + n w.# + ; . : + X.3X<X<X@X@X@X#X,X,X#X,X,X>X,X#X#X,X@X,X,X@X#X@X@X3XKXs w KX3X@X#X#X#X,X,X@X,X,X,X:X,X,X,X,X@X@X,X@X@X@X@X@X<X<XG.1 @ + X ; o k o.W  .{  .| [ I | Q | | | W P [ D | | B W B B N N M B M V b b M M c b c c x x z x x x z x l z l z k g l l g 6 g g < 6 g g , < < < < , : , : ; 1 ; : ; ; ; ; ; ; o ; ; o o = o o # = o = o = o o o o   o o   X   o   .       X           PX",
"PX                                        .   .       . .   . . . .   . . . . . . . . . + O . + + + O + . $ . % O + + + + % # $ o $ # $ $ % % & 7 & % 4 & & 4 & & & & w 5 & y y 5 e > y e i y y y y p y i i u i z z i A i i a a a n i p + @ r T ,.m.MXMXAXBXAXAXSXSXSXSXSXSXSXSXAXAXAXAXCXCXCXCXZXVXMXmXmXT 4 S m.2.2.,.,.,.,.,.2.,.2.,.,.,.>.,.,.>.,.>.>.>.>.>.>.>.t r O   . . + a + @ q <Xx.|.}.|.|.|.|.|.|.|.|.{.{.}.}.|.OX}.}.}.}.}.{.}.{.OX+Xs @ @ UXD # % * @ q H u.c.t.N.N.N.N.f.N.f.f.f.N.t.N.c.c.t.c.t.r.L q + @ # J w.+ # # . # # j.<X@X X X+X X X XXXXXXX XXX&X-XXX&X-XXX-XXX&X&X&X@X<XU s 3X@X#X,XXXXXXX&X XXX X XXXXXXX X X XXX%X X X X[. X@X].].s * + #   = s  .{ { [ Q  .{  . .| W [ P [ P P W B W B D B W B N N N N M M M M c V V c c x c x x z x k k z l l l u l l 6 6 l 6 < g 6 6 < < : , < : : 1 : , , : , ; : : ; ; ; ; ; ; o = = # = o = o o o o o o X o o o X o o o   X o X X   o   X   X     PX",
"PX                  O                     O         .   .   . . . . . .   . . . . . . . . + + . + O + + O + + + $ $ O $ $ $ $ $ $ $ $ $ # % % % 3 % 3 3 & 3 3 & & e 3 3 5 5 y 3 y y e e i e 7 i p y i p p u i i i n A a A i i n A a a y + $ r T ,.n.S.ZXBXAXAXSXSXSXSXSXSXSXSXSXSXAXSXAXAXCXCXCXCXZXVXmXmXS S r T >.,.T ,.>.,.,.,.2.2.,.2.,.2.2.,.>.,.,.,.,.,.,.>.>.5.T $ . . + @ E 0 @ q 4Xx.x.x.|.x.|.|.|.|.|.|.}.{.{.{.}.}.}.}.}.}.{.}.}.}.|.+Xs 0 9 4X9 + * @ q q L u.N.N.M.f.M.M.M.f.M.M.M.M.t.f.N.M.t.N.t.c.y.q @ @ @ 0 W # . * + # s 4X X X X X X X XXXXXXXXXXX&X&X&XXXXX&XoX&XXXXXXXXX#X@X} s 3X@XXXXXXXXXXXXXXX&XXX&XXXXX X&X,X XXX X X X X X X X@X@XV 0 * # = # ; X.{ [ {  . . .[ | W | | | [ | P D W W ( B W B B B N N B M M M b M b m b x c c x x c x x l k x k l l l l g u g < g 6 6 < f < < < , : 1 , , : : : : ; : ; : = = : O = o ; ; = o ; ; o o o o = o o o o o X . o X X X     o     X     X     PX",
"PX                                  O       .   .     .   .   . .   . . . . . O . . O + . . + O + + + + + + $ O % O % # $ $ # $ % # $ % % % % & & & % 3 & & & 3 & & 3 3 3 3 3 y y y 7 e i i i i i y y p i p i i i i i i a A A a a A a y + + 4 >.,.b.nXZXZXAXAXAXSXSXSXSXSXSXSXSXSXSXSXAXAXCXCXCXCXZXVXnXmX>.r r T >.>.,.,.,.2.2.2.2.2.2.2.2.2.2.2.2.2.,.,.2.,.,.,.2.,.T r + . + @ E 0 9 q <Xx.$X|.|.|.|.|.|.|.{.{.}.}.{.|.}.}.}.{.{.{..X{.}.}.$X+Xs 9 @ UX0 @ 9 9 H K r.f.M.M.M.V.f.M.M.M.M.M.f.f.M.f.f.f.f.f.t.c.r.K q 0 @ 0 Q @ @ . @ s s @X X X X X XXXXX XXXXX&X&XXX&X&X=X&XXX&X&XXXXXXXXXXX@X} k ,X@X XXXoXXXXXXXXXXX&XXX&X&XXX XXX XXX X&XXX X X X X@X].*.U 1 + . . w o. . . . . . .|  .| | [ W W P P | D W D B W P B I B N M M M N M b b b c M x c c x k l x z v l z l l l l l g l < 6 6 < 6 6 6 < , , , < : , : 1 : : : : : : ; ; = = : = = # = ; o o = o = o o o o o X o   o   o   X       o     X         PX",
"PX                                                . .   .   . . . . . . . . . . . . . . . + . + . O + O + + + + $ # $ # O % $ $ $ $ # % % % & & & & & & & & & & 3 3 5 3 3 y y 3 e e y y 7 e i e y p i y i v z i n i A A n a A A A A a y + $ r >.,.n.S.MXZXCXAXAXAXSXSXSXSXSXSXSXSXSXCXAXAXCXCXCXZXVXVXMXmXT S r T T ,.R ,.,.2.2.2.mXv.v.2.2.mX2.2.2.2.2.2.2.2.2.2.,.,.>.T r + + 9 E 0 9 q 4X+Xx.|.x.x.|.|.|.{.|.|.}.}.}.}.}.{.{.{..X{.}.}.}.{.|.<Xq 9 @ G.% 9 9 H R c.c.f.M.M.p.V.M.M.V.M.M.M.M.M.M.f.M.N.t.f.c.t.t.r.H q q 0 w.+ @ $  .3X@X X X X X XXXXXXXXXXXXX&X&XXX&X&X&X&XXX&XXX&X&XXX&X@X<X} s <X@XXXXXXXXXXXXXXXXXXX&X&X&XXX&XXX&X X X X XXX X X X X@X@X<X4X# o # # o. . .{ |  . .[ |  .I  .| [ [ W P [ P P D B P B B N D M M M M M M M m M c b x x x x x k x l l l l l l g g l < l g u g < 6 < < < , < : < : , , < 1 1 : = : = : o ; = = # ; o o ; o o = o o o X o o o X o X o X X   o o   X X X   X O   X PX",
"PX                                      .   O     .   .   . . . . .   . . . . . O . . + + O + . + + + + O + O $ O $ $ $ # % $ $ $ # % % % % & % & 4 7 & 4 3 & 7 3 3 3 5 3 3 y 5 e 7 y i i y y y p y y i i i i i i i i z A i i a A a A y . 2 4 T ,.v.nXMXZXBXAXAXSXAXSXAXSXSXAXSXAXAXSXAXAXCXCXZXZXZXVXnXmX>.S r >.>.,.,.,.,.2.v.n.n.mXn.mX2.2.2.8X2.2.2.2.2.2.2.2.2.2.2.>.S @ @ 9 E 0 9 H 4Xx.|.|.|.|.[.|.|.}.{.|.}.}.{.}.{.}.}.}.}..X{.}.{.{.$X$XH & % G.$ 0 q R u.c.f.f.M.V.V.M.M.V.p.M.V.M.p.M.f.M.M.f.f.f.f.t.t.u.R H q t O.@ @ * KX<X]. X X X X XXX XXXXX&X&XXX&X&X&X&X&X&X&X&X&XXXXX&X&X&X@X} V <X@XXXXXXXXXXXXXXX&X&X&XXX&X&X XXX X&X&X X XXX X X X X X X@X].w o # > |  . . .|  .{ [  .| [ | W [ | [ | P [ D P P B P N B B N M B M M M b M x M x c b x x v x x x x k z l l l l g g l < f 6 g 6 < 7 < < , : , , , : : ; , ; : : : : ; = : ; ; o ; ; o = o o o = o o o o o o o O o o O X X   o .     X         PX",
"PX                                        .       . .   .   . . . . . . . . . . + . O . O . + + + + . + + + + O $ . % $ $ $ % & % + + % & * % & & & & & & 3 7 3 3 5 3 y 5 y 3 y y e y e y i y i y i i u i p p i A i A i a A a a a A a y + $ r >.,.n.nXMXMXZXBXAXAXAXAXAXAXSXSXAXAXAXCXCXAXCXCXZXZXCXVXnXmX>.S r >.T >.>.,.2.2.n.b.b.mXb.v.mXn.n.b.v.v.v.2.2.2.2.2.2.2.,.,.<.r + 9 E q 9 q 4Xx.+X[.[.|.|.{.{.}.{.{.}.}.}..X{..X}.}..X.X}.}.{.{.|.<Xs 9 @ w.e 0 K c.c.f.M.V.M.V.M.V.M.V.M.M.V.M.M.M.M.f.f.f.f.M.N.f.t.r.r.K q J w.@ * s 3X@X X X X XXXXX XXX&XXXXXXX&X&X&X&X;X&X&X&X&X&XXXoX&X&X@X#X} s <X,XXXXXXXXX&XXXXX&X&X&XXX&XXX&XXXXXXXXXXXXX XXX X X X X X X].w ; o 1 o.o.{  . . .| { |  . .| P [ W [ W P W P P D P B P B N B B M B N M M m b b x c x x x x x x k z l l z l l g u g g l < g < 6 g < < < < : < , 1 , , : , : : : ; ; o : = ; o ; o ; o = o = o o o o o o o . X o   o X X o o   o   X X       X PX",
"PX                                            O   .   .     . .   . . .   O + O . . + . + + . O . O $ $ + + $ $ $ % $ $ $ $ $ O % % % % % & * & & & 4 & 3 & 4 3 3 3 3 3 y 3 e 5 e y e e y y y y p y y i i p v i z a p A a i A A A A a y . + r T R v.b.MXMXVXZXAXBXAXAXAXAXAXAXAXSXAXSXCXCXCXZXZXVXVXVXVXmX>.r r T T ,.,.,.,.2.b.b.b.b.b.mXv.mXn.n.n.v.v.mX2.2.v.2.v.v.2.,.1.r @ 9 Y 9 9 q +X+X|.|.|.|.}.{.{.{.}..X.X.X.X.X.X.X.X.X.X.X.XOXOXOXOX+Xs 9 + G.0 0 K F.N.f.V.V.V.M.M.M.V.M.M.M.M.M.M.M.M.M.M.M.f.M.f.M.c.t.u.R q s D.@ @ s <X+X{. X X{. XXXXXXXXXXX&X&X&X&X&X&X&X;X&X&X&X&X&XXX&X&X#X,X} V <X@X&XXXXXXXXX&XXX&X&X&X&X&X&XXX&X&XXXXXXXXX XXX X X X X X@X@Xs * + w  .o. .{  . . . . . .|  . .| | | | | [ P ` W P P P B N D F B B b M b m M M m m x b x x x x x k x k x l k l l l < < g 6 g 6 < < < < , , < : < , , , : : ; : ; ; : = : = ; o ; o ; o o o o = o o o o o o X O o   O X     o     X . O X   X PX",
"PX              O                   .   O       .   .   .   .   . . . . . O . . . O . + . . . + + + $ . O O + $ % O $ % % $ $ % + % % % % & % & & 4 & 3 & 3 5 7 5 3 7 y 5 e 5 e e y i e i 7 y i i y i i i p i i i i i A A i a a A a a y . + r >.,.v.b.nXMXMXZXZXAXAXAXAXAXAXAXSXCXAXCXCXCXCXZXZXVXVXVXmXmXT t r >.>.,.,.,.2.2.b.8Xb.mX2.mX2.n.n.n.n.v.v.2.v.2.n.v.v.v.v.2.2.r $ 9 E 9 9 q 4X+X|.|.{.|.{.}..X.X}..X.X.X.XoX.X.X.X.X.X.X.X.X.X{.$X$XK q @ q.q q L c.f.N.M.p.V.V.V.V.V.M.M.M.V.M.M.V.M.f.M.f.f.M.f.M.t.t.r.L H t w.+ w s 4X X X X XXXXXXXXXXX&X&X&X&X&X=X&X;X&X;X&X&X&X&X&X&X&X&X&X,X*.U ,X@X&XXXXXXX&XXX&X&X&X&X&X&XXX&X XXXXXXXXXXX XXX X X X X X X@Xu # ; # o. .{ {  .X.| |  .[  .[ Q [ W [ W | D W [ B P P B I D B M B M N M M M m b x x b b x x x z l v z l l l l l l l l g < 6 6 6 6 < < < < : < < : : , : , : ; : ; ; : : o ; ; ; o ; o o ; ; o o = o o o o o o o   o X X o o O   o   X   X     PX",
"PX                                            .   .   .   . . . . . . . . . . . + . . O . + + + + O . $ + + + + # O $ O $ % % $ $ % % % & % & & & & & % 3 & 5 4 5 3 4 y e 5 3 y y 5 i e e i i e p p u i p p i i i n i i A n A A n a A e . 2 r T ,.v.b.nXMXMXVXBXAXAXAXAXAXSXAXAXAXAXCXCXCXZXZXVXVXVXVXMXmX>.r r >.T >.>.,.,.2.n.mXmXmXmXmXmXmXn.n.n.v.n.n.2.n.2.2.v.v.v.2.1.r $ 9 ! q 9 q <X+X|.|.}.{.{.}.}..X}..X.X.X.X.X.X.X.X.X.XoX.XoX.X.XOX@XH 9 @ G.9 q K m.N.M.V.V.V.M.V.V.p.V.M.V.M.M.V.M.M.M.f.M.f.f.M.f.f.c.t.L q H G.# o s <X@X X X X X X XXXXX&XXX&X&X&X&X&X&X;X;X&X;X&X&X&X&X&X=XOX#X*.s 3X#XXXXXXX&XXX&XXX&X&X&X&X&X&X&X&X&X&X&XXXXXXXXX X X X X X X@Xw * # 1 X.X.X. . .X.X. . .{ |  .| | | | [ | D | W P D D P B B N N N M B M M M M b m M c x x x x x x x l x l l l l h g < < l 6 g 6 g < < < < < , 1 < : : , : : : : ; : ; ; : o ; ; ; = o o ; = o o = o o o X o X o o o X X X . X X O o   X   O   PX",
"PX            O                   .   .       .   . . . . .   . . . . . O . . . O + + . + + O + + . + + $ o + $ $ # + $ $ $ % $ % $ & & & & & & & 4 & & 4 & 3 3 5 3 5 3 y 5 y e y y e i e i i i i i u i i i v v A i i A i v A A a A A y O $ r >.,.v.n.b.MXMXMXZXZXCXCXAXCXAXAXAXCXCXCXCXVXCXCXVXVXVXVXnXmXT r r >.>.>.,.,.,.2.v.mXmXmXmXmXv.mXn.2.2.v.n.v.n.2.n.v.v.n.2.2.1.r * 9 ! q 9 q <X+X|.|.{.{.}..X.X.X.X.XoX.X.X.XoXoXoX.X.X.XoX.X.X.X}.$XJ 9 9 G.9 q L u.N.M.M.V.M.V.V.V.V.V.M.V.V.M.V.M.M.M.M.f.M.f.f.M.f.t.t.L q J G.@ 0 s <X X X X XXXXX XXX&X&XXX&X&X&X;X&X&X;X;X;X=X&X&X&XXX&X;X&X,X*.U <X XXX&XXX X&X&X&X&X&X;X%X;X;X&X&X&XXX&XXXXXXX XXX X X X X X@Xs ; # 1 o. .X.X. .X. . . .{ |  .| Q W | [ | P | | P D B W B W N N D N N N M M M b c c c x x x x x x l x x l l l v l l g 6 l g < g < < 1 g , < < , : : , 1 : : , : : : = : o ; : o ; ; o = o o o o o o = o o o o   o o   o X o   . o         X X PX",
"PX                  O                   .     . .   .   . . . . . . . . . . . + . . O . + . + + + . + + + + . $ O % $ $ $ $ & $ $ & & & 4 $ & & & & & 3 3 5 3 5 3 3 3 y y e e y e i e 7 y i i y i i i i i i A i A i A A A A A z A A z i O $ r >.>.v.b.b.b.MXMXMXZXZXCXCXCXAXCXAXCXCXCXVXCXCXVXCXVXVXVXnXmX>.4 S >.T ,.R ,.,.2.v.v.mXmX2.mXmXv.n.mXn.n.v.n.2.n.2.2.2.n.2.,.2.r * 9 E q 9 q 4X$X|.{.{.}.{.}..X.X.X.X.X.XoXoX.X.XoX.XoX.XoXoX.X}.OX@XH 9 9 G.0 q K c.f.M.V.V.V.V.V.V.V.V.V.M.M.V.M.V.M.M.M.M.f.M.f.f.f.t.r.K H q G.@ @ s <X@X X X X XXXXXXX&X&X&X&X&X;X&X;X;X;X;X;X&X&X&X&X&X&X&X,X,X*.V 3X,X&XXX&X&X&X&X&X&X&X&X&X&X;X&X&X&X&XXX&XXXXXXX X X X X X@X@Xs ; # * o.X.X.X. . .X... .|  .[ | [  .[ | W [ P D W P | W B D B B D M N M M M b m M b c m c x x z x x x l x l l h l l g l 6 < g g < < < , < < , , 1 < < : , : : : = : ; = : ; = ; o o = o ; ; o o = o o o o o o o o X o X .   o X     o o       PX",
"PX                      O     .   .       .       . .     .   . . . . . . . + O + O + . O + . + . $ + . + $ . + . $ O % $ & $ $ $ $ & $ & & $ & & 3 & 3 & 3 3 3 3 5 3 5 e e y e e 5 i e e i i 7 i i y i i i i A i i A v A A A A i n A i + $ r T R v.b.b.nXMXMXVXZXZXCXCXAXCXAXCXCXCXCXCXVXCXVXVXVXVXVXnXmX>.S r >.>.,.,.,.,.v.v.mXmXmXmXv.2.mXmXn.n.v.v.v.n.n.2.n.2.v.2.2.4.r * @ E 9 9 q <X$X|.|.{.}..X}..X.X.X.XoXoXoXoXoX.XoXoXoX.X.X.X.X.X$X#Xs 9 @ G.q q L H.N.M.V.V.V.V.V.V.V.V.M.V.V.M.V.V.M.p.M.M.M.f.f.N.f.t.t.L H t G.@ w k <X@X X X XXXXXXXXX&X&X&X&X;X;X&X;X&X;X;X;X;X&X=X&X=X&X&XXX>X*.V <X,XXX&X&X&X&X&X&X&X&X&X&X&X&X&X&X&X&X&X&XXXXXXXXX X X X X X@Xk 0 # # o. . .X. .{ |  . . . .|  .[ | | | [ W ( W [ D W ( D B B N B N N B M M M M b M c b c c c x x x x x l v l l l g l 6 g l < < f < < < < < < , < , , , : : : : = ; : = : # ; ; o # = ; o = o # = o = o o o X o o o X o X o   X . X       O X PX",
"PX                                  .         . .   . . . . . . . . . . . . . . . . . + + + O + + + . $ $ . # $ $ $ $ # $ $ & $ & & $ & & $ & & 7 3 $ 3 & 3 7 3 r 7 e e 5 y e y e i e e 5 i i i i i i i i i v i v A A i a n i A A A A y + $ r >.,.n.b.b.nXMXMXVXZXZXCXCXAXCXCXCXSXCXCXCXCXVXCXVXVXVXVXMXmX>.4 r T >.T ,.,.,.2.v.2.mXmXv.mXmXn.v.n.n.2.mXn.2.n.n.v.n.2.2.2.1.r * 9 ! q q q 4X$X|.|.}.}.}..X.X.X.XoX.X.X.X.XoXoXoX.XoXoX.XoX.X.XOX<XH 9 9 q.0 q K m.N.p.V.M.V.V.V.M.V.V.V.V.M.V.V.M.V.M.M.f.M.M.M.t.f.c.t.K H H w.@ 0 w <X X X X X XXXXX&X&X;X&X;X;X;X;X;X;X;X;X;X;X;X&X&X=X&X&X-X,Xj.U ,X,XXX&XXX&X&X&X&X&X&X&X;X;X&X;X&X&X&X&XXX&XXX X X X X X X@X@Xs * * 1 o.X.+.{  .X. ...| X.|  .|  .[ | W Q | W | B | ( W P W N B I N N D M M M M m b c m c x x x x x k l x v v l l l 6 l g g < l < g < < < , < < , : , : 1 : : : : : = : o ; ; = : ; o = o o = o o o = o o o o o X o o   o   o   X   o o       PX",
"PX                            .   .   .       .   . . .   . . . O . . . . . . . . + + . + . + + + . + + $ + # + $ $ $ % & $ $ & $ & & $ 4 & 3 3 $ & % 3 3 % 3 3 5 3 e y e 7 y e i i e i i y i i i u i i v i i z i i n i A n A i a A A i O 4 r T ,.v.n.b.S.MXMXMXZXZXZXZXZXCXCXCXCXCXCXCXCXCXVXCXVXVXVXmXmX5.r r >.T >.>.,.,.2.n.n.mXmXmXmXn.mXn.n.n.v.n.n.2.n.2.v.v.v.2.2.1.r * 9 ~ 0 9 q 4X$X|.|.}.}.}..X.X.X.XoX.XoX.XoXoXoXoX.XoX.XoXoXoX.XOX#Xs 0 @ G.q q K c.N.M.V.V.V.V.V.V.V.V.V.V.V.V.M.V.M.M.p.M.f.f.f.N.f.t.u.L H J D.@ 0 s <X X X XXXXXXXXX&X&X&X&X;X;X;X;X;X;X;X;X;X;X&X;X&X&X&X;X-X,X*.V ,X X&X&X&X&X&X&X;X&X;X&X;X;X&X&X;X&X&X&X&X&XXXXXXX XXX X X X@Xk % # ; X.X.X.X.{ +.X. . . . . .|  .| [ [ | | W | P W ` P B B D I D D M N M M M b V c c c b c x x x x k v l l l l l l g l 6 u g < g < < 6 < : < < < : < : < : : : : = : : = ; ; ; = ; = o ; ; o o o = o o = o o o o . o   o o   o   X .   X   X PX",
"PX                    .                     .   .     . . . .   . . . . O . . + . . O . . + O + + . + # . . $ $ O $ O % $ $ & $ & $ $ & & & $ 7 3 3 3 & 3 3 3 3 3 3 5 e e y e y y 5 5 i y i i y i i i i i i i i n i A A i A a A A A A u . O r >.T v.b.b.nXnXMXVXMXZXZXZXCXCXCXCXCXCXCXVXVXCXVXVXVXVXVXmXmX>.r r T T ,.,.,.,.2.n.mXmXmXn.n.mXn.n.n.n.n.n.n.n.n.2.v.2.n.2.2.1.r $ 9 ! q 9 q +X+X|.{.{..X.X}.oX.XoX.XoXoXoX.XoXoXoXoXoXoX.X.X.X.X$X<XH 0 9 w.0 q K F.M.M.V.V.V.V.V.V.V.V.V.V.V.V.V.V.M.V.M.M.M.M.f.t.t.c.c.L q J w.@ * s <X@X X X XXXXX&X&X&X;X;X;X;X;X;X;X;X;X;X;X;X;X;X&X;X&X&X&X,Xj.U 3X,X&XXX&X&X&X&X&X&X&X;X;X&X;X&X&X&X&X&X&X&XXX&XXXXX X X X X].s & * ; o.+.X. . . .X. . .|  .|  .| | | | P [ [ P | ( W | P W B N B N N B M b M M m M c c c x x x x x l l x l v l l l l g l g g 6 < l < < < < , < : < : , 1 : : : ; : ; : : ; ; O ; ; = ; o ; o o ; = o o o o o X o o X o X   o   o O   o     O PX",
"PX                        .       .     .   .     . . . . . . . . . O . + . + O + . . + + . + + . $ + + $ # $ # # # % % & $ % $ $ $ & & & 4 & & & 3 3 3 & & 5 3 5 e e 3 e y y e e 5 e e e i y i i u i i i i G A A i A i a A A a A n A y + + r T ,.v.v.b.nXnXMXMXMXZXZXZXCXCXCXCXCXCXCXVXVXVXCXVXVXVXVXVXmX>.4 r >.T >.>.,.,.2.b.n.mXmXmXmXn.n.n.n.mX2.2.2.2.n.v.n.2.2.2.1.2.r @ q Q 0 9 q 4X$X|.{.}.}.}..X.X.XoX.XoXoXoXoXoXoXoXoXoXoXoXoX.X.XOX#XH 0 @ G.0 q L S.N.M.V.V.V.V.V.V.V.V.V.V.V.V.V.V.M.M.M.M.f.M.M.f.N.t.t.L H H w.0 0 s <X@X X XXXXXXX&X&X;X;X;X;X;X;X;X;X;X;X;X;X;X;X&X;X&X;X;X&X,Xj.U ,X,X&X&X&X&X&X&X&X;X;X;X;X;X;X&X&X&X&X&X&X&XXXXXXX XXX X X X@Xk w # w O.X.X.X.+. . .X. .{  . .|  . .| |  .| W | B W | B W D N W B N N M M N M M b M M c c x x x x l x k x l x l l l g g l l < l k < < < < < < < < , 1 , : : : : ; : = : = ; # = ; o = = = o ; o o o o o o X o   o X o X o X     . X   X . X O IX",
"PX                                  .   .       .     . . . . . . . + . . . . . + O . O + + + O + + . . $ + + + $ $ % $ $ $ & & & $ $ 3 & & & & & & 7 & 3 3 3 3 3 3 3 7 e y e e e i i y i i i i i i i i i i A A A p n i A A A n a A Z r O + r >.,.v.v.b.nXnXMXMXMXZXZXAXCXCXCXCXCXCXVXCXCXVXVXVXVXVXVXmXmX>.S 4 T ,.,.>.,.2.2.n.mXmXn.mXn.mXb.n.n.v.n.n.n.n.v.n.v.v.n.2.2.2.r @ 9 ! q 9 H 4X+X|.{.}..X}..XoX.XoXoXoXoXoXoXoXoXoXoXoXoXoX.XoX.XOX<Xs 9 + G.0 q K F.h.M.V.V.V.V.V.V.V.V.V.C.V.V.V.V.V.V.M.M.M.M.f.f.f.t.c.L q J D.@ @ s <X@X XXXXX&X&X&X&X;X;X&X;X;X;X;X;X;X=X;X;X=X;X;X;X&X;X&X,X,Xj.U <X,X&X&X&X&X&X&X;X&X;X;X;X;X;X;X;X;X&X&X&X&XXX&XXXXX X X X X@Xs * # ; o.X.X.}  .X.{ X. . .|  .X.| | [ | [ | ( W [ ` ` W ( P D B B N N B M N B M m b m c b b x x x m x v x l l l l l l l k < l g < f < < < < , < : , > , , : : : : : : : = ; : : = ; o # = = o o o o ; o o o o o o o o X . . X o X X .   o   X PX",
"PX                        O       .   .       . . . . . . . . . . + . . . + + O . + + + O . + O + + + # . $ # $ $ $ % % $ $ & $ & $ & & $ & $ & 4 3 3 3 & 3 3 & 5 e y e y 7 y y i e y y i 7 y i i i i i i i A A z A i n A A i n n A A y O + r T T v.b.b.nXnXnXMXZXZXZXCXZXCXAXZXCXCXVXCXVXVXCXVXVXVXVXnXmXT r r T >.,.,.,.,.v.n.mXmXv.mXv.mXn.n.n.v.n.v.v.v.v.n.v.v.v.2.2.1.r * 9 ! q 9 q +X$X|.|.{..X.X.XoX.XoXoXoXoXoXoXoXoXoXoXoXoXoXoXoX.XOX<Xs 0 0 w.r q L c.N.M.V.V.V.V.V.V.C.V.V.V.C.V.V.V.V.V.M.V.f.f.M.N.t.c.t.L H J D.@ w s <X@XXXXXXX&X&X&X&X;X;X;X=X;X;X=X=X=X=X=X=X;X=X;X=X=X;X;X-X,X*.V ,X&X;X&X&X&X&X;X;X;X;X;X;X;X;X%X;X;X;X;X;X;X&X&X&XXXXXXX X@X@Xs w ; # +.X.X. .+.+. .{  . . . . . .| [ | [ | | | | W | B | ( D W N B I B B B M M M M M V b V x x x x k x v h x l l l l l h l g g l l < g < < < < , , < , 1 : , : : : : ; : : ; : o # = ; o o o = o = o o = o o o X o o   o o   o     o     O X PX",
"PX  O               O             .       . .   .   .     . . . . . . + O . . . + . . + + + + + . + . $ + + + + O $ & 2 % & $ $ $ & $ & 3 & 3 & & & & 3 3 3 3 5 3 e 3 y e e e y y e e i i i i i i i i p i i i G A i A i A A A A A A A y + + r >.,.v.n.mXnXnXVXVXMXZXZXZXAXZXCXCXCXCXCXVXCXVXVXVXVXVXVXnXmX>.r r T T T ,.,.,.v.n.mXmXmXmXmXv.mX2.n.n.n.n.v.n.v.v.2.v.v.2.2.4.r @ 9 ! q 9 q 4X$X|.}..X.X.X.XoXoXoXoXoXoX*XoX*X*XoXoXoXoXoXoX.X.XOX1XH 0 9 G.9 q L c.S.V.V.V.C.V.C.V.C.V.C.V.V.C.V.V.V.V.V.M.M.V.p.f.f.t.c.L q J w.9 9 s <X@X XXX&X&X&X=X=X=X=X=X-X;X;X=X=X-X*X=X=X;X=X;X=X;X;X&X-X-X].U 3X,X&X&X&X;X&X&X&X;X;X;X;X;X;X;X;X;X;X;X;X&X&X&X&XXXXX X X X@Xs 1 ; ; o.X.X.X.{  .X. .X. . ... .|  . .| | | W B | ( W W B W B B D B N F B M M M M M M m c c x x x x x x z v v l l v l l l < l < < < g < 6 , < < , : < , : > : : : : : : : : : ; ; = ; o ; ; ; o o o o o o o X o o o X X o   o   o o   o       PX",
"PX                      .                 .       . . . . . . . . . . O + . . + O + O . + + + + + $ + . + + + % % $ % % $ & $ & 4 % % & & & & 3 3 7 3 3 3 3 3 3 3 5 7 e e y y i e i y y i y i i i i i i i i A i v A i A a Z A A A a Z y + + r T ,.v.n.b.nXnXMXMXZXZXZXCXZXCXAXCXCXCXVXCXVXCXVXVXVXVXVXnXmXT r r ,.R ,.>.,.,.v.n.mXmXmXmXmXn.n.mXn.n.v.v.n.v.v.v.n.v.v.2.2.1.r * 9 Q 9 q q 4Xx.|..X{.}..XoXoXoXoXoXoX*X*X*XoXoXoX*XoXoXoX.XoXoXOX$XU 0 @ G.* t L H.N.B.V.V.V.V.C.C.V.C.V.C.C.V.V.V.V.V.V.V.M.M.M.M.f.t.t.L H H w.@ w u <X XXXXXXX&X;X;X=X=X=X-X-X-X-X-X-X-X-X-X*X;X;X;X;X;X&X;X;X,Xj.U ,X,X;X&X&X&X;X;X;X;X;X;X;X;X;X;X;X;X;X;X;X&X;X&X&X%XXX X X@X@Xk w # # o.@.{ +. .X. . .X.X.| X.|  .| |  .| | | P W [ W ` P D W W B D N B B N M M M M M b m c c x x x k x l v l l l l l l l l g < l g < 6 < < < , < < < , : , : , : : ; : : = : ; ; ; = o = o = ; o o o o o o o o o o X o . . X o     . X   X O PX",
"PX          O                     .   . .     .   . . . . . . . . . . + . . . + + . + + . O + + . # $ + $ # O % $ $ $ % $ $ & $ & & & 4 $ & & & & & 3 3 3 3 7 5 e 3 3 y y y y e i 7 y y i i y i i i A i i A i v A A A F A a A n F A Z y O $ S T >.2.n.nXnXMXVXVXZXZXCXCXAXCXAXCXCXCXCXCXCXVXVXVXVXVXMXnXmX>.r r T >.>.,.,.2.2.b.2.mXmXmXn.mXn.v.n.n.n.n.v.v.v.v.v.2.v.2.2.2.r 9 9 ~ 0 9 q <X$X|.}..X.X.XoXoXoXoX*X*X*X*X*X*X*X*XoX*XoXoXoXoXoXOX<Xs 9 9 G.q q K S.N.V.V.C.C.V.C.V.V.C.V.C.V.C.C.C.V.V.V.V.M.M.M.M.f.c.t.L H s D.@ 0 s <X@XXXXXXX&X&X=X=X-X-XoX-X:X:X-X:X-X-X-X-X-X=X=X;X=X;X;X-X,Xj.U 3X,X&X;X&X&X&X;X;X;X;X;X;X;X;X;X;X;X;X;X;X;X&X&X&X&X&X X X X].s w # > o.+.+.{ +.+.X.X. . .|  . . .|  .| [ [ | | [ ` | D [ ( W B P P N B N N M M M M M m M b c c x x x x x x l x x x h l h g l l g l < g 6 < < < < < : < : : , , : : : : = : o : o ; ; ; = ; o o = o = o o o o o   o o o X X o   o X     o X   PX",
"PX                    .       .     .     .   . .   . . . . . . . + . . + . O . + . . + + + + + . $ # $ . $ + $ $ O % % $ 4 & & % & $ 4 & & 7 & 3 & & 3 3 3 3 3 3 e y e y 7 5 i y y y i i i i i h i i i i A i A A A a A Z Z A a A n A y + + r >.,.v.v.b.nXVXVXVXZXCXCXCXCXAXAXZXCXCXCXCXVXCXVXVXVXVXnXnXmX>.r r T ,.>.>.,.,.2.mXmXv.mXv.mXn.n.n.n.n.n.2.n.v.v.v.v.v.v.2.2.2.r 4 9 Q t 9 t +X$XOXOX{..XoXoXoX*X*X*X*X*X*X*X*X*X*X*X*XoXoXoXoXoX#X#Xs 0 @ G.0 q L S.h.V.V.V.C.V.C.C.V.C.C.C.C.V.C.C.C.V.V.V.M.M.M.f.N.N.u.L H q D.@ 0 s ,X@X&X&X&X;X;X=X-X-X:X:X>X>X:X>X:X:X:X:X:X-X*X=X;X;X;X;X-X:X].U ,X>X;X&X;X;X;X;X;X;X;X;X;X;X;X;X;X;X;X;X;X;X&X&X&X&X&X&X X X@Xs w # * +.X.{ +.X. .X. . . .X.|  . .| | [ | [ | W ` | ( W D D W B B D N D N N M M M M M b c M c b x x x x x x h k h l l l h u g u g < g < 6 < < < , , , : < , : : : : : : : : : = = o ; ; # o = o ; o = o = o o o o X o X o X . X   o     o     PX",
"PX                                .     .   .   . . . . . . . . . O . . . . + . . O + . O + + + + + . + $ # $ o # % $ % % $ % $ $ & % & % & 4 & & & 3 3 3 3 5 3 5 e 5 y y i e e i e y y y i y i i i i i i i A i A z A A a n A A A A A i + + S T ,.v.b.nXnXnXVXZXCXCXAXCXAXAXAXCXCXCXCXCXCXVXCXVXVXVXVXMXmXT r r T T >.,.,.,.2.mXmXmXmXmXn.mXn.mXn.n.n.n.v.v.v.n.v.v.v.2.1.1.r @ 0 ~ 0 9 q 4X$X|.{..XoX.XoXoXoX*X*X*X*X*X*X*X*X*X*X*X*X*XoXoXoX#X#XJ 0 0 G.9 t L H.S.V.A.V.C.V.C.V.C.C.C.V.C.C.C.C.V.V.V.V.M.V.f.M.f.t.c.L t J w.@ w s <X@X X X&X;X-X&X-X:X:X>X>X>X1X>X1X#X>X:X-X-X=X=X=X;X;X;X-X,X*.U ,X,X;X&X;X;X&X;X;X;X;X;X;X;X;X;X;X;X;X;X;X;X;X;X;X&X&X X X X@Xs w # 1 o.X.+.X.+.{ X.{ X.X. .X.X.|  .|  .| | [ | [ W | D [ W ( | B P D B B B B M B M M m M b m x x c x z x x l v v l l l l f l g g l g g < < < < < < < < : > , , : : = : ; ; ; # : ; ; o = ; o o o = o o # o o o X o . o X O o . X   o     X O IX",
"PX                        .   O           .   .   . . . . . . . . + . + O + . . . . . + + + + + + $ . + # $ # $ $ % % $ & $ & $ 4 $ & & & 4 & & & 4 3 3 3 3 3 3 5 e y y 5 e y e i e i e i i i G i i i i A i A A i A n A A Z a Z a n A i O $ S T ,.v.b.b.nXVXZXZXCXCXCXCXAXAXAXCXCXCXCXCXCXVXVXCXVXVXVXmXmX>.r r T ,.>.,.,.,.2.mXmXmXmXv.mXv.n.2.n.b.n.2.v.v.v.v.v.v.2.2.2.1.r 9 9 ~ q 0 q +X$X|.OX.X.XoX-X*X*X*X*X*X=X=X=X*X*X=X*X*X*XoX*XoXoXoX<XH w @ G.0 q K S.N.V.V.V.C.C.C.C.C.C.C.C.C.C.V.C.C.C.V.V.V.M.M.f.M.t.t.L H H w.0 0 s ,X#X&XXX&X-X;X-X:X:X>X#X1X1X1X1X#X1X>X>X:X-X-X=X=X;X;X;X-X,Xj.( 3X,X;X;X;X;X&X;X;X;X;X;X;X;X;X;X;X;X;X;X;X;X;X;X;X&X&X X X X@XV w # ; o.+.+.X.+.X.X. .X. .X.|  .| |  . .| | | | | | ` | P B W W B W B N B N M M B V B M x M c x c c x x x l x l l l l l l l g l < 6 < g 6 < < < < < : < , , > 7 : : : ; : : ; ; ; ; = = ; ; o ; o o o o o o o o o o X o   o   o   o   o   X   PX",
"PX                                .     .   .   . . .   . . . . . O . . . + . + O + + + O O $ + . # $ + $ . $ $ $ O $ % $ & $ & % % & & & & & & & 3 7 5 & 3 5 3 3 e 7 y e e 5 i y 5 i i i i i i i i i A v i i i z A a A Z A n a A A n r + + t T ,.n.b.nXnXVXZXZXCXCXSXCXAXAXAXAXCXCXCXCXCXVXVXVXVXVXVXMXmXT r t >.T ,.,.,.2.2.v.v.mXmXmXmXmXmXn.n.2.mXv.v.v.v.v.v.v.v.2.2.2.r @ 0 Q q 0 H 4X$X|..X.XoXoXoX*X*X*X*X=X*X*X*X*X*X*XoX*XoX*XoXoXoX#X1Xs 0 0 G.> q L S.S.V.V.C.C.V.C.V.C.C.C.C.C.C.C.C.C.C.V.V.V.V.M.M.f.c.t.L H J D.9 w s <X@XXX-X&X;X-X-X:X>X1X1X1X1X1X1X1X1X>X1X:X:X-X=X=X;X;X=X-X:X].U ,X:X;X;X;X;X;X;X;X;X;X;X;X;X;X;X;X;X-X;X;X;X;X;X;X&X&X&X X X<Xs w # 1 o.+.X.X. .+.X.{  .X.{  .X. . .| [ | | [ W [ | W [ P P | D P D N D B N B M M M M M M M c b c c x x x m l x x x l l h < l < l g g 6 g < < < < < < < , : , : : : : : : ; ; ; ; ; = # ; o ; o ; = o = o o o o o o o o o o o   o O X   X   O PX",
"PX                              .     .   .   . . . . . . .   . . . + . + O + O + + . + + + + + $ + % + $ O % % $ $ & $ % $ $ & & & & $ 4 7 3 3 3 3 3 3 3 3 3 5 3 5 e 5 y y y y e i i y i i i i i i i i i A i A A A A A A A Z A A n Z e + + S T ,.n.b.b.MXVXZXZXAXAXAXAXSXCXSXCXCXCXCXCXCXVXCXVXVXVXVXmXmX5.r r >.>.>.,.,.,.2.n.mXmXmXmXb.b.b.n.n.n.v.mX2.mX2.2.n.2.b.2.2.1.r @ 9 ~ 0 0 q 4X$X|.OX.XoXoX*X*X*X*X*X*X*X*X*X*X*X*X*XoX=XoXoX*X*XOX#Xs 0 * G.q t L c.S.V.V.C.C.C.C.C.C.C.C.C.C.C.C.C.C.C.C.V.V.V.f.M.f.t.t.L H H w.0 w s 3X XXXXX-X-X-X:X>X$X1X2X1X2X1X1X1X1X1X1X#X:X-X-X*X=X*X=X-X X].U 3X>X;X;X;X=X;X;X;X=X;X;X-X:X;X:X:X:X;X;X;X;X;X;X;X&X&XXXXX X@Xk 1 # ; o.+.X.X.X.X.{ { +.{  . . .| X.| | | | { | | [ D W | P D P P ( B B B B N B M M M M m F m m c c c x x x x x l l l l k l f < k < < u g < < < < 1 < , < 1 : : < ; , ; ; : : : = : ; = ; o ; o o ; o o = o o o o o o o o   o X . X     o o   PX",
"PX                    .   .   .   . .   .   .     .   . . . . . . . . . . + . . . + + O + + $ O + + O $ + $ * + $ % $ & & $ $ & & & & % & & 3 & 3 3 3 5 5 3 3 e y 3 5 e 3 i e i e y i i i y i i i i i i z i A A i A i F A F Z Z A A a e + $ r >.,.n.b.MXMXZXCXCXSXCXCXSXSXSXCXSXSXSXSXCXCXCXCXVXVXVXVXVXmX>.r r >.>.,.>.,.,.n.n.mXmXmXv.mXb.b.n.b.n.2.mX2.v.n.2.2.n.2.n.2.1.r @ 9 ~ q q q +X$X|..XoXoX*X*X*X*X*X*X*X*X*X*X*X*X*X*X*X*X*X*XoX*X#X<XU w 0 G.0 q L H.S.V.C.C.V.C.C.C.C.C.C.C.C.C.C.C.C.C.C.C.V.V.V.V.f.N.u.R H H D.@ 0 s <X@X-X-X;X&X:X:X>X1X1X2X2X2X1X2X1X<X1X1X1X>X-X-X*X=X=X=X-X,Xx.[ ,X:X=X;X=X;X=X;X=X=X-X-X:X:X>X:X;X:X:X:X;X:X:X;X;X;X&XXX X@X@Xs 1 # # +.o.X.+.} { +.{ }  .{ X... .|  . .|  .| | | | P [ D D [ W B W B W B B B M M B M M M c M c c b x x x l x x l l l l l u l l g < g g < f < < < < < < < , , , , : : , ; : : : = = ; : o ; o o = = o o = o o o o o X X o o o o o   o X     X PX",
"PX              .               .     .   .     .   . . . . . . + . . . . . O + + + + . O + $ + $ $ + $ $ $ $ $ $ $ $ & $ % & $ $ % 4 & & 3 & 3 3 3 5 3 3 3 5 3 3 e e y y e e y i e i 7 i u i i i A i i i i A v A i A A Z A Z A a Z a y + $ S >.,.b.nXnXZXZXAXCXAXAXSXSXSXSXSXSXCXCXCXCXCXCXCXCXVXVXVXVXmXS S r >.>.>.,.,.2.2.n.b.mXmXmXb.b.2.mXn.v.v.2.2.mX2.v.v.2.n.2.2.,.r @ 0 Q 0 9 q <X$X|.OX.XoX*X*X*X*X*X*X=X*X*X*X*X*X*X*X*X*X*X*XoX*X-X1XH 0 * G.y H K S.N.V.C.C.C.C.C.C.Z.Z.C.Z.Z.C.Z.C.C.C.C.C.V.V.V.M.f.f.c.L H J w.0 w U <X#XXX-X-X-X:X1X1X1X2X2X2X2X2X1X2X2X1X1X#X>X:X-X*X*X=X*X-X>X].U 1X:X;X;X=X=X;X=X-X-X-X:X>X>X1X>X>X>X>X:X:X:X;X;X;X;X&X&X X X@XV w # 1 o.o.X.X.+.+.X.X. .X. . . . .X. .| | | | | [ | ` | D | D ( W W B P B B B M M D M M M c c c c c b x x m h l x l l l k f f u < l < < f g < < f < < , , , < : : 1 : ; : ; : = : : ; = # o ; o ; o o o o o o o o o o o . X X o   o     . X   PX",
"PX                        . .     .     .   . . . . . . . . . . O . . + . + + + . + O + $ + + + + O + O o $ $ $ $ $ & $ $ 4 % & & & & & & $ & & 3 3 3 3 3 3 e 5 5 5 e 5 e y y y 5 i i i i i i i i i i A A A i A A A F A A Z A Z n Z a i $ + S >.,.n.nXMXZXCXAXSXSXSXSXSXSXSXSXSXSXSXSXCXCXCXCXVXVXVXVXnXmX>.r r T T ,.,.,.2.2.n.b.b.8XmX8XmXmXmXn.n.mX2.2.v.2.n.2.v.2.2.,.3.r 4 9 ~ 0 9 s 4X+XOXOXoXoX*X*X*XoX*X-X-X*X*X*X*X*X*X*X*X*X*X*X*X*XOX1Xs 0 > G.0 q L S.S.C.C.C.C.C.C.C.Z.C.C.Z.C.Z.C.Z.C.C.C.C.V.V.V.M.M.M.t.R H H D.0 0 s <XXX-X;X-X:X:X1X1X1X2X2X2X2X1X2X1X1X1X1X1X1X:X:X-X=X=X*X-X-Xj.U 3X>X;X;X;X=X=X=X=X:X:X>X>X1X>X1X>X1X1X>X>X:X:X;X;X;X;X&X X X@XV w ; 1 @.+.+.X.X.X.X.X. .X.X. .....| { |  .| | | W | W | [ P W ( B B P B B N B B F M M M M M M b c c c c x x x x k x h v l l l g k l < l < < < < 1 < , < < : 1 < : , ; , : : : : ; o = : = ; = ; o ; o ; o o o o o o o X o o . X o   X . X X   PX",
"PX              .     .       .   . .   .   .   . . . .   . O . . . . . + . . + + . O + + + O + $ O $ $ $ O % $ $ $ & $ $ % 4 $ $ & 4 & & & 3 & 3 3 3 e 5 3 5 3 e 5 7 e i e i i y y i y y i i i i A i G i A A i A A A Z A Z Z A a n a i + $ S >.,.b.nXMXZXAXAXAXSXSXSXSXSXSXSXSXSXSXSXCXCXCXCXCXVXVXVXVXmX>.r r T >.,.,.,.,.2.b.b.mXmXmX2.mXv.v.2.mXn.v.v.2.2.2.v.v.v.2.,.4.r 9 0 1.0 9 q 4X+X{.oXoXoXoXoX*X-X-X-X-X*X-XoX*X*XoX*X*XoX*X*X&XoX-X<Xs w @ G.i t T H.A.A.C.C.Z.C.Z.C.Z.Z.Z.Z.Z.Z.Z.Z.C.C.C.C.C.C.V.V.M.N.u.L H K D.0 w s 3X#X X&X-X:X1X1X2X2X2X2X2X2X2X2X2X2X2X1X1X1X:X:X-X-X*X=XoX,X].U ,X:X&X;X=X=X*X=X-X:X:X>X>X>X1X1X1X1X1X1X>X>X:X;X;X-X;X;XXX#X@Xs 1 # 1 o.&.} X.X.+.X.+. .X. .X.|  .| X. .| | | | | | | | W | D ( D P P P B D B M D M M M M c M c M b x x c x l k m l l l l l g g k < < g < < g < < < , , < < < , : : , ; ; : : : ; : : o ; = ; o o o ; ; o o o o o o o o X o   o   o   o   o   PX",
"PX                          .         .   .   . .   . . . . . . . + O + . O + + O + + . O + + + o + + o $ $ $ $ $ & $ & & % & % & $ & & 4 & 7 & 3 3 5 3 e 3 3 y 5 e y y y y 7 i i i y i i i i i i i i A A i v A A A A F A Z A Z Z Y a 0 $ $ S >.2.b.nXMXAXAXAXSXSXSXSXSXSXSXSXSXSXSXCXCXCXCXCXCXVXVXVXVXmX>.r r T >.>.,.,.,.2.n.b.b.mXv.mXv.mXv.mXv.v.2.2.mX2.n.v.2.n.2.2.,.r 0 9 Q q 9 q +X$XOXoXoXoX-X-X-X-X:X-X#X-X-X-X*X*X*X*X*X*X*X*X*X=X#X1Xs w @ G.9 t L S.S.C.C.C.C.C.Z.Z.C.C.Z.Z.Z.Z.Z.Z.Z.Z.C.C.C.C.V.V.M.f.c.L K H w.@ 0 s <X,X-X-X-X:X1X2X2XKX2X2X2XKX2X2X2X2X1X1X1X1X#X#X:X-X-XoX-X>X].U 3X:X=X=X*X*X=X=X-X:X>X1X1X1X1X1X1X1X1X1X1X1X>X:X:X;X;X;X X X@XU 1 # ; +.#.X.{ +.X. .X.X.X.X.X.X.|  .| |  .|  .| | | | D [ | P W P W B D B N N M M B M B m M M c b c c c x x m x h x l l l k l l < l g < l < < < < < > < , : , , : 1 : : : : : = : ; = o : # ; = ; = o o = o = o o o X o o o o o o X .   o   X PX",
"PX                      .   .   .       .   .     .   . . . . . + . + . . + O + + + + + + + O + $ o $ $ $ $ % + $ $ $ & $ & $ & & $ & & 3 & 4 & 3 3 3 3 3 3 y 3 e e 5 e e y e e y i i y i i i i i i i A A i i A v A A A A Z Z Z a Y a i $ * S T 2.mXMXMXAXAXSXSXSXSXSXSXSXSXSXSXSXCXCXSXCXCXCXCXVXVXVXMXmX>.r r T ,.,.,.,.2.2.n.b.mXb.mXn.mXn.n.2.n.v.n.n.2.n.2.2.n.2.2.>.>.0 @ 9 ~ 0 9 s 4X+X}.oXoX-X-X-X:X:X>X:X>X#X:X*X-X*X*X*X*X*X*X*X*X*X-X,Xs 0 @ UX@ t L S.S.A.C.C.C.Z.Z.Z.Z.Z.Z.Z.Z.Z.Z.Z.Z.C.Z.C.C.C.V.M.M.f.t.L H K w.0 w s <X#X&X-X-X>X1X2X2X2X2X2X2X2XKX2X2X2X2X2X1X1X1X#X:X-XoXoX-XOX].U 1X#X=X=X=X=X*X-X-X>X>X1X1X1X1X1X1X1X2X1X1X1X>X>X:X;X;X&XXX@X@Xn w * 1 +.+.+.{ } X.{ +. .+.X. . .X... .| { ..| | [ | [ | | P P D D B B B B B B M B B M M M M b b c b c b x x m x x v l x l 6 l l l l f g < < f < < < < , < < : < 1 : , : 1 : : = : : o ; ; ; o ; = o ; ; o o o o X o o X X o X X X o   X o   X PX",
"PX            O     .     .       . .     .   . . . . . . . O . O . . . + O + . + . O + + + + + . $ + % O $ $ * & $ $ $ $ & & % $ & & % & & 3 & 3 5 3 5 3 3 3 5 5 y y e e i i y y y y i i i G i i i i v i A A A A A A A F Z Z Z a Y Y r @ * S >.2.m.S.MXZXAXAXSXSXSXSXSXSXSXSXSXSXSXSXCXCXCXCXCXZXVXVXMXmX>.S r ,.T >.,.,.2.2.n.b.mXmXn.mX2.n.n.v.n.n.v.2.n.2.n.2.2.2.2.<.S @ @ q Q 9 q q <X$X}.oX-XoX:X#X>X>X>X1X#X>X:X#X-X-X*X*XoX*X=X*X*XoX-X<XU w @ G.q q R S.A.A.C.C.C.C.Z.Z.Z.Z.Z.Z.Z.NXZ.Z.Z.Z.Z.C.C.C.V.V.M.N.t.L H s D.@ w s 3X#X&X-X:X1X1X2X2X2XKXKXKX2XKX2X2X2X2X2X<X1X1X:X:X:X*X-X-X>X].U 3X:X=X=X*X*X=X-X:X:X>X1X1X1X1X1X2X1X2X2X2X1X1X1X:X:X;X&X XXX@XU * ; 1 o.@.X.} X.{ } X.X.{ X. .X.| {  . ... .| | | | W W ` [ D P [ | B W B N D D M B M M M M c M m b c c x x h l x v h l l l l l l < l < l < < g < < < < , < , 1 , , ; : ; : ; : : ; : = ; ; ; o ; o o o o o o = o o o o o o o o o   o O   X   PX",
"PX                      .     .   . .     .   .   . . . . . . . O + + . . + . + . + + . O + $ $ + + + # + # $ $ $ $ $ & $ & $ & & $ & & 3 % 3 $ 3 3 3 3 3 3 3 3 3 7 y y e y y i y i y i i i i i i i A i A i A Z A A F A A Z Z Z Y J Z e + * S >.v.b.MXMXAXAXSXSXSXSXSXSXSXSXSXSXSXCXCXSXCXCXCXCXZXVXVXMXmX<.r 4 T >.,.,.,.,.2.n.mXmXb.b.n.n.n.v.2.v.2.2.2.2.2.n.2.2.2.,.S i + @ * O.q 9 H +X+XOXoX:XoX:X>X>X>X1X1X#X1X#X#X-X*XoXoX*X*X*XoX-X*X:X>Xs 9 * 4X0 q L S.S.C.C.C.Z.Z.Z.Z.Z.Z.Z.Z.Z.NXZ.NXZ.Z.Z.Z.C.C.V.V.V.f.u.L H H w.* w s <X:XOX:X:X1X2X2XKXKX2XKXKXKX2X2XUX2X2X1X1X1X1X>X:XOX-X=X-X,X].U ,X>X;X&X*X*X=X-X:X>X1X1X1X2X1X2X2X1X2X2X1X2X1X1X>X;X;X;XXX X@Xs w # * o.&.X.} } { X.{ +.{ X.X. . . ...|  .|  .| [ | | [ W [ P [ P P B P D B B B M M M M M D c M c c c x c x m l x x x l l l l k g < l < g < l < < < < < < < < , , , ; : , : : : ; : ; # : = ; = ; o o o ; o = o o X o = O o o   o . X . o   X PX",
"PX              O           .   .     . .   .     .   . . . . . . . . + + . + + + + O $ . + + O O # + + + + $ $ $ % $ $ & $ 4 & & $ $ & & & % 3 3 3 3 3 5 3 3 y e e y y y i y i y i i y y i i i i A i v A A G A A A A Z Z Z A a a Y Z i + 4 S >.v.b.MXBXAXAXSXSXSXSXSXSXSXSXSXSXSXSXSXCXCXCXCXCXVXVXVXmXmX>.S 4 T T >.,.,.,.2.v.2.v.2.v.2.v.v.v.2.2.2.2.2.2.2.2.2.,.>.<.Z i & @ 0 ~ q q q 4X$XOXoX-X-X:X>X1X1X1X1X1X>X#X:X-X-X*XoX*X*X*X*X*X*X#X<XU 0 0 G.9 q R F.A.C.C.C.C.C.Z.Z.Z.Z.Z.NXZ.NXNXNXZ.NXZ.Z.C.C.C.V.f.N.c.R H s D.0 w s 3X,X:X-X>X1X<X2X2X2XKXKXKXKXKXKX2X2X2X2X1X1X1X>X:X-X-X*X-X X[.U ,X:X;X=X=X*X=X:X:X>X1X1X1X1X2X1X2X2X2X2X2X2X1X>X>X:X>X;X,XXX,Xs 1 # w o.+.#.{ { } { +.X.X. .X. ... .{  .| | | ..| | | | | D P D ` P P B ( N D B M B M B b m F c M F c c c x x x x h l x l l l l l l g l < g < < < < < , < , : : : , , : ; : ; : ; ; = = = # = o ; = ; o ; o o o = = o o o X o X o X o X   X   PX",
"PX            .           . .             .   . .   . . . . . . . + . + O + . O O + $ . $ + + + $ + + $ + % % + $ & & & $ & & & & % 4 3 & & 7 & 3 3 3 3 e 3 y 3 3 e 3 e y y i 7 i i i i i i i i i i A i A v A A A A Z A Z Z Z Z a Y Z y + 4 S >.v.mXMXAXAXSXSXSXSXSXSXSXSXSXSXSXSXSXCXSXCXCXCXCXCXVXZXnXmXT 4 4 T >.T >.T ,.,.2.,.2.2.,.2.2.,.,.2.,.,.,.,.,.,.>.,.>.T r 4 + . + 9 ~ 0 9 q 4X|.OX#X:X#X:X1X1X1X1X1X1X1X1X#X:XoXoX*X*X*X*X*X*X*X#X,Xs w 0 UXq q L S.S.A.C.C.Z.C.Z.Z.Z.NXZ.NXNXNXNXNXZ.NXZ.Z.C.C.A.V.M.N.c.R H K w.@ 0 U <X>X-X-X,X1X2X2XKXKXKXKXKXKXKX2X2X2X2X2X1X1X1X:X:X-X=X;X-X>X].U 1X:X-X=X*X*X-X-X:X>X1X1X1X1X1X2X2X2X2X2X1X1X1X1X>X:X:X;X&X X@XV w # ; o.@.+.} X.X.X.X.+.X. .X.X. . .|  .[  .| | | | W P [ | B ( W W ( P B D D N B B M M M M c M M m c c c x x x h m l l l l l l g l g 6 k f < < < < < < < : < , 1 : ; ; , : : ; ; : : : ; = ; o ; o o ; o = o o o o o o o o X o   O   X   X X PX",
"PX              .     . .         . .   .   .   . . . . . O . . . + . + + . + + . + . O + + + $ . o $ . + % + * $ $ $ $ & $ $ $ $ & & & & 4 3 & & 3 3 5 5 3 3 3 7 i y y e y y i 7 i y i i i i i A i i A i A i A A n Z Z Z Z Z Z E a a y + r t T v.S.MXAXSXSXSXSXSXSXSXSXSXSXSXSXSXSXSXCXCXCXCXCXZXZXMXmXn.T 4 S T T T T T T T >.>.>.>.>.>.>.>.>.>.>.>.>.T >.>.>.>.T r 4 2 : . * 0 ! q q q <X$X#X:X-X:X>X1X1X1X1X1X1X>X>X>X:X:X-X*X*X*X*X-X*X*X-X1Xs 0 * G.y q R S.A.A.C.C.C.Z.C.Z.Z.Z.Z.Z.Z.Z.NXNXZ.Z.Z.Z.C.C.C.A.B.f.u.R H s D.0 w s 3X,X&X:X:X>X2X2XKX2XKXKXKXKXKXKX2X2X1X1X1X>X>X:X:X-X-X;X-X,X].U 1X>X-X=X*X=X*X-X:X:X:X:X>X1X1X1X1X1X1X2X1X1X1X>X>X;X>X:X;X,X@XU w * 1 &.o.X.X.+.X.+.X.X.X.X.X.{ ..| X.| X.| | | [ | ` ` | [ W W ` W B D B B B N B B M M M M M c m M c c c m h x v x l l l l l l k l < l < < < < f < , < , < < , , , , , ; : : ; : = = O : # = ; ; ; o o = = o o o X o o X o o o o o X . o     PX",
"PX                    .       .   .   .   .   . . . . .   . . . . + . O . + + . + + O + O $ + o # . $ + + $ % + $ % $ & $ & & $ & & 3 & 3 % & 3 3 3 3 3 y 3 5 y e y 5 e i 7 S y i y y i i i i i i i A v i A A A A F A A Z F A Z Z a Z p + * S ,.v.S.BXZXBXAXSXSXSXSXSXSXSXSXSXSXSXCXSXCXCXSXCXCXVXnXnXmX2.S 4 O r r r r r 0 r r S r S r r r r r r r r r 4 r r r r r 4 +   o . @ 0 J 9 9 q 4X$X#X:X:X>X>X#X1X1X1X1X>X1X>X:X:X-X=X*X*X*X*X*X=X-X:X<XU 9 0 UX0 H T c.S.A.C.C.C.C.C.C.Z.Z.C.Z.Z.Z.Z.Z.Z.Z.C.C.C.C.A.V.S.f.c.R H q O.9 0 U <X,X-X-X>X>X1X2X2XKX2XKXKXKX2X2X2X1X1X1X>X>X:X:X-X-X;X;X-X&X].U 1X:X-X-X;X-X;X-X-X-X-X:X:X:X>X>X>X>X>X1X>X>X>X:X;X;X-X&X X X].V : + 1 X.X.X.X.+.+.X.X.X.X.X.{ X. . .| | {  .X.| | | | ( [ | P [ D W B B P D N B M M M M M M M M F m b c c m x h x v v v x l l l l h l g g < u < < < < < < , , , 1 , ; ; , , , : , : ; = , = = ; o ; o o = o = o o o o o o o     o   o o   X   PX",
"PX                    .   . .   .   .   .   .   .   . . . . O . . + + . . + O + . + + + + + O $ o $ . # o $ + % $ & $ & $ & 3 $ & 4 7 & 3 3 & & 3 3 3 5 5 3 3 e 5 e i e e y 5 y 7 i i i h i i i A i i A A v A A A A F A Z Z A A Z Y J y . + r >.v.mXMXZXDXAXAXAXSXSXSXDXAXAXAXAXCXCXZXCXCXtXVXVXMXmXmXmXT r $ $ r 4 @ @ + + $ 4 2 4 4 4 4 4 4 * * 4 * 4 4 $ $ 4 4 . . . . . . 9 q E 0 9 q 4X$X#X:X:X>X>X>X1X#X:X>X>X#X:X:X#X-X-X=X*X=X-XoXOXoX#X<Xs 0 * G.0 H L H.S.B.V.A.A.V.C.A.A.A.A.A.A.A.C.A.C.A.A.A.B.A.N.f.N.c.c.r.q H 1.0 0 s <X#X#X>X>X1X1X1X2X2XKX3X2XKX2X2X2X1X1X1X>X>X#X:X-X-X-X-X>X,X].U 3X,X&X-XXX&X-X-X;X-X:X:X;X,X:X>X-X:X>X>X>X>X:X:X:X:X:X X X@X@Xk < . 1 &.+.+.+.X.X.X.+.X. . .X. .X.X.X. . .| | | | | | | W D | | P [ B D B D D B B M B B M M m m c b c c c x x x l x h h l l l l l l g l < < f f < < < , < < , , , , ; , : ; ; ; = ; ; = = # = o ; = o ; o o o o o o X o o o o o o   o   o   o PX",
"PX                .       .     .     .   .   . . . . . . . . . . . O + + . O + + O O + + + + $ $ . % $ % $ # + $ + * & $ $ & 3 % & 4 & & & & 4 5 & 3 3 e 3 y 5 e e 7 y i y y i i e 7 i i i i i A i v A i A A v A A A A Z Z Z Y a Y Z i + + r T R n.m.MXMXS.nXMXMXMXSXZXVXMXMXMXMXmXnXmXmXnXwXnXmXmXmXm.r O   . . + + . + . O $ $ O . + + + + + + $ + + + $ $ O + + . . + + w q ^ D.0 9 s 4X$X#X#X#X#X#X#X1X>X#X#X:X>X#X:X#X-XOX:X#X#X#X#XOX#X#X<Xs @ + UX+ q K c.S.N.N.V.S.V.S.S.S.B.A.B.S.A.N.A.S.S.B.S.N.N.N.N.t.t.r.R q s | @ w w <X<X@X,X>X,X3X2X3XKX3X3X2X<X2X3X2X3X3X1X1X>X>X>X,X>X>X>X,X3X].s 3X,X@X@X>X@X X&XXX,X,X,X,X>X>X,X,X,X,X>X1X,X1X>X>X,X,X X@X@X<Xs 1 o ; +.X.{ } +.X.+.X.} { X.{  .{ | X.X.|  .| | | | | | [ W [ P B D P D B N B N B B M M M b F c M m c c c m k x x v x l k l v l k u g l l g f < < < < < < , > , : ; , , ; , ; ; , ; = ; ; ; ; o ; # o o ; = o o o o o o o o o   X o X     X X PX",
"PX                    O .     .     .   .   .   .   . . O . . . . + + . . + + . + + + + o $ O o . $ + + $ + $ % $ % % % & & $ $ & & & & & 3 3 3 3 3 5 e 3 5 3 y e 5 e y y y y y i i i i i i v i i i i i A A A A F A A Z A Z Z Z Y a a y . . $ r S T ,.,.v.v.2.2.2.n.n.qX2.2.2.2.2.4.2.,.,.>.,.>.>.>.S r $ 4     O $ @ + O + $ 4 $ $ $ $ $ $ + $ $ $ $ * 4 4 * 4 $ & 3 & @ a ~ ~ ~ ~ 0 9 q ^ j.<X#X#X1X1X1X1X1X1X1X1X1X>X1X>X>X1X#X#X#X@X$X@X$X+Xj.s 9   UX@ 0 H R c.H.S.c.c.S.c.N.c.N.u.c.c.c.S.c.c.c.c.c.u.c.t.c.u.r.K q 9 @ * # # w V *.j.*.*.].j.j.j.].j.].].G.+X].].].+X].].+X].@X].].].].@X*.s k { ].].].].].].].].].].j.].].j.].j.j.].j.T.*.j.*.*.*.j.*.j.*.*.* + # ; #.#.+.X.X.+.X.X.X.X.X. .X.X.X.| | X.| |  ...| [ W | ` ` W [ P P P P B D M B B B M M M M M M b c c x m m h x v v v x l l l h g l g < u < g < < < < < < < : , , , ; , : : : , ; ; ; 8 o ; ; o = = o ; o o o = o o o = o X o o   o o O   X PX",
"PX                    .       .   .   . . . . . . . . . . . O . + . . + O + + O + + + + + $ + $ $ $ $ + $ $ $ & & $ $ & & $ $ & & & & 3 & 3 3 & 3 3 3 5 3 e 5 e i y 5 e i 5 e i y i y i i i i i i i A A i A A F A A A A Z a Y a A Z J y . . . $ r r S T S S T S >.T T T S T T S T S T S S S S t S r 4 4 $ . O O 4 r r e r y i r r i r i i r i A r i A A A Z Z Z A F Z F E ! ~ D.y.~ q 0 @ s U } j.} j.j.j.*.j.j.*.*.j.*.*.j.*.*.*.} } } ^ j.^ } s 0 9 9 4X$ @ q H R L r.R L r.L R R L L R L R R R L R R L R L L L K H H q @ + 1 1 @ * 0 s U V U U U U V V U U V U U U U [ U [ U U U U U U [ U V k k s k V U U U U [ U U U U U U V U V U V U s U V V s V V k s k 0 s 1 + ; 1 +.X.} #.{ #.+.X.+.X. .X.X.{  . .{  .| | | | | | [ W [ D W ` P B W B ( B D B N B M M M M b M c c c c v v x x x x h l l l l l l f l < < g h < g 7 < , , < , , , : , ; : ; ; : = : = = : o ; ; o = o ; o = o o o o X O o o o X   X o     X PX",
"PX          .   .       . .     .   .     .   . .   . . . . + . . + + . . + + . + O + + + + + O + . $ $ $ $ $ % $ & $ $ $ & & & 4 & & & 3 & 3 3 3 3 3 3 y 5 e 3 7 y 5 i e i i i i y i i i i i i i i v A i A A A v A A F Z F Z Y Y Y a e . .   . $ r r r S r S r S r S r S S S S r S r S S t r r r r $ O . . O r 1.0.r 4 4 * * 9 0 4 0 * 4 * * 4 r 9 & e & 4 * * 4 4 e 0 0 q K L y.^ 0 9 + * 9 s q q s q H U s s s s U H H s U H s s H H H H q U U @ 9 0 UX@ @ 9 9 H L K L L K L L L L L L L L L L L L L K L K H K H H q 9 @ + e # # w w s s V V s V s U s V V U V U U V U s U V V s V s s s k s w w 1 w s w U k V s V s V U V V V V U s U V U n U s U U U ( U s s s w ; o ; o.&.+.{ } { } X.+.X. .X.X. . .{ X.|  .| X.| | | | | | W | B [ D D P W B B N B B N V M M M m c c b c m v x h x l x l l l k l l l < l g < < g , , < < , , : , , ; ; , : : : : : = ; ; ; o = o ; o = o o o o o o o o o   X o . o o O o o   PX",
"PX                    .   .   . .     . . . .   . . . . O . . . + O . + . O + + + O O $ O % + + $ + $ $ $ $ $ $ & $ $ & $ 4 & & & & & & & 3 3 3 5 3 3 y 3 y 7 e y y e e i 7 y y y y i i i i i i i A A i A A A i A A Z A Z a Z Y t Y Z e . . . 4 r r S J T T >.T T T T >.S T T T T S T T T T S T T S r 4 O O * r D.<.4 4 + . + @ + + + + + + + + + + + + + + @ + + $ + 9 @ 9 q ~ ^ D.q 9 0 q H ^ ^ ^ ^ ^ } ^ ^ } } } } } ^ } } ^ ^ j.j.j.j.j.*.j.j.q 9 @ G.0 0 q q L L R L R R L r.r.r.r.r.r.r.r.r.r.r.r.r.L L L L L K q q @ @ u . # w p j.*.j.j.j.].].j.j.].].j.].j.].*.j.j.j.*.*.*.*.*.*.*.} *.U w V w [ *.} *.*.j.*.*.j.E.j.j.].].].].].].].].].].].].].*.].*.*.[ w 1 # ; +.@.+.} +.X.{ X.X.X.X.X. . . ... .| X.| | | | | [ [ | | W | ` W P P B B B N B N M B M M b b m b c c m v m m x m l l l l l l g w l < g , < < g , < , < , < , : , ; , : ; : : : = : o o : = # # o # = o = ; o o o o o o o o X o X o   X   PX",
"PX                    .       .     .     . . . . .   . + . . . . . + . + + + . + + + + $ O + $ + + $ $ $ $ $ $ $ & % & % % % 4 & & 3 & & 3 5 & 3 e e 7 4 y e y 7 y 5 i y y i i i i i e i i i i i A i v i A A F n Z A F Z Z a a A Z a i + O 4 r T >.1.2.2.n.m.n.n.n.n.n.n.n.n.2.n.2.2.m.2.2.2.2.2.2.>.4 $ $ r Y r r + O . + + + + + + @ @ @ + + + + @ @ + + + + . . + + * @ 9 q ~ O.0 9 9 4X+X+X@X$X#X#X#X#X#X>X#X#X#X#X#X#X#X#X#X$X|.#XOX$X$X$X<Xs 0 0 UX9 r J R m.c.S.N.S.S.S.N.N.S.A.S.N.S.S.N.S.S.N.S.S.S.S.c.c.c.y.K q 9 n * @ w 3X@X@X,X&X&X,X,X-X>X:X,X>X,X&X:X,X,X;X,X,X,X#X,X#X,X@X,X@X3X} V 2X<X1X#X,X#X,X,X>X-X>X,X:X,X>X,X1X1X<X3X1X3X1X1X,X>X,X,X,X@X4Xs + ; @ 8.+.+.#.X.X.X.+.+.{ X.X.X.{  . .X.| |  .| | | | | | | D | D | ( W B W B D B D M M M M M c M M c b c x m l h h k v l l l l h k g g < g g g < 6 6 , < , < : , , , , : : : : = : : ; : ; = : = = = = o o o o o o o o X o o o o   o X . X X PX",
"PX                    .   .       . .   . .   . . . . . . . . + . + . + + . O + . + + + + + O $ $ + $ $ $ $ $ $ $ 4 % % % & & $ & & $ 4 & 3 3 3 3 3 3 y 3 y 5 3 e e e e i i e i 7 i i i i i i i A i A A A i A n A A A A n Z Z Y Z Z Z e + + r S T T ,.v.b.b.S.mXmXb.mXS.mXb.b.b.b.b.b.b.8XmXmX8X2.m.3.S 4 + 9 A r + $ $ + + @ @ 9 9 9 9 9 9 q 9 9 9 9 9 9 9 9 9 9 @ 9 + & & + @ s Q 9 9 H G.x.+XOXOXOX#X-X-X#X:X#X:X:XoX*XoXOX:X#XOX#XOXOXOXOX#X<Xt 0 9 UX0 q K m.S.N.V.S.B.A.A.A.A.A.A.A.A.A.A.A.A.A.A.A.A.S.S.N.N.c.u.R q 0 a 0 # s <X@X X,X X&X-X:X:X>X:X>X>X>X>X>X:X:X-X:X-X-X-X-X,X-X-X X,X,X].U 3X>X:X:X-X:X:X:X:X-X>X>X1X1X>X1X1X2X2X2X2X2X2X1X1X1X1X>X,X,X@XV w @ w +.+.#.X.X.+.X.X.X.X.X.X.X. .X.|  ..... .| X.| [ | | | ` | B B W B D B P B D M B N M M M F c b c c c v x v x m l m l l l l k u f u l g g < g < g , < , , : < , 1 : : : : : : = = : o = ; = ; ; o o o = o o o o o o o X X o . o   o X O X PX",
"PX                .       . .         . .   . . . . . . . . . . + . + O + + + . O + O $ O $ + + + $ + $ $ $ % & & $ & & % 4 & & & & & & 3 3 3 3 3 5 3 3 e 5 e y y e e y y y i i i i i i i i i v i z A i i A A A F A A F Z Z Y a J Z a i + + r S T ,.v.b.m.mXnXMXMXMXMXMXMXMXMXMXnXnXnXnXnXnXnXnXmXn.n.S * 4 * ! + r $ . @ q q H H L H H H H H H H H H H H H H H H q q q * . + @ 9 s 0 9 q UX+X[.OXOX#XoXoX-XoX-X-X-X-X-X*X-XoX*XoXoXoXoXOXoXOX#X<Xs 0 @ UXq t L S.S.V.A.C.C.C.C.C.Z.Z.Z.Z.Z.NXZ.NXBXNXA.Z.Z.Z.S.A.S.N.N.r.H q a @ w s <X@X X;X;X;X:X:X:X>X>X1X>X>X>X>X>X:X:X:X:X-X-X=X*X-X-X-X:X>X].U 1X>X&X-X=X;X;X:X:X>X>X1X>X1X1X2X2X2XKXKXKX2X2XKXKX2X1X1X>X,X@XU w ; # &.o.} +.X.#.+.+.X.X. . .X.{ | X. . . .| | | | | | ( W | W | W ( W P ` B B N N B B M D M m M m b m b m v x x l x l l l l l h l f g g g < g 6 6 < < , < : : , : , 1 , : : : = : : ; : # ; ; o o = ; ; ; o = o o o o o o o o X o o   o X   PX",
"PX          .       .           .   .   . . . .   . . . . . . . + . + . O + + + + O + + + + O + $ + $ $ % $ $ $ $ & $ $ & $ % & & & & & 3 3 3 3 3 3 5 3 5 e y 3 e e i y i 7 i i i i i i i i i i A i i A A A a A A n A A Z Z a Z Z Y Z p + + r T T ,.n.S.MXBXAXAXAXAXAXAXAXAXCXZXCXZXZXVXVXMXVXyXMXmXmXS 4 $ $ A + + . + 9 H y.u.u.u.u.u.u.t.u.u.t.u.u.e.u.r.r.r.r.y.H q + & $ . 0 q 0 0 s <X[.|.OXoX:XoX-X-X#X:X:X:X:X-X-X*X*X-X-X*X*XoXoXoXoX:X1XK 0 0 UX9 H T S.S.A.C.C.C.Z.Z.Z.Z.Z.Z.NXZ.NXNXNXZ.NXNXNXZ.Z.NXC.A.S.u.r.H 0 n @ @ s <X@X&X&X:X>X:X1X1X1X1X2X2X2X1X1X1X1X1X>X>X:X:X-X-X-X=X-X-X>X@XU <X>X;X;X*X-X:X:X>X>X1X1X1X2X2X2X2X2XKXKXKXKXKXKXKX2X2X>X>X:X@Xs w * ; @.&.+.X.#.X.X.X.X.X.X.X. .X... ... . .| |  .| | | W | ` | D D | ( D W B B B B N B M M m b M M M c b v m l m m l l l l x l l l g g g g g 6 6 g , , 6 < , , , , : : , : : : : : : : : = ; # ; ; ; o o o = o o o o o o o X o X o   o X o   PX",
"PX                    . .   . .   .   . .   .   . . . . . + O . . + O + . + O + + + + + $ + $ $ O $ + $ $ $ $ $ & $ & $ $ % & & & & & & 3 3 3 3 3 3 5 e e 5 3 y y e y y y i i e y i i i i i i i p i A i A A A A A A A Z Z Z Y Z a a Y i O O r T R v.b.MXMXAXAXAXAXAXAXSXAXAXAXAXAXCXCXZXZXVXVXVXMXnXmXS r O $ O + . * @ q r.t.t.e.i.f.e.i.e.e.i.e.e.e.e.e.e.e.e.e.r.r.H 9 3 . $ @ J 0 0 H G.+X{.OXoXoX-X-X-X-X:X#X:X-X-XoX*X*X*X*X*X*X*X*X*X*XOX#XU 0 0 UX0 H L H.S.A.C.C.Z.Z.Z.Z.NXNXNXNXNXBXNXNXBXBXNXNXNXNXA.A.A.N.N.R H q I 0 w s 3X#XXX-X-X>X>X1X1X2X2X2X2X2X2X1X2X1X1X1X>X1X:X-X-X=XoX=X-X,X@XU 3X,X-X-X*X-X-X:X>X1X1X1X2X2X2XKX2XKXKXKXKXKXKXKXKX2X2X1X;X-X,XU s # w o.+.#.+.+.X.X.+.+. .X.X. .X.X.X.|  ... .| | | | [ | | | | W | B W P B B B B N B N M M D M M c b c m m x m l m x x h x l l l l l g g g g < g < 6 < , , < , , : : , ; : : : ; : = : ; ; ; = = ; o ; = o o o o = o o o . o o o X o O o   X PX",
"PX                .     .         .   . . . . . . .   . O + . . . + O + . + . + . + + + # $ $ . $ $ $ $ $ $ $ & & $ $ & $ $ 4 & 4 * & 3 & 3 & e 3 e 3 y 3 5 3 5 e y e 5 e y y i i i i i i i i i i A A i A A A A A A Z Z Z Z Z Z Y Y Z i @ $ r T ,.v.b.S.ZXCXAXSXSXAXSXSXSXCXSXCXSXSXCXCXCXVXVXVXVXnXmXS r O O O O + @ q L u.e.i.i.i.i.f.i.i.i.i.f.i.i.i.i.f.e.e.e.e.r.L q 9 + + 9 J 0 9 q 4Xx.[.OXoX-XoX-X-X-X:X-X-X-X-X*X*X*X*X*X*X*X*X*X*X*X:X#Xs w @ UXq H L S.A.A.Z.Z.Z.Z.Z.Z.NXNXNXBXNXBXBXBXBXBXNXBXNXZ.Z.C.A.V.h.r.H H W @ w s <X-XXX-X-X#X1X1X2X2X2X2X2X2X2X2X1X2X1X1X1X1X:X:X-X*X=X=X-X#X@XU 3X>X-X*X*X-X:X>X1X1X2X1X2X2XKXKXKXKXKXKXKXKXKXKXKX2X2X>X,X:X@XU 1 * 1 +.+.#.X.#.+.#.X.+.+. .X. .X. . .| X.| | | | | | { | P ` | W D | B W ( D B D B B B B M M c b M c c c c c c v k m l v l l l l l k h l g g < 6 , 6 , 6 < , , , , : , : : : , ; ; ; : ; = ; # = O = ; o = o o o o o o o o X X o . X . X X X PX",
"PX                  .     . .       .     .   .   . . . . . . . + . + . + . + + + O + $ $ O + $ $ + + $ + $ $ $ $ $ & $ & & % & & & & 3 3 3 3 & 3 5 5 3 3 e i 7 y 5 i i i y i y i y i i i i i i A z i A A A A A A n A Z Z Z Z J Y a Z i + $ 4 >.T 2.b.MXZXCXAXAXSXSXSXSXSXSXSXSXCXCXCXCXCXVXCXVXVXmXmXS 4 . O .   + q H L h.i.i.i.p.i.p.p.i.i.i.i.p.i.i.i.i.i.i.e.e.e.e.H q @ @ 9 J q q q 4X+X|.oXoXoX-X-X*X-X-X-X-X-X-X*X*X*X*X*X*X*X&XoX*XoX:X1XU 0 @ UX0 t R S.S.A.C.Z.Z.Z.NXNXNXNXBXBXBXBXBXBXBXBXBXNXNXNXZ.C.A.S.c.R H s Q 0 9 s <X@X&X-X-X:X#X1X2X2X2X2X2X2X2X2X2X2X1X2X1X1X:X:X-X-X*X=X-X,X@X^ 3X>X-X-X-X-X:X>X>X1X1X2X2X2X2XKX2XKXKXKXKXKXKXKXKX2X1X>X;X:X@XU w # ; &.+.+.+.+.X.X.} { +.X.X. .X.X...X.| | X.|  . .| | [ | W | ` | W W B D B W B N B B M D M m F m M M c c c c c x x v v v l l l l h g u g g g < g , , 6 , < , < , , : : : : ; : ; : : ; ; ; = ; ; = o ; o o = o = = O X o o o o X o   o o   PX",
"PX                    .     . . .     . . . .   O . . . . . . + + . O . O + + O + + $ . . $ O $ + $ $ $ $ $ $ $ & $ & $ $ 4 & & & & & & & 3 3 3 3 3 3 e 5 e 5 4 e e e e y e i i i i i i i i A i A i A p i a A A n A Z Z Z Z Y Z Y Z a i $ O r >.>.v.b.nXVXZXAXSXSXSXSXSXSXSXSXSXSXCXCXCXCXVXVXVXMXnXmXS 4 O O O . + q u.h.e.i.p.i.p.p.p.i.p.p.i.p.i.i.i.i.i.i.i.i.e.e.e.r.K q @ 9 t q q H +X+X|.OXoXoX*X*X*X=X-X-X-X*X*X*X*X*X*X*X*X*X*X*X*XoX-X<XU w @ UX9 t L S.A.A.C.Z.Z.Z.NXNXNXNXBXBXBXBXBXBXBXBXBXBXNXNXZ.C.A.S.N.r.H K Q * w s ,X#X&X;X-X-X>X>X1X1X2X2X2X2X2X2X2X2X2X1X1X1X:X:X-X-X*X*X=X-X@XU 1X:X-X-X-X:X:X1X1X1X1X2X2X2XKXKXKXKXKXKXKXKXKXKX2X2X1X>X:X-X@XU 1 # 1 o.+.&.X.X.+.} { X.+. .X.X.X.X. . .X.| | | X.| | | | ` | | B W ( | B B W B B N B B N D M m D c F c M c c x v x h x v l l l k l l l g g g 6 g 6 6 , , < , , , : , 1 : : : ; ; : : = : # ; ; = = ; = o ; o o = o o o o o o X o o o o   O X IX",
"PX            O .       .       .   .   .   . . . . . . . . + O . + + + + . . + $ O O + + + + + + $ $ + $ $ + & $ $ $ & & $ & & 4 & & 3 3 3 & 3 3 3 5 3 e y e y e e y 5 i i i i 7 i e i i i i i i p A A A A A F Z Z n a Y Z Z E Z Z Y i + 4 4 T ,.v.b.S.VXVXAXAXAXAXSXAXCXSXCXSXCXCXCXCXCXVXVXVXMXnXqX>.r . + O   0 H r.i.i.i.i.p.p.p.i.p.p.i.p.i.i.i.i.i.i.i.i.i.e.e.e.u.R q 9 9 s q 9 H G.+X|.OXOX-XoX*X*X*X=X*X*X*X*X*X*X*X*X*X*X*X*X*XoX*X#X>Xs 0 + UX0 H K m.S.C.Z.Z.Z.Z.NXNXNXNXNXNXBXBXBXBXBXBXBXBXZ.Z.A.C.A.V.h.r.H J Q * 0 V <X@X&X-X-X:X:X1X1X1X1X2X1X2X2X1X2X1X1X1X1X1X:X-X-X*X=X=X=X#X@XU 1X#X-X*X-X-X:X>X1X1X1X2X2X2X2XKXKXKXKXKXKXKXKX2X2X1X>X:X:X,X@XU w % > &.&.+.+.#.+.{ } +.X.X.X.X. . .o.| | o. .| | | | | [ | | W | | P D W B B D B N B B M M M M c M c M b c m m v x x h v l v x h k l g l g 6 g < 6 , g , , < , , , ; , , : : : : = ; = : ; ; ; # ; o o ; = o o = o o o o X o o O X o   o X X PX",
"PX                  . .       .   .   . . .     . . . . . . + O . + . . . + + . O + . $ + + O + $ + $ + + $ & + $ & $ + $ & & & & & & 3 & 3 & 3 3 3 3 5 3 3 7 e i e e e e i i 7 i 5 i i A i i i A A A A A A A n Z A Z F Z Z Y a Y Z Z a $ $ r T T v.b.MXMXVXCXCXAXAXSXAXAXSXSXCXCXCXCXCXVXVXVXVXMXnXqXT 4 O O + . 9 H e.e.i.f.p.p.i.p.i.p.p.p.i.p.i.i.p.i.i.i.i.i.e.i.e.r.r.q 9 9 q q 9 q 4X+X|.OX.XOXoX*X*X*X*X*X=X*X*X*X*X*X*X*X*X*X*X*X*XoX-X<XU 9 @ UX0 q L S.S.A.C.Z.Z.Z.NXZ.NXNXBXBXNXNXBXBXBXBXNXNXZ.Z.Z.C.A.M.c.L H K O.* 1 s 3X@X&X&X-X-X:X>X1X1X1X2X2X1X2X1X2X2X1X1X1X>X:X:X-X*X=X*X=X:X@XU 1X,X*X-X-X;X:X:X1X1X1X2X2X2X2X2X2XKXKXKXKXKXKX2X2X1X>X:X:X&X@XU 1 ; 1 o.@.+.+.#.+.{ } +.X.X.+.X.X. .{ | X. ... .| | | | | W | ` | D W D D | B D B B B B M F m M M c M c c m c m c v v v l l l l l g l g < g < g g < g < < < , < , , ; , ; : : : : : : = : ; ; ; = ; = o ; o o o = o o o = o X o X o o   o O   PX",
"PX                .     . .     .   .   .   . . . . . . . . . + + O . + + + O + + + . $ + $ $ $ $ $ $ $ $ $ $ $ $ $ & & & $ & & 3 3 & & 3 3 3 3 3 5 y 3 y e e y 5 y 5 i 5 i i i e i i i i i i A z i A i a A A A A n Z Z Z Z Z Y Z Z a r @ $ 4 >.T v.b.b.nXVXZXCXAXAXAXAXAXCXCXCXSXCXCXVXCXVXVXVXMXmXmXS 4 O + + + 9 L r.i.i.p.i.p.p.p.p.p.i.p.i.i.p.i.p.i.i.i.i.i.i.i.f.e.R H 9 0 q q q q +X+X|.}.OXoXoX*X*X=X*X=X*X*X*X=X*X*X*X*X*X*X*X*XoXoX-X1Xs 0 9 UX9 q L m.A.A.C.C.Z.Z.Z.NXNXNXNXNXBXNXBXBXBXNXNXNXNXZ.C.V.V.M.c.r.H J o.0 1 s <X#XXX&X=X;X-X:X>X1X1X1X2X2X2X1X1X1X1X1X1X>X:X-X*X*X=X*X;X,X@XU <X:X-XoX*X-X-X>X>X1X1X2X1X2X2X2X2X2X2X2X2X2X2X2X1X>X:X;X;X-X@XU w # ; &.+.&.o.+.+.+.X.X.X.X.{ X. .X. .X.X. .| | | ..| | | ` | | W D [ [ W D D D B D B B M B M M M F c M b c v h c x x l v v x l l l l l l g g 6 6 < < < < < , > , , ; , , : : : : : O = : ; o : o # o ; = ; o o o o o o O o o . o   o . X o X PX",
"PX                        .   .   .   . . . . . .   . . . . . . . + + . . + O + + + $ + O $ + + + $ $ $ + $ & $ $ & $ & $ $ & & & & & 3 & 5 3 & 3 3 3 e 3 5 5 e y 5 e i e i e i i i i i A i i v i A i A A A Z A Z n Z Z Z Z Y Z Y Z Z i $ $ r T ,.v.n.nXnXVXZXZXCXCXAXAXCXAXCXSXCXCXCXCXVXVXVXCXnXmXmX>.r $ + + + 9 L e.i.i.i.p.p.p.p.p.p.p.p.p.p.i.p.i.p.i.i.i.i.i.i.e.e.r.q 9 0 0 q 9 q H.[.|.OX.XoXoX*X*X*X=X*X*X*X=X*X=X=X*X*XoX*X=XoX*XoX#X#Xs 0 0 UXq q L S.S.A.Z.Z.Z.NXZ.NXNXNXNXNXNXNXBXBXNXNXNXZ.Z.C.C.C.V.M.N.r.H t o.* 0 s 3X@X&X&X=X;X-X:X:X#X1X1X1X1X1X1X1X1X1X1X#X>X:X-X=X=X=X=X-X>X@XU 1X:X;X-X;X;X:X:X1X>X1X1X1X2X2X2X2X2XKX2X2X2X2X2X1X>X:X-X&X-X@XP w # ; +.+.+.+.+.X.X.X.+.X.+.X.{ X. .X.| | | |  .o. .| | [ | | ` ` | B W B P D B B I B N B M M M m m c M c m c c c x l v l v v l l k l l < g g g g h < , 6 < , , , , , , ; : , : : = : ; : ; ; ; o = = = o = o = o o o X o X o o o o   X o X X PX",
"PX                  . .       .     .   .   . . . . . O . + . . + . . + + O O + + O + + + $ + O $ $ + & $ $ $ $ $ $ & % & 4 & & 4 & 3 & 3 3 & e 3 3 5 3 5 e e 5 e i e 5 5 i i y i i i i i i i A A i A A a A A A A A Z Z Y Z a Z E Z Z i $ O r >.T v.v.nXnXMXVXVXZXCXCXCXCXAXCXCXCXCXVXVXVXVXVXbXVXmXmXS r O . + + q L e.i.i.p.p.p.p.i.p.p.p.p.p.p.p.p.i.i.p.i.p.i.i.i.e.r.r.q 0 9 q q 0 q 4X+X{.}..XOXoX*X*X*X=X*X=X*X=X*X*X*X=X*X*X*XoX*XoXoX#X<XU q 9 UXq q K S.S.C.C.C.Z.Z.NXZ.NXNXNXNXNXNXNXNXNXNXNXZ.Z.C.A.V.V.f.N.R H J @.0 w s <X#XXX&X=X=X-X-X:X>X#X1X1X1X1X1X1X1X>X1X>X:X-X=X*X=X=X;X;X>X@XU ,X:X-X=X;X;X-X:X:X>X1X1X2X2X2X2X2X2X2X2X2X2X2X2X>X>X:X;X&XXX@XU 1 ; 1 o.&.+.#.X.+.+.X.X.X. .X.X. .X.| X. .X.| | | | | | | | W | W W ` ` P P B W B N B B M D M F m D c c c c c c c h m l m l h l l l l l g < g g 7 < < < < < < , < , : , , : : : : : ; = : ; ; ; ; ; o # = o = # o o o o o o o X o o o o     X PX",
"PX              O       .     .   .   .   . . . .   . . . . . O + . O + . + + O + + + + $ + $ + $ $ $ $ $ % $ & $ & $ & $ & & $ 4 & > 3 3 3 3 3 3 3 5 3 y 3 y e e y y e i e i y i p i i i i i a A A i A v A A A A F F A Z Z Z Z a Y Z a $ $ r >.>.2.v.mXnXnXnXVXVXCXCXCXCXCXCXCXCXCXVXVXVXVXVXVXMXmXmXS r + . & + 9 L e.i.p.p.M.p.p.p.p.p.p.p.p.p.p.i.p.i.p.i.i.i.i.i.i.e.r.H 9 0 0 q 9 s H.+X|.|.OXOX.XoXoXoX*X*X*X=X*X=X*X*X*X*XoX*XoXoXoXoX#X1XH w 9 UX9 q K c.A.C.C.Z.Z.Z.Z.Z.NXNXZ.NXNXNXNXNXNXNXNXZ.Z.C.C.V.V.N.h.r.H t  .@ w s <X#X&XXX&X=X;X-X-X:X:X:X1X>X1X1X1X#X1X:X:X-X-X=X-X;X;X;X-X:X@XU ,X:X=X*X*X*X-X-X:X>X1X1X1X2X2X1X2X2X1X2X1X1X1X1X>X:X:X;X&X&X@XU w ; # o.&.#.+.#.X.#.X.+.X. .X.X.X. .X.|  . .|  .| | | | | | ` | ` W | ` W W B D B M B D M M M m M m c m c c c m x x m l m x l l l g g l l < g 6 g 6 , g < , , < < , , : : , , ; ; 8 ; ; = = = ; = = : = = o = X = X = = o X o o X o   o X X O PX",
"PX                  .     .     .   .   . . .   . . . . . . . + + . + . + . + + O + + O + $ + $ $ $ $ $ $ $ & $ & $ & 3 & $ & 4 & & 3 & 3 3 3 5 5 3 5 3 e e e y e y y y y i y i i i i i i a i A i A i A i A A A A Z Z Z Z Z Z Z Y Z a a + + S S >.,.v.b.nXnXnXVXVXVXVXCXVXCXVXVXVXVXVXVXVXVXVXVXnXmXmXT r + . 3 + q L u.i.p.p.p.p.p.p.p.p.p.p.p.p.p.p.p.p.i.p.p.i.i.i.e.e.r.q 9 9 9 q 9 q 4Xx.|.}.}..X.XoXoXoXoX*X*X*X*X*X*X*X*X*XoXoXoXoXoX.X#X#XH s 9 UX0 q L c.S.A.Z.C.Z.Z.Z.Z.NXNXNXNXNXZ.NXNXNXNXZ.Z.Z.C.C.V.M.M.c.r.H t O.@ s s 3X@XXXXX-X=X-X-X-X-X:X:X:X>X>X>X>X>X>X:X:X-X-X=X=X;X;X;X-X:X,XU 3X:X=X=X=X=X*X-X:X:X>X1X1X1X1X1X2X2X1X2X1X1X1X1X:X:X-X;X;XXX,XU w # : @.+.+.+.X.} +.+.X.X.X.X.o.| .. .o.X.| X.| | | | | [ | | W W ` | B B D P D B N B M B D M M D m F M c c m c m x l l l l l x h k l g h g g g 6 6 6 < < < < , , , 1 : : : : ; , : : ; , = ; = ; = = = = = = = o o o X X o X X = X o X o . X PX",
"PX                  .     . .     .   . . . . .   . . . + . . + . + . . + . . + + + + + + $ $ + $ $ $ $ $ $ $ $ $ $ & $ $ % & & & & & & 3 3 5 3 3 y e 3 y e e y y y e i y i i i y i i i i i i i i A A A A A A A Z Z Z Z Z Z Y Z Y Y Z a + $ r T >.2.v.b.mXnXnXnXVXVXVXVXCXVXVXCXVXVXVXnXnXVXVXnXnXmXmXZ 4 + $ 3 + 9 L e.i.i.p.p.p.p.p.p.p.p.p.p.p.p.p.i.p.i.i.i.i.i.i.e.e.~ H 9 @ 0 9 q q 4Xz.$X|.}..X}.oXoXoXoX*X*X*X*X*X*XoX*XoXoXoXoXoXoXoXOX<Xs 9 9 UXq t K m.S.C.Z.Z.Z.Z.Z.Z.Z.NXZ.NXNXNXNXNXNXNXZ.Z.Z.C.C.V.M.N.c.r.H J O.@ w s <X@X X&XXX=X;X;X-X-X-X:X:X:X:X:X:X:X:X-X-X=X=X=X;X;X;X;X-X-X@X[ 1X:X=X;X;X*X=X-X-X:X>X>X1X1X1X1X1X1X1X1X1X1X1X:X:X:X;X&X&XXX@XU w # ; &.o.+.#.+.X.X.+.#.X.X.X.X.X.X. . .| o.|  .....| | | | W | | | W W ` B | D N B B B M c M F m M m c m c v m h x l l v l l k h h l g l g g < g h 7 < < < < , < , , : 1 : , , ; ; = , ; : ; ; = = = = O o o X = = X o = = o o X o X X o X O IX",
"PX                O   .       . .   .     . . . . . . . O . . . . O + . + + + O + O + O + + + $ $ + & + $ $ $ & & $ $ % & & & & & & 4 3 3 3 3 3 3 3 3 5 e 3 y e e y y r i e i y i i i i i a a i A A n i i F A A F Z Z Z Z F Y Z a Z Z a + + r T T ,.2.n.nXnXnXnXnXVXVXVXVXVXVXVXVXVXVXVXVXnXnXVXMXmXn.S r O $ y . q L t.i.p.p.p.p.p.p.p.p.p.p.p.p.p.p.p.p.p.p.i.i.i.i.i.e.r.q 9 9 0 q 9 q +X$Xx.}.}.}..X.XoXoXoXoXoXoXoXoXoXoXoXoXoXoXoXoXoXoX#X#XU 9 0 UXq q K c.A.A.Z.C.Z.Z.Z.Z.NXZ.NXNXNXZ.NXNXNXZ.Z.Z.C.C.C.V.B.M.f.r.K a ! 1 s s <X X&XXX&X&X;X;X;X;X-X-X-X-X-X:X:X-X-X-X-X=X;X;X;X;X=X=X;X,X@XU 1X-X;X;X;X=X=X-X-X:X:X>X>X1X1X1X1X1X1X1X1X>X>X:X;X:X;X&XXX#X@XU w * 1 @.&.+.+.X.#.+.X.+.{ X.{ X...X. .X...X.| | |  .| { | | | ` W | ( D ( D B D M D B M B D m D G D m M c c m x x m x x h l x l l l k g g g g g 6 < < < g 7 , < , : , , : , : : , , = ; ; = = ; = ; = = = = = = o X = o o X o X o   o X O X X PX",
"PX                    . .     .   .   . .   . . . . . . . . . . + O + . O . + . + O + + O $ + $ + $ $ $ $ $ & $ $ & % % & & & & 3 % 3 & 3 & 3 3 3 3 e 5 e e e y e y e i e i e i i i i i i p p A i A A A A p A A Z Z Z Z Z Z Z Z a Y n a + O r T >.,.v.v.n.b.nXnXVXnXVXVXVXVXVXnXVXVXVXnXnXVXnXnXnXmXmXS r . + y + q L e.i.p.p.p.p.p.p.a.p.p.p.p.p.p.p.p.p.p.p.p.i.i.i.i.e.y.q 9 9 0 q 9 q 4Xx.|.|.}..X}..XoXoXoXoXoXoXoXoXoXoXoXoXoXoXoXoXoXOXOX<XK 0 0 UX0 q L c.A.C.C.Z.Z.Z.Z.Z.Z.Z.NXNXNXZ.Z.Z.Z.Z.Z.Z.C.C.V.V.M.N.N.L H J Q 0 w s 3X@X XXXXX&X=X;X;X=X=X=X=X-X*X=X=X=X=X=X=X;X;X;X;X;X;X;X;X,X,X[ 1X-X&X;X;X;X=X;X-X-X:X:X>X1X>X1X1X1X1X1X>X:X;X:X;X;X;X&XXXXX@XU k # ; &.o.#.#.+.X.+.{ +.X.X.X...X. .X.|  .| |  .|  .| | | ` W ` | | B D W P W B B D B B M m M m F M c m c c c m v l x v x l x l l l h g l g g 6 g g 6 , 6 < , , , , : 1 : : 8 ; : ; 8 , ; ; ; : = = = = = = o = o o = = o o X X = X X o X o   PX",
"PX          O     .       .     .   .   . . . . . . . . . O . + . . . . + + O + + + + + $ + $ + $ $ $ $ $ $ % $ $ $ & & $ 4 & % 3 % 3 & 3 e & 3 3 5 3 5 y e y e e y e y i y y i i y i i A A i i i i i A A A A A F Z Z Z Y Z Z Y Y Y a a + $ 4 S T ,.v.v.b.b.nXnXmXVXVXnXnXVXVXVXVXnXnXVXVXnXnXVXnXmXmXS 4 + + y + 9 L e.h.p.p.a.p.p.p.p.p.p.a.p.p.p.p.p.p.p.i.i.i.i.i.i.e.r.q 9 @ 0 9 q H G.x.|.|.}.}.}..X.X.XoXoXoXoXoXoXoXoXoXoXoX.XoX.X.X.XOX#XK 0 9 UXq r L t.S.A.C.C.Z.C.Z.Z.Z.Z.NXZ.NXZ.Z.NXZ.Z.Z.Z.C.C.C.B.M.f.u.r.H t Q 9 w s <X#XXXXXoX&X&X&X=X=X;X=X=X*X=X=X=X=X=X=X=X;X;X;X;X;X;X;X-X-X@XU 3X:X;X;X;X;X;X=X-X-X:X:X:X:X>X:X>X>X>X>X:X>X;X;X:X;X;X&XXX X@XU w * ; +.+.+.+.#.+.#.+.X.X.X.X.X. .X...o. .X.| X.| | | | [ | | W | | W | D B B B D N B D b M M M m m M c m c c c c m l v l v l l l h k l g g g 6 g 6 < g , < , < , , : : , ; , , ; ; ; = : = ; = = ; = = = = X o = o o X X = o o X X o X X X X PX",
"PX                O   .   . .     .   . .     .   . . . . . . O + . O + + O + + O + + O $ + $ $ + $ $ $ $ $ % $ & $ $ 4 % & & & 3 & & 3 3 & & 5 3 3 e e e y e y y y e e i e y i i i i i i i A i A i A A A A A F Z Z F Z Z Z Z Z Y a Z i + . 4 T T ,.,.v.b.b.b.S.nXnXnXnXnXVXnXVXVXnXVXnXVXnXnXnXmXmXmXS r . . y + 9 L e.p.p.p.p.a.p.a.p.p.a.p.a.p.p.p.p.p.p.p.p.i.i.i.e.e.y.H 9 9 0 q 9 q +X+X|.z.|.}.}..X.X.XoX.XoXoXoXoX.XoXoX.XoXoX.X.X.X.X#X<XH 0 9 UX9 q K m.N.C.C.C.C.Z.Z.Z.Z.NXZ.Z.NXZ.Z.Z.Z.Z.Z.C.C.C.V.V.M.f.N.r.H s E * w s <X@X XXXXX&X&X&X&X;X;X;X=X;X=X=X=X=X=X=X;X;X;X;X;X&X;X;X;X,X@XU ,X:X;X;X;X;X;X;X;X;X:X:X-X:X:X:X:X:X:X:X:X;X;X;X;X;X;X;XXXXX@XU k # ; +.#.+.+.+.X.X.X.X.X.X.X.X.|  . .| X. .o.| | | | [ | | | ` | | B B | W B B D B D B M m D M m M m m c c c c h l m x v l x h h k l g g g f 7 g < g , 6 < < < , , : ; , 1 : ; , , ; , ; ; ; = = = = = = o = = o = X X = X o X o o o   o o O PX",
"PX                    .       . .   .   . . . . . O . . . . . + . . . . + + + . + + + + + $ + $ $ $ $ $ $ $ & $ $ & & $ & & 4 % & & 3 & 3 5 3 3 3 5 5 3 e e y e y e i e y i y i i i p i A i p A i A A n z A Z A Z Z Z Z Y Z Z E Y a Z a + + r T >.,.,.v.n.b.b.b.nXnXnXnXnXVXnXVXnXVXnXnXnXnXnXnXnXmXmXS 4 + + u @ 9 L h.p.p.a.a.p.a.p.a.a.p.a.p.a.a.p.a.p.p.p.p.i.i.i.i.e.r.H 9 9 0 9 q q 4Xx.|.}.}.}.}.}..X.X.X.XoX.XoXoXoXoX.XoX.X.XoX.X.X.X#X#XH 0 9 UX9 q K c.S.A.C.Z.Z.C.Z.Z.Z.Z.Z.NXZ.Z.Z.Z.Z.Z.C.C.C.V.V.V.M.N.f.r.H t W 0 w s <XOX X XXX&X&X&X*X;X=X;X;X;X;X=X=X;X=X;X;X;X;X;X;X;X;X&X-X,X@XU 1X:X;X;X;X;X;X;X;X;X;X;X-X-X-X:X-X:X:X-X;X;X;X;X;X;X;X;XXX X@XU w # + &.+.&.#.+.X.+.X.+.X.X.X.X.X.X.X.o.X.| | |  . .| | | | | ` W ` | W D ` B D B N M D M M m D m m m m c c c m m m x h v x h x k l g h l g g g < g 6 6 , , < , , , : , : , : , ; = ; = : , = : = ; = O = = = o = X = o o o X o X X X o   X   PX",
"PX              .     .     .   .   .   . . . . . . . . . . O + + . . + + + + O + + O + $ $ + $ $ $ $ $ $ $ $ $ & $ $ & $ & & & 4 & > 7 4 & & 3 3 3 & y e e > e e e y i i 7 i y i i i i i i i i v A i A A A A A A Z F Z T F Z Z A Y A i + + r S >.>.,.2.n.n.b.b.mXnXnXnXnXnXnXMXnXMXnXnXMXnXnXnXnXmXqXS r $ $ e + 9 L u.p.d.a.p.a.p.p.a.a.p.a.a.a.a.p.p.p.a.p.p.i.i.i.i.e.r.H 9 9 0 q 9 q H.$Xz.x.}.}.}.}..X.X.X.XoXoX.XoXoX.XoX.XoX.X.X.X.X.XOX$XU 9 9 UXq q K r.S.A.C.C.Z.Z.C.Z.Z.Z.Z.Z.Z.Z.Z.Z.Z.C.Z.C.C.V.V.V.M.f.h.r.H t ! @ w U <X@XXXXXXXXX&X&X&X&X;X;X;X=X;X=X;X;X;X;X;X;X;X;X;X;X;X&X;X,X@XV 1X:X;X;X;X;X;X;X;X;X;X;X=X;X;X-X-X-X-X;X;X;X;X;X;X&X&X&XXXXX@XU w ; # &.+.X.+.#.X.+.X.X.X.X.| o. .X. .X.|  ...| | | | | | W ` W ` | D W ( P B D B W B B M F m M m M M c c m v m v c v v l l l l h l g l g g < 6 < < < , 6 < , < , , , : , : , , ; , = = , = = 8 ; = = = = = = o o o = X o = X X o o   X X X X PX",
"PX                    .   . .     .   . . . . . . . . . . . + . O + O . O + . + + + + + + $ $ $ $ $ $ $ $ $ % $ $ % & $ 4 & % & & & 3 & & e 3 3 3 3 y 3 e y e e y i y e i e i i i i i i A i A i A i A A A A F A Z Z Z Z Z Z Z Y Y Z Z a + + r S >.,.,.,.2.v.n.mXmXmXmXnXnXnXnXnXnXnXnXnXnXnXnXnXmXmXmXS 4 + + i + q L h.d.p.p.p.p.a.a.p.p.g.p.a.a.a.a.a.p.a.p.p.p.i.i.i.e.R H 9 9 0 9 q q 4Xx.|.}.x.}.}.}..X}..X.X.X.XoX.X.X.X.XoX.X.X.X.X.X}.$X<XH 0 9 UXq q K c.N.A.C.C.Z.C.Z.C.Z.Z.Z.Z.Z.Z.Z.C.Z.C.C.C.C.V.V.V.M.M.c.r.H a W 0 0 q <X@XXX XXXXX&XoX&X=X;X;X;X;X;X;X;X;X;X;X;X;X;X;X;X&X;X;X&X;X@XU 3X>X;X;X;X;X;X;X;X;X;X=X=X;X;X;X;X;X;X;X;X;X;X;X;X&X&XXX X X@XU w ; ; o.+.+.&.+.X.+.X.+.X.X.X.X.X...X.o. .o.|  .| .. .| | | | | | B | W D ` B D B D B D M m D m M m c c m c m v c h x v x x v v k g k g g g g h < 7 g g , < < , , , , , : , : : , : : : = = : ; = = o = o o = o = o = = X o o o o o o X O X O PX",
"PX              . O             .   .     . .   .   . . . + . . O + + . + . . + O + + $ $ $ $ $ $ $ $ $ $ $ $ & 4 & & & % & & 4 & & & & 3 3 e 3 5 3 > e e e e e y e i e i i i i i i r i z A A i A A i A A A A A Z S Z Z Z Z Z Y Y Z Y a O + r S T >.,.2.v.v.n.b.mXnXnXnXnXnXnXnXnXnXnXnXnXnXnXnXnXb.2.S 4 + + i + 9 L h.h.d.p.a.a.p.g.a.p.a.g.a.a.a.a.a.a.a.p.p.p.i.i.i.e.r.H @ 9 9 q 9 q G.$Xx.x.}.}.}.}..X.X.X.X.X.X.X.X.XoX.X.X.X.X.X.X.X}.OX$XH 9 0 UX@ q K t.S.A.C.Z.C.C.Z.C.Z.Z.Z.Z.Z.Z.C.Z.C.C.C.C.V.V.V.M.M.f.c.r.H a Q @ w U <X@X XOXXXXXXX&X&X&X=X&X;X;X;X;X;X;X;X;X;X;X;X;X;X;X&X&X;X,X@XU 1X:X;X;X;X;X;X;X;X;X;X=X;X;X;X;X;X;X;X;X;X;X;X;X;X&X&XXX X X@XU w # # &.+.+.X.+.X.X.#.X.X.X.X.X.X.X. .X.| |  .| | | | | | | ` | ` W | ` W B W B D B B B M m D G D M M m c c v c c m x v l l x l l k g g g g g < g < 6 , 6 < , < , , : , 1 : 8 , ; ; , ; ; : = = = ; = = = o = = o = X o o X o o X X   X o o X PX",
"PX            O       . . .   .   .   . . . . . . . . . . O + . . . . + + O + + + + + O + $ + $ $ $ $ $ $ % $ $ % % $ $ $ % & & & & 4 3 3 & 3 5 5 3 e > e e e y e y e i e i 5 y i i i i i i i i A i A A v A A A Z F F Z Y Y Z Z Z Y Z i + + 4 T T >.,.2.2.2.v.n.8XnXmXmXnXnXnXnXnXnXnXnXnXnXnXnXmXn.m.S r O $ e + 9 L u.p.d.a.a.a.a.p.g.g.a.g.a.a.a.a.a.a.a.a.p.p.p.i.i.e.r.H 9 @ 9 q q q ].x.|.x.}.}.}.}.}.}..X.X.X.X.X.X.X.X.X.X.X.X}.}..X.X#X#XH 9 @ UX9 q K t.S.V.C.C.C.Z.C.Z.C.C.Z.Z.Z.C.Z.C.C.C.C.C.V.B.V.M.M.M.f.r.H J W 9 w s <X X XXXXXXXXXXX&X&X&X;X&X;X;X;X;X;X;X;X;X;X;X;X;X;X&X&X,X,X].[ 3X>X;X&X;X;X;X;X;X;X;X=X;X;X;X;X;X;X;X;X;X;X;X;X&X&X&XXXXX X@X[ s + 1 o.+.+.&.X.+.+.X.X.X.o.X.X.|  .X.o.| o.| X. .| | | | | W | W | P ` ` ` B W B D N B M D m D F m M c M m m v v x v h x v l l l h l l g g g g < 6 g , 6 < < , , , , : , , ; ; , ; = ; ; = ; ; = = ; o = = = o = o = X X = o X o X o X . X   PX",
"PX                          .   .   .   . . . . . .   O . + . + + . + . + O + . + + + + + $ $ + + $ + $ $ $ & & $ $ % % & & & % 3 % 3 & 3 e 5 3 3 5 e 3 e e y e y e i e i y y i y i i i i a p A i A A A A A A F Z Z Z Z Z Z Y Z Z Y Z a + + r S T >.>.,.2.2.v.n.b.b.b.nXnXmXnXmXnXb.nXnXb.MXMXb.nXb.2.S 4 . $ i + q L h.h.p.a.a.a.a.a.a.a.a.a.g.a.a.s.a.a.a.a.p.p.i.i.i.e.r.q 9 9 0 q 9 H G.$Xx.}.|.}.|.}.}.}.}.}..X.X.X.X.X.X.X.X}..X.X}..X}.OX<XH 9 0 UX9 q K r.S.A.C.C.C.Z.C.C.C.Z.Z.C.Z.Z.C.C.C.C.C.C.V.V.V.M.M.f.c.r.H t W @ w s <X@X X XXXXXXXXXXX&X&X&X&X=X;X;X&X;X;X;X;X;X&X&X&X&X&X&X&X-X@XV 3X:X&X;X;X;X;X;X;X;X;X;X;X;X;X;X;X;X;X;X;X;X;X;X;X&X X&XXX X@XU 0 # ; +.X.&.+.X.#.X.X.X.X.X.X.o.X.o.X. .o.o.| | | | | | | | ` | | ` B W ` D D D D D M B M D D F m m D c M c c h c x x v x v l x h h l l g 6 6 6 g g g , < , < , , : , ; , , : : ; ; , = 8 : = 8 = ; = o = = o = o = X o = X o X o o X   X o   PX",
"PX              .   . .   . .     .   . .   . . . . . . . . . O + . . + + + + O O + O $ + $ $ $ $ $ $ $ % $ $ $ & & & & & 4 & & 3 % 3 & 3 3 3 3 e 3 3 y e e e e e y e i y i i i i i a i i i A p A i A i A F A A Z Z Z E E Z Z Z Y Z Z a + O r S >.>.,.,.2.2.2.n.b.b.b.b.b.nXb.nXnXnXnXb.nXb.b.nXb.b.4.S 4 + + e + 9 L h.p.a.a.a.a.a.a.a.a.g.a.a.s.a.a.a.a.a.a.a.p.i.i.i.e.y.H 9 9 0 q q q 4Xz.|.z.}.x.}.}.}.}.}.}..X}..X.X.X.X}..X.X}..X.X.X}.$X$XJ 0 @ UX9 9 K t.N.B.C.C.C.C.C.C.Z.C.Z.C.Z.C.C.Z.C.C.V.C.A.V.B.V.M.M.f.r.q t W @ s s <X@XXX{. X XXXXXXX&X&X&X&X&X;X;X;X;X;X;X;X;X;X;X&X&X&X&X-X,X@XV 1X>X;X&X;X;X;X;X;X;X;X;X;X;X;X;X;X;X;X;X;X;X;X;X;X&X&X%XXX XOX{ w # ; o.&.X.+.+.X.+.+.X.X...X.X. . ... .| X.|  .| | | | | | W | ` P | | D ( W P B N B D M M G D M F G M c m x m m h x v h v h l k l l h l g h g < < < 7 < < < < , , , , , 1 : ; , ; , ; ; = : = = = = = = = = X = = o X o o X o X X o o X X X PX",
"PX                O .                 .   . . . . . . . O + . . . . . O + O + + + O + + $ + $ + $ $ $ $ $ $ $ $ $ $ $ 4 % & & $ % 3 3 & 3 5 3 3 3 y 5 e e > e y y y i y i y i i y i i i a A i A A i A A A A A A Z Z Z Z Z Y Y Z Y J Z a + . 4 T S >.,.,.2.,.2.v.b.b.b.b.b.nXb.nXnXb.nXS.b.b.nXb.b.b.m.S 4 + $ i + q L h.g.a.a.a.a.a.a.s.a.s.g.s.s.s.s.a.a.a.a.p.a.p.i.i.e.y.H 9 9 9 q q q +Xx.x.}.x.}.}.}.}.}.}..X}.}..X.X.X.X}..X.X}..X}.}.}.OX$Xs 0 9 UX@ q K r.N.A.C.C.C.C.C.C.C.Z.Z.Z.Z.C.Z.C.C.C.V.V.V.V.V.M.M.f.c.r.H J E @ w s <X X X XXX XXXXXXXXX&X&X&X&X;X&X;X&X;X;X;X&X;X&X&X;X&X&X&X@X XU 1X:X;X;X;X;X;X;X;X;X;X;X;X;X;X;X;X;X;X;X;X;X;X&X&X&X XXX X X@X{ w + : +.+.&.+.+.X.X.+.X.X.X.X.X.X. .X.X.|  .| X.| | | | | | W | W ( W B W P B D B B B M M D M M M m M m c c c m x m l x x l v l h l l g f g g < g 6 g g , < < , , , , : , , : , ; ; ; , = ; ; = : = = o = o X = o o X o = X o X o X   X o o O PX",
"PX                      . .   . .   .   . .   . . . . . . . + . O + + . . + + . + + + + + $ $ $ $ # $ $ $ $ & & $ & $ % & & & 4 3 & & 3 & 3 5 3 3 3 3 5 e e y e e y e i e i i e i i i i A i i A A A A v A A Z Z Z Z Z Z Z Z Z Y Z Y J a + + r S T >.>.,.2.2.2.2.v.v.b.b.b.b.b.b.mXmXnXb.b.MXb.b.b.n.2.S * O $ i + 9 L h.h.a.a.a.g.a.a.s.s.g.s.s.s.s.s.s.s.s.a.a.a.p.i.i.e.r.H 9 9 9 9 q q G.+Xx.x.x.}.x.}.}.}.}.}.}.}..X}.}..X}.}..X}.}..X}.}.$X$XH 0 9 UXq 9 K v.N.B.C.C.Z.C.Z.C.Z.C.C.C.C.C.C.C.C.C.C.V.V.V.M.V.M.N.N.r.H s E @ w s <X$X X X X X XXXXXXX&X&X&X&X&X&X;X;X&X&X&X&X&X&X&X&X&X&XXX,X].V 3X,X;X&X;X;X;X;X;X;X;X;X;X;X;X;X;X;X;X;X;X&X&X&X&X&X&X X X X@XU w o # &.X.X.+.#.+.X.X.X.X.X.X.o.| X.X.o.| | o.| |  .| | | | ` ` W | | B ` D P D D N D D D m M M M M c M m m x x m x x l v v l l k h l g g g g g g 6 , 6 g 7 , < , , : , , : , , ; , ; ; ; ; ; ; = = ; = = = = o = X = o X o X = X o X O X X   PX",
"PX                  .     . .   .     . .   . . . . . . O . O + + . . + . + + + + + + $ O $ + $ + $ $ $ $ % $ $ % & & $ & & & & & & 3 3 3 e 3 5 e & e y e 5 e e e y e e y y r i p i i i i i z i i A A A A A A F F A Z Z Z Z Z J Y Z Y a + + r S >.>.>.,.,.2.2.2.v.v.b.n.b.b.c.b.nXb.b.b.b.nXmXmXb.n.1.T $ $ * r @ q L h.g.a.a.a.a.a.s.s.s.s.s.k.s.g.s.s.s.s.a.a.a.d.i.i.e.r.H 9 9 0 q 9 q G.[.|.x.}.x.}.}.}.}.}.}.}.}.}.}.}..X}..X}.}..X}.}.}.OX<XH 9 9 UX0 q K r.S.B.A.C.C.C.C.C.C.Z.C.Z.C.C.C.C.C.V.V.B.V.B.B.M.M.N.c.r.K K U 0 0 s <X@XXX X XXX XOXXX&XXX&X&X&X;X&X;X&X;X&X;X&X&X&X&X&X&X&X,X,X].U 3X-X;X&X&X;X&X;X;X;X;X;X;X;X;X;X;X;X;X;X&X;X&X&X&XXXXXXX X X@X^ 1 o ; X.+.+.#.X.X.#.X.X.X. .X.X.X.o. .| X.| | |  ...| | ` | | B | | D W P B D B B D D N B m M m m M M M c c c c c x h x l l v l h l h k h g g g f < 6 6 , , , < , , , , : , : ; , = : ; ; = ; ; ; ; = = = = o = X o = = O o X o X o X o o   X PX",
"PX                .   .       . .   .   . . . .   . . . . . + . O . + + + + O . O O + + + + $ $ $ $ $ $ $ $ % $ $ & $ & $ 4 & & & & 3 & 3 & 3 e e e e e e e e y i e i i y i i y i i i i i A A A A i i F A A A A A Z Z Z Z Z Y Z Y a Z A + . r S T >.>.>.2.,.2.2.v.v.n.n.b.b.b.b.b.b.b.MXS.nXmXb.n.n.2.S $ + + r + q L u.h.a.s.a.g.a.s.g.s.l.s.g.g.k.l.s.s.s.s.s.a.p.p.i.e.r.H 9 @ 9 q q q +Xx.|.}.x.}.x.x.}.}.}.}.}.}.}.}.}.}.}.}.}.}.}.}.}.}.|.$XH 0 9 UX9 0 K r.S.B.C.C.C.C.Z.Z.C.C.C.C.C.C.C.C.V.V.C.V.B.B.B.M.M.N.u.r.K t F * * s <X@XXX X X X X XXXXXXXXX&X&X&X&X&X&X;X&X&X&X&X&X&XoXXX&X&X,X[.U 3X,X&X&X;X&X;X&X;X;X;X;X;X;X;X;X;X;X&X;X;X&X&X&X&X&X X X X X@X[ w # ; o.#.+.+.+.X.+.X.+.X.X.X...X.X.| X. .| o.| ..| | [ | | ` ` | B | ( D W B P D D N D M F D D m M m c m m c c c m x l x h v x h l l l g g g g < 6 < g < 6 < , < , > , , ; ; , ; ; ; 8 = : ; ; = = = o = X = o = o X = X X o X o X o   X X o PX",
"PX                    . .         .   . . . . . . .   . . + . . + . + O O + . + + + + + $ + + $ $ $ $ $ $ $ $ & & $ & $ * & & & 4 & & 3 3 e 3 5 e e e e e y 3 y e e e y i y i i i i i a i i A i v A A A A A A Z Z Z Z Z Z F J Y Y a Y n + . r S S >.>.,.,.,.2.2.v.v.n.b.b.b.b.b.b.b.b.b.b.b.b.b.n.n.2.S * $ + y + q L h.p.a.a.s.s.a.s.g.s.g.l.s.k.g.k.s.s.s.s.a.s.d.p.i.e.r.H 9 9 9 q 9 q G.+Xx.x.x.}.}.}.x.}.x.}.}.}.}.}..X}.}.}.}.}.}.}.}.}.$X$Xt 0 @ UX9 0 K r.N.B.V.C.C.C.C.C.C.C.C.C.C.C.C.C.C.C.V.B.B.B.B.M.M.f.c.r.H J n * @ 1 <X@X X X X X X XXXXXXXXX&X&X&X&X&X&X&X&X;X&X&XXXXX&X&X&X X,X].U ,X,X&X=X&X&X&X;X;X;X;X;X;X;X;X;X;X;X&X&X&X&X&X&X&XXXXX X X X+X^ w # # o.X.#.+.#.+.X.X.X.X.X...X.| X.X.| ..| X.| | | | [ | | ` P | D P W ( ( B D B D B M M G D M m m M c c c c v v h x x v l x h k l h g g g g g f 6 , 6 , , , , , , 1 , , , 8 = , ; ; = : = = ; = = = = o = = o o = X o o o o X o o   O X X o PX",
"PX            O   .       . .   .   .     . .   . . . . . O + . . + . + . + + + + + + + + $ $ + + # $ $ $ $ $ $ $ & $ & & 4 & $ & & 3 & & 3 3 3 e e > e e e y e r y e i y i e i i i i i i A i i A i i A A A A F Z Z Z Z Y Z Y Z Z Z Z a + + 4 Y T T >.>.,.,.2.,.v.v.v.v.n.n.b.b.b.b.b.b.b.b.b.b.n.n.2.S 4 & + y + 0 K h.g.a.g.g.a.s.g.s.s.k.g.l.l.k.l.s.s.s.s.a.s.a.p.i.e.y.H 0 9 9 q q s H.x.|.x.}.x.x.x.}.}.}.}.}.}.}.}.}.}.}.}.}.}.}.}.}.}.|.$XH 0 * G.y q K r.N.V.V.C.C.C.C.C.C.C.C.C.C.C.C.V.C.V.V.B.B.B.M.M.M.M.N.r.H s E # ; s <X X[. X X X X XXXXXXX XoXXX&X&X&X&X;X&X&X&X&X&X&X&XXXXX-X-X].V 1X:X-X&X=X=X&X&X&X&X;X;X;X&X;X;X&X&X;X&X;X&X&XXXXXXX XXX X X X{ w # + &.+.} X.X.X.X.X.X.X.X.X.X.X.| X.X.| o...|  .| | | ` | W [ ` | D ` W D B D B D B F B D M M m m c m c c c c c x x v l l l l l l l g l < g g g < g , 6 , < 6 , : , , , : , : : , ; : = = : = = ; o = = = o = o = X X o   X o X X o X o O X PX",
"PX                  .     .     .   .   . .   . . . . . . . . . + + . + O + + O O + + + + $ + $ $ $ $ $ $ $ $ $ & $ + & & & $ 4 & & 3 3 3 3 3 3 & e e y e e e y i y e y y i i i i i i i i n i A A A z A A A A F Z Z Z Z Z Z Y Y Y Z Z A + . 0 S T T >.,.,.,.,.2.,.v.v.v.v.v.n.n.b.b.b.b.b.b.b.b.n.2.4.S 4 y . * + q L h.k.d.a.s.g.g.g.g.l.g.g.l.l.l.l.l.l.g.k.s.s.d.p.i.e.r.H q 9 q q q 9 G.x.x.x.}.}.x.}.}.x.}.}.x.}.}.}.}.}.}.}.}.}.}.|.}.|.|.+XH @ @ UX9 q K r.N.A.A.C.C.C.C.C.C.C.C.C.C.C.C.V.V.B.B.B.B.M.M.M.M.N.u.r.H a F @ w s <X@X[. X X X X XXXOXXXXXXXXX&X&XXX&X&X&X&X&X&X&X&X&XXXXX&XXX].U 3X,X&X&X&X;X&X&X&X&X;X&X;X;X&X&X;X&X;X;X;X&X&X&XXXXXXX X X X@X} # + ; &.+.X.+.X.+.+.X.X.X.X.X.X. .| X.X.| | | | | | | | [ ` [ | ` W ( D B D B N D B D M M D m m m M m m c c c x x h m v v l l l l l h l g g g g < < < g , < , < , , , , : ; , ; ; 8 , ; = : ; = = = = o o X = o o = X o o o o X o   o   X o   PX",
"PX                    .     . .   .   . . . . . O   . . . + . + . . O + + + . + + + $ + $ $ $ $ + $ % $ $ $ & * $ $ & & & & & & 3 & 3 & 3 & 5 e e e e e e e e y y y e i i y e i i i i p i i A i i i A A A A A Z Z Z n A Y Y a Y Y Z Z A + + * S T T >.>.,.,.,.,.2.r.2.v.v.v.n.n.n.b.n.n.b.b.c.b.n.2.1.S 4 F . + + 9 L h.g.g.g.s.g.s.s.l.l.l.l.l.l.l.l.l.l.k.k.s.k.a.d.i.e.r.H 9 9 9 q 9 q +X+Xx.x.x.x.x.x.}.}.}.}.}.}.}.}.}.|.}.}.}.}.}.}.|.}.$X+XJ @ @ G.9 q K r.N.N.B.A.C.C.V.C.C.C.V.A.C.V.A.A.B.B.B.B.M.M.M.M.M.f.N.r.K 0 F @ w s <X@X X X X X X X XXXXXXXXX&X&X&X&X&X&X&X&X&X&X&XXXXXXXXXOX,X].U 3X,X&X&X*X&X&X&X;X;X&X;X;X;X;X;X&X;X%X&X&X&XXXXXXX XXX X X@X@XU w + # o.o.+.#.+.{ X.#.X.X.X.X...X.X.o.|  .|  ...| | | | | | D B | | D | B D D D B D B D N M D m F m M c m m x c x x v x h x l l l l l l g g g g < g 6 < < < < , < , : : , , ; ; , ; = : = = 8 = = = = = = = o X = o o X o o X o X o X o X X X PX",
"PX                . .   .       .   .   . . . . . . . . . . . O + O + . + . . + + + + + + + + $ $ + $ $ % $ % % & $ & & 4 & & & 3 & & & & 3 3 5 & e w e e w y e e i e i y i y i i i i i i A i A v A A A A A A Z Z Z a Z a Y Y A Z Y Y a + . * S S T >.>.>.,.,.,.,.2.v.2.v.v.v.v.n.b.n.b.b.b.b.n.n.2.,.S $ F . $ + q L u.h.d.s.g.s.s.g.g.l.l.l.l.l.l.k.l.k.l.k.s.k.d.d.h.e.y.H 9 9 9 q q q G.$Xx.}.x.x.}.}.x.x.}.x.}.x.}.}.x.}.}.}.}.}.{.|.OX}.$X$XH 9 * UX  9 H r.N.N.B.A.V.V.C.B.C.V.V.B.B.B.B.B.B.B.B.M.M.M.M.f.M.t.c.r.H t D * @ u <X@X X X X{. X X X XXX XXXXXXXXX&X&XXX&X&X&XXXXXXXXXXXXX&X@X].U <X@X-XXX&X&X&X&X&X&X&X;X&X&X&X&X;X&X&X&X&X&XXXXXXXXXXXXX X@X@XU # + + o.@.#.X.#.+.#.{ X.X.X.| X.o.X.| ..| ..| o.| ..| | | | | ` | W | D | W B D N D D M M m M m M M m c c c m m v x h x v h l l l l h g g g g g g < < , < , , < , , : , 1 : , , : ; ; ; , : = ; = = = = = = o = o = X X o X o X o X o X X O X PX",
"PX                      .   .     .     . .   . . . . . . . . . . + . + + O + + O + O $ $ + $ $ $ $ $ $ $ $ $ $ $ & $ & * & & & & & 3 3 & 3 3 & e e & e e e y y e e y e i y i i i i i a i i i i i A A A Z A A Z Z Z Z Z Y Z J Y Y Y Y t + . + r S S >.>.>.,.,.,.,.2.2.v.v.v.v.v.n.n.n.n.n.n.n.v.v.2.<.4 O 7.. & + q L h.l.g.s.s.g.k.l.l.l.l.l.l.l.l.z.l.k.k.l.k.k.d.d.i.e.r.H 9 9 q 9 9 9 D.+X+Xx.}.}.x.x.}.x.}.}.}.}.}.}.}.}.}.x.}.}.}.|.{.|.+X3Xq 9 & G.+ 0 J R c.M.B.B.B.B.B.V.V.V.V.B.B.B.B.B.M.M.M.M.M.M.M.N.f.N.c.r.H s F # w * 3X].].[. X X X X X XXXXXXXXX&XXXXX&X&XXX&X&X&X&XXX&XXXXX#X,X].U 3X,X&XXX&X&X&X&X&X&X;X&X=X&X;X;X&X&X&X&X&X&XXXXXXXXX X X X].4Xk + # # o.&.X.+.+.{ +.X.X.X.X.X.X.| X.X.X.o. .| | | | | | | | D W ` ` B D B D D D D B B D M D M M m F M M c c h c v v x v v x l h k l l l g 6 g g < < h 6 , < < , , , : : : : , = ; , ; ; ; = ; = = = = = = o = X = = = O o o X o   o   X . X   PX",
"PX                  .       . . .   .     . . . . . . . . . . . + . + . + + + + O + + $ + $ + $ $ + $ $ % $ $ & & $ $ & $ & $ 3 & & & & 3 3 & e & e & e e e y e y e p e r y i i i i i i i a a A A A A A A A Z Z Z Z Z Z Y a Y Y Y Y Y A + . + * S T T >.,.,.,.,.,.v.,.v.v.v.v.v.n.n.n.n.n.n.v.v.2.T r 4 . F + i + 9 K h.g.s.s.s.g.g.l.l.l.l.l.z.z.z.z.l.l.l.l.k.l.a.d.h.e.r.H 9 9 0 0 9 @ s U x.|.x.z.}.|.x.}.}.}.x.}.}.}.}.}.x.}.}.}.x.}.|.$X+X^ 0 @ 9 G.5 e H r.c.N.B.B.B.B.B.V.V.V.M.B.M.B.M.M.M.M.M.M.M.M.f.f.t.t.c.r.H t n + # w s *.].@X X X X X X XXX X&XXXXXXXXX&XXX&X&X&X&XXXXXXXXXXX X&X].s 3X,X;X&XXX&XXX&X&X;X&X&X&X&X&X;X&X&X&X&X&XXX XXXXX X X,X].4XU # # o o o.+.+.#.X.} X.X.X.X.X...X.X.| X.| | | o.| | | | | | | ` W ` D | B P D B D M D B D m D m m m F G m c m v x x m v x l x x h k l h l 6 g g < g g 6 , g , , 7 < , , : , , , : ; = : = ; ; = = = O = = = = o o = X = o X o X o o   o o   X o PX",
"PX                  .   .         .   . . . . .   . . . . . . . + . . . O + + O + + + $ $ + $ $ $ $ $ & $ $ $ $ $ $ & & 3 & & 3 & & & e & 3 3 3 e e e e & e e y e e e e i y e i y i i i i i i i A i i A a Z A Z A F Z Z Z Y Y a S J Y a + . $ 4 r S T T >.>.>.,.,.,.v.2.v.v.v.v.v.n.v.v.v.v.n.,.4.T r $ 2 F . p + 9 L h.g.g.g.g.l.g.l.g.l.l.l.l.l.z.l.z.z.l.z.k.l.s.d.i.e.y.H 9 9 9 q 9 @ 9 q j.x.$X|.|.|.|.}.x.}.}.}.}.|.}.|.}.}.}.}.}.|.|.<Xj.s 9 + + G.9 9 H r.c.N.M.B.M.M.B.V.M.M.V.B.M.M.V.M.M.M.f.M.f.N.t.N.f.t.t.r.q 0 l + * @ s U } @X@X]. X X X XXX XXXXX&X&XXXXX&X&X&X&XXXXXXXXXXXXX X@X].U ,X,X X&XXXXX-X&X&X&X&X;X&X;X&X&X&X&X&XXX&X&XXXXX X X@X@X4X4Xw W O # 1 o.#.+.{ #.{ X.X.X.X. .X.o. .X.| X.| | ..| | | | ` | | | ` | [ B ` D D W D D D M m D M M M m M D m c m m x m l x h v h l l h l g g g g g < g 7 < 6 , , < < , , ; , ; : ; ; : , ; : = ; ; = : = = = = o = = X o o o o X o X   o X X o X   PX",
"PX                    .   .   . .   .   . . . . . .   . . . . . . + . + + + + O O + $ O + + $ + $ + $ $ $ $ & $ $ & $ % % & & & & 4 & 3 e 3 3 3 w & e e y e y e p e y e e i i i i i i i i i a A A A A A A A A Z Z Z a Z Z Z Y Y Y Z Y a + . $ $ 4 S S >.>.>.,.,.,.,.r.v.v.v.v.v.v.v.v.c.v.2.,.T T r 4 + 4 i @ e + q L H.h.g.g.g.g.g.z.l.g.z.l.z.z.z.z.z.z.l.l.l.l.g.g.i.e.r.q 0 9 0 0 + @ * @ q <Xz.|.x.|.|.|.|.|.}.}.}.}.}.}.}.|.}.}.}.|.$X^ q 0 + 0 + I 0 r H r.N.N.M.B.M.B.B.V.V.V.M.M.M.M.M.M.M.M.N.f.N.t.N.t.f.t.t.r.H 0 & @ # + @ @ s ].]. X X X X X XXXXXXXXXXX&X&X&XXX&X&XXXXXXXXX&XXX&X@X].s 3X,XXXXXXX&XXXXX&X&X&X&X=X&X&X&X&X&X&X&X&X X&X X X X@X<X0 w ; > v o o X.X.#.{ } } X.X.X.X...X.o.X.X.o. .X.o.| | | | | | ` D | | D D D | B ` B D B D M D D D m M M m c c c c v m h v v l x x l k l g g g g g g g f < < < < , < , , , , : , , ; , ; : = ; 8 ; ; = = = ; = = = X = X = = X X o o X o X     X O X PX",
"PX              .         .       .   .   . .     . . . . + O . + O + . . . + + + + + $ + $ $ $ $ $ % $ $ $ $ $ & $ 4 & & & 4 $ & & & 3 & 3 & 3 e e & e e y e y r y e p y e i y y i i i i i a i i i F i a A A Z Z Z Z Z Y A J A a a Y Z + . O O $ 4 S S T >.T >.,.R ,.,.v.,.2.v.v.v.n.v.2.2.,.T r 3 r & * p . i + 9 L H.g.g.g.g.g.l.g.l.g.l.z.z.z.z.l.z.z.z.z.l.l.s.g.i.e.r.H 9 9 9 0 @ . & 0 q 4X<Xx.|.|.|.|.|.|.|.}.|.}.$X|.|.$X|.|.|.}.+X^ 9 0 . + + 1.9 q K R N.M.M.M.B.V.M.M.V.M.M.B.M.V.M.M.M.M.M.f.f.N.f.f.t.f.c.y.H 9 y # . + w + 9 4X<X].].]. X X X X@X X X,X X XXX,X XXX,X X X X X#X@X,Xj.s 3X,X X,X X@X&X,X:X&X-X,X,X-X,X-X,X,XXX,XXX,X X X,X].@X<Xs * 1 6 6 o o w.X.X.#.X.{ +.X.X.X. .X.X.| | ..| | | ..| | | | | | | ` D | D | D B B D D D D D M M M M m m c M m c c m x x x v v l l l l h k l g g g g g < h < , g < < : , , ; , : , , ; ; ; = ; = ; = = = = o = = o = o = X o o o o X X o X o X o X   PX",
"PX                    .   .   . .   .   . . . . . . . O . . . + . + . + . + + + + + + + + + $ $ $ $ $ $ $ % & & $ & $ $ & 4 * & & & 4 & & e 3 3 & e e & e e y e e e i r i y i r i i i i i i i A A i A A A A Z A Z Z Z Z Y Z J Z Y Z Y t @ + .   O 4 r S T >.>.>.>.,.2.,.2.v.1.n.n.m.n.n.m.4.,.S * $ e . . + % ! 9 q L h.g.g.g.l.g.g.g.g.l.g.z.z.z.z.z.z.l.z.l.g.l.g.g.i.e.r.H q 9 9 q @ + @ + 9 ^ H.+X<X+X$X+X+X$X$X$X{.$X$X+X$X$X$X+X$X$X+Xs 9 + @ @ @ G.0 r K r.N.M.V.V.V.V.M.V.V.M.V.M.V.M.M.M.M.M.f.M.f.f.f.f.f.t.c.m.K q 0 * . . # . + V } ].].].@X@X@X@X,X,X&X,X,X,X,X,X,X,X,X,X,X,X,X,X,X4Xw s } 4X,X,X@X@X@X@X@X,X@X@X@X@X@X@X@X].@X].@X@X].@X].].].+.@ # 1 o   o 1 o.X.#.+.+.{ { X.X.{ X.X. .X.X.o.| o. .o.| | | ` | | W | ` W D | D P D D D D M M m D D m D m m m c c m h c c x h v x l h k h l g g g < g g g < < < < , < : < 1 , , ; : = = , = : = : = ; = ; o = = o = o o o = o o O o o   o   o X   X X PX",
"PX          O         .       .   .   .   . . . . .   . . . . . + O + . + O + . + O $ + + + $ + $ O $ $ $ $ $ $ $ $ & & & & & & & & & & 3 & 3 3 e e e e e y e y y y y e e i p i i y i i i i A i A A A n a A A Z A Z a Z a Y Y Y Z Y Y t r * . . . + 4 r S S T S T T >.>.>.>.>.,.>.>.T >.>.>.T 4 + + . + + @ p ~ 9 q L h.h.g.g.V.g.g.g.g.g.g.g.g.g.l.g.l.l.l.g.l.l.g.g.f.e.r.H 9 9 q q q @ + + @ s } j.j.j.j.} j.j.j.j.j.j.j.j.j.j.j.*.j.j.@.0 + * + 0 0 G.q r K r.c.h.M.M.M.M.V.M.M.M.M.M.M.M.M.M.M.f.N.M.f.t.f.t.t.t.r.y.K q 0 * + &   & . @ s { *.*.{ *.*.*.*.E.j.E.j.].&.*.].*.].].*.*.&.].j.[ 1 1 k { *.*.j.*.*.*.*.*.*.*.*.*.#.*.*.*.#.*.*.*.#.{ { { { w # ; w X X # # X.X.X.#.{ X.} X.X.X...o.| X.| | X.| | | ..| | | | ` ` ` | ` ` D D D D D D D D D F m m M m m c m m c c c h c v m x h l x l l g l l < < f < g < < < , < , , , , : , : : , : = : = = , = ; = o = = = = = X = X o o X o o X X X X o   X     PX",
"PX                .     . .     .   .   . . . . . . . . . . + . . . + . + O O + + + + $ $ + $ $ + $ $ $ $ $ & $ $ & $ & & 4 & & & 3 & & & 3 3 & & w e e e e e y e e y y r y y i i i i i A i A i i i A i A A A Z Z Z Z Y E Y Z a a J Y T a t + . . .   O % + $ 4 + + X O $ $ $ $ 4 * * * $ * O O . . + $ 0 ! G.t 9 q L u.i.i.p.i.i.p.p.p.i.i.p.i.f.p.i.p.p.i.p.f.i.i.i.h.e.y.q 9 9 q D.@.q 9 + + . + @ @ + @ @ @ 9 9 9 9 @ 9 9 9 9 9 @ @ + + + 0 + 9 ! ! t 0 9 H R c.S.N.N.N.N.N.N.N.N.N.M.f.N.t.N.f.t.c.t.t.t.t.t.t.c.r.L q 0 t t W w + + . + + @ * - X # w @ 1 ; 1 1 * * 1 1 1 w * ; * 1 1 # # # o = X 1 # * # X ; # ; - ; ; # = 1 ; # = o # + - . ; # + o o o o . ; ; o.X.{ X.{ #.X.+.X.X.{ X.X.X.X. .X.|  .| | | | | | | | | ` W ` D ` D D D D D D M D M D m M M D G m m m c c c c c h l l x l h h h l l g g g < g < g , 6 g , , , , , 1 : = , ; ; , = ; = = : = ; ; = = o = o = o = X = o X o X o     X . X X   PX",
"PX                  .       .     .   . . .   . .   . . . . O + . + . + . + . + + O + + + $ $ $ * + % $ $ $ $ & $ $ & & * $ & & & & 3 3 & 3 3 & e e e & e e y e y e y y i y i i i i i p A i i A A A A A a A Z Z Z Z Z Z Y Y Y Y Y Y Y Y Y A @ + + . . . + O . + + . . O . . . + + $ + + + . . + + + + 9 J G.G.q 9 9 H u.e.f.f.i.h.f.h.f.h.h.f.h.N.h.h.f.h.h.h.h.h.f.e.e.u.~ q @ q H F.y.K 9 + + . $ + * . + + + * 0 4 @ + @ * * @ @ + $ 4 * $ + 9 q 1.J q 0 @ q L m.u.c.c.S.c.c.c.c.c.c.c.c.c.c.c.c.c.t.c.t.t.c.r.c.r.R K q 9 p Q U W * @ # + > @ % # ; ; + * * * @ * # ; # ; ; * 1 # > @ 1 > * ; ; = = 1 ; # + = X # # - ; ; ; = = ; = = = ; # = : o o # o o O o   o k &.X.X.} { +.X.X.X.X...X.X.X.| o...X...| o.| | | | | ` | ` | ` [ D ` D D D D D D M D M D M m F m m c m m h c v c x v v h l x k k h l g g g g < f < < < < , < : < , : : : : 8 ; ; ; ; ; ; : = = = = = o = = = o X = o o o X o X o o X X X   o IX",
"PX                      .       .   .   . . . . . . . . . + O . . + O + + . + + + $ $ + $ + $ $ + $ + $ $ & $ $ & $ $ & & & & 4 & 4 & & & & 4 & e e e e & y e y e e r e i i e i i i i S i A A i i A A A A A A A Z Z Z Z Z Z Z Y J Y Y T Y a @ @ @ + + @ @ @ + . + @ @ + + @ @ @ + @ @ @ @ + + @ @ @ 9 t ! G.~ q 9 9 H y.u.u.u.u.u.u.u.u.u.u.u.F.H.H.H.H.H.H.H.H.H.u.F.u.y.K r @ 9 H y.u.K H r 4 e 4 4 e 4 4 r r r r r r r r r r r r r C r r r r J 1.K T 0 @ * 0 H y.m.u.m.m.F.m.m.m.u.c.m.y.m.u.m.y.m.r.y.r.m.r.y.1.1.K q q 9 q D.U W b p p p u z v 7 6 7 u u u w > > > > : 1 1 1 : > ; 1 1 < < > < , : 1 < # i 1 1 u 7 1 1 < < 1 1 , g 1 , 5 6 w & 1 > : , ; 7 : , 1 M { X.} { { { X.{ #.{ X... .X.o. .X.| X.| | | | ..| | | | D | ` ` D W D ( D B D M B m D D m M m m G m M c c c c c c h l v v l h l l l l < 6 6 < < < < < < 7 , , 7 , , : , , ; = : : : = = = = = ; = - o o = o = = o X o o X   o X X   o   X X PX",
"PX            . .   . .     . .   . . . . .   . . . . . . . . + + O + . . + + O + + O $ $ + + $ $ $ $ $ $ + $ & & & & $ & & & * & & & e & 3 3 3 e & & e e e y e y e e i e i i i i i i i i i i A A A i A A A A Z Z Z Z Y Z Z T Y S Y Y Y Y Y 0 0 p i i a a p p p p a a a a a n a E Z a F n J F Y E Z A t 1.q 9 q q q H H H L H L L L L H L L L L L H H L L H L H L L L H q q 9 @ 9 q F.H.y.^ t 4 i S r r S e S S t S t J S Z S Y >.F T >.T T T Y >.m.G.1.0 + A 9 9 q H K K H L H K K K K H H H H H H H H H H q q H H H q q @ 9 0 @.G.G.O.I x u 7 & O X o o o @ . + + O o . # + # = o + o > # ; O ; ; : g w 1 < y w w u A u k z D k l x D c M F D z n n u w : : < X - o.7.o.X.{ } } { X.X.X.X.X.X.X...X.| .. .| o.| | | | | | | ` | ` W ` D ( D D W D D D D D m M D m m m F m m c c c h c v v x h l l l l l h g g g 6 h g < h , , < , , , : : , : ; 8 : : ; = ; , : = ; ; = = o = X = o X X = X o X o o X X o O X X   PX",
"PX                  .   .   .   . . . . . . .   . . . O . . . . . . + . . + + . + + + + + $ $ $ $ $ $ $ $ & & $ $ $ & & $ 4 & & & & & & 3 & e 3 e & e e 3 e e y e i y e e i i i i i i i i i A A A A v A A A A A Z ! Z Z Y Z Y Z Y Y Y Y A Y y y e & e & & & w e 0 0 e 0 0 0 0 e @ @ @ @ @ @ @ @ @ @ t Z E @ 9 @ q q L H L L L L L L L L L L L L L L L L L L L L H L L L H q @ @ 9 H F.F.y.1.! r F <.<.<.<.7.1.7.0.1.0.0.G.0.G.0.0.G.G.m.G.0.0.D.D.<.t r * A + r 9 9 H K K L L L L L L K K L K H K K K K K K K K K K K q q @ 9 s D.&.G.Q n n W F F F F c c F F M F F D M M D D F F M D c W D | | 7.7.8.w.w.w.w._.w._.w._.w.G.w.w.w._.w.w.w.q.w.w.w.7.7.o.7.o.D 8 v 7 m o.+.X.&.{ +.#.#.X.X.X.X.X.X. .X.| | o.X.| | | | | | ` | ` ` | D | ` B ` B ` M B D D m D m D m m m m m c c c h c h v c h v v h h l g g l f < g 6 < < 7 < < < , , : , : : , ; ; , = ; ; ; = = = = O = o = = = o = o o = X X o X X . X   X X   X PX",
"PX              .       .       .     . .   .     . . . . . . . . + . + + + O + + + + $ + $ + + $ + $ $ $ $ $ $ $ & $ 4 * & & & & & e & & 3 & 0 0 e & w y e e y e r y i i e i i r i i i A i A i A i A A A A Z Z F S Z Z Z T Z F J Y Y Y A A + . . + . . . . + + @ + + + + + + + @ + @ + + @ + + @ @ @ @ + 9 + q K r.u.u.e.e.u.e.e.h.u.u.u.h.u.u.u.u.H.u.F.h.H.H.H.u.u.u.y.K q 9 9 q y.^ H * 0 0 $ O * 9 @ & * @ 9 0 * 0 9 9 0 0 0 r q r r r r 0 r r 0 * 9 + 4 @ r K m.u.S.c.c.m.c.m.c.u.c.m.c.m.t.m.r.t.r.m.r.r.r.r.m.K q q @ 0 G.0 1 @ + . >   o . . O . X   o X X X X O X X X X o O o     2 O X   X o = - X o % > = = - 8 o X % 2 o o = 1 o X X o - X X   X X O     o 8.&.{ #.X.X.X.X.X.X.X.X.X...X.o.X.| ..| ..| | | | | | | W ` | ` D P D D D ` D M m D m D m m M m c m c m c c c c c h x l c l l l g l g g g 7 6 g , g , < , < , , , , , : = , = ; , = = ; = = = = = = = o o = X o o o X o   X o X X o     o   PX",
"PX                  .   .   . . . .   . . .   . . . . . . + . . + . + O + + . + + + O + + $ + $ + $ + & $ $ $ $ & $ & & & & & & e & & 4 & 3 & 4 3 3 e e e e e w i e i e e i i e i i p t i i A a G A A A A A A A Z Z Z Y Y Z T T Y Y T J Z A + . . . . . + + + + + + . o + + + + + + + + @ + + + + + + @ + @ 9 q r.f.f.f.i.i.i.h.f.p.f.f.f.h.h.h.h.g.h.h.g.H.g.h.h.h.i.u.e.y.q 9 q q ~ R q Z Z . + + @ @ * @ + + * @ @ @ @ @ @ 9 9 0 0 0 0 r 0 0 0 @ 9 * + + @ t H ~ c.h.N.S.N.B.N.N.N.N.N.c.N.c.c.c.c.c.c.c.c.c.c.c.t.m.y.q 0 0 0 # . z 6 O X   X o . o o X X X o o o X X = - X X X X X X     o X = X o X X X X X X - X X X - X X X   X X X X   X -     X O X O 8 X F l + k X.#.X.X.#.X...X.X. .| o... .| o.| o.| | | ` | | ` D ` W ` ` | B B D B D D B M D m M D m M m m m c G m x h m x x h x l l l h l g g g g < g < g , < < < 7 < , , : : , , = , = = = 8 ; ; = = = = = = o = o o = o X X o o X X . X X o O X X IX",
"PX                  .             . . . .   . . . .   . O . . . . . + . O + + O + + $ + $ + $ + $ $ $ $ $ + & $ $ & $ & & & $ & & & & & & & 3 0 e 3 e e & e e y e e e 5 i r i i i i i i a i i i A A i A A A A F Z Z Z Z Z Z Z Z Y Y J J Y Z 4 % . + + + 9 9 9 9 9 9 9 0 9 q q 9 q 0 q 9 9 9 9 9 9 9 q q 9 9 q H u.i.p.p.p.p.p.p.g.g.g.g.g.g.g.A.g.g.g.S.g.g.S.g.d.d.p.i.e.y.H 9 9 q R q 0 @ 4 * @ 9 q q q q q 0 q 0 q q q q q q q q t t q t q q q t 0 9 9 + q q L S.S.N.A.V.V.A.A.V.V.A.B.B.B.M.B.N.B.N.M.M.N.N.c.N.c.c.m.H 9 & . . & > # : X - X - - - - - - X - - - - - - - - - - - - - - - X X X X - X - - - - - - - - - - - - - - - - - - - - - - - - X X     O 7 ; # o #.{ X.X.{ X.X.X. .X.| X.X. .X.| ..| | | o.| | | | | | D ` W D ` D D D B M D D m m D m F m c m c c M x v m v h x l l v h l l g l < g 6 6 g < , 6 < < , , < , : : , ; ; : ; : : : ; = = = = = = o o = X = = X o o o X X o o X o   X X     PX",
"PX              .     .   .   .   .   . . . .   . . . O + . . . . + . + O + + . + + $ O + $ + $ + + $ $ $ $ $ $ & $ * % & & 4 & & & & 3 3 & & e 3 & e & e e e e e e i r e e y i i i i i i A i A A A A A Z A F Z Z Z T Z Z Y Z Y Y Y T J Y a @ + @ @ 9 q s H H q H H H H K H H H H K K H L H H L L H K H H H H H h.i.p.a.p.a.g.g.g.g.g.g.g.g.z.z.z.z.l.z.z.z.l.l.l.g.s.g.e.u.H q 9 0 q q i & * 0 q q K K L K K K K L K L L R K L K T L K T K R L R K K H q 9 q L r.S.V.V.C.C.A.C.A.V.B.B.B.B.B.B.N.N.B.N.M.N.N.N.N.N.t.c.m.H 9 & O O 4 7   7 - - d d d d d d d d d d d d d j d d j d d d d d d d d d - - d d d j d j d d j j d j j j d d d d d j j j d d d d d - X X O 7 o X o.o.X.X.X.X...X.X.X.X.X.| ..| o.|  .o.` | | ` | ` W D | W ` D ` D B ` D D D D m M m D c m m c m c c m m x v x h x l v h l h l g g g < h < < g , < < < > , , , 1 , : = , ; , = = = ; = = = = = o = = = o o o o X o o o X o o X o     X   PX",
"PX                        .     .   . . .   . . . . . . . . . . . . + . + + . + + + + $ + + + $ $ $ $ $ & $ & $ * 4 $ * 4 & & & & 4 & & & 3 & e e 3 e e y e e e e e e e i i e i i i i i i i i i i i A A Z A Z Z Z Z Z Z Z Z T Z T Y Y t J t + + + 0 K r.r.e.r.e.r.e.e.u.e.e.u.e.e.u.e.e.u.e.t.u.r.e.e.u.r.L K L h.d.g.g.g.g.g.g.g.z.g.z.l.z.z.z.z.z.z.z.z.z.z.z.z.l.g.k.e.r.H 9 0 0 q 0 + * @ t y.m.c.c.c.m.c.c.S.m.S.c.m.c.S.S.S.S.c.S.S.S.c.m.S.c.m.m.q t r.m.S.B.A.V.C.C.C.V.C.V.C.B.A.B.B.B.A.N.N.B.B.M.N.N.N.N.N.c.m.K @ + # O O   X X d q.] / / ] / ] _ ] / ] ] _ ] / ] _ / ] _ ] _ _ ] / / ' d ] ] ] Y._ ] ] K.] ] K.] ] _ ] K.] Y.] _ ' _ _ ' _ ] ' ] 8 - - X o   = o.X...X.X.X.{ ........X.| o...| ..| | | | ` o.| | ` | ` ` ( W D D D D M M B m D m D D m m m m m c c h x x m l x h x l v l l h g g g 7 < < g , g 7 , , : , , , ; 8 : , ; ; ; : = ; ; o ; o = = = = o = X = = X o X o   o X   X   X o   o PX",
"PX                  . .   .   .   . . .   .   . . . . . . O + . . + + . + . + + + + + + + $ + $ $ $ $ $ $ $ $ & $ * * & & & $ & & & & & & 3 & e e & & e e y w e i y e i r i p r p i i t i A i A A i a A A A A A F Z Z Z F Z Y Y Z S Y Y A a @ @ q H r.r.e.e.i.e.i.i.e.i.i.i.i.i.i.i.i.i.i.i.i.i.i.i.i.f.e.r.L L z.h.g.s.s.s.g.l.g.z.z.z.z.z.S.z.z.<Xz.z.z.$Xz.z.z.l.l.g.e.e.s 0 9 q t 0 . + q K m.c.N.N.S.N.S.N.B.S.B.A.A.A.V.S.A.A.A.A.A.S.A.A.A.S.c.u.K K u.S.S.A.Z.C.C.C.C.C.C.A.A.A.A.B.B.B.B.B.B.M.M.B.M.N.M.N.N.c.m.H @ + o   o = - - ] ' _ / _ _ _ _ _ _ _ _ _ _ _ _ _ _ _ _ _ _ ] _ _ _ _ ] / ' _ J.J.K.] J.K._ K.J.J.J.J.J.J.J._ J.J.J.J.J.J.J._ _ _ / d d X X X X o.o.X.X.X.X...X...X.| ..X...o...| | | | | | ` ` | ` D ` W D D ` D D D D D D D D m D G M m m m m c c c c c h x h l l v h l h g g g < g , 7 , 6 , < < < , , , : : : , ; : ; 8 ; ; = ; = = o = o = o = = X = X o X o X o X o X o X X X X o PX",
"PX                            .   .   . . . . .   . . . . . . O + O . + . + O + + + + $ $ $ + $ $ + $ + $ $ $ $ & % * 4 & & 4 & & 3 4 & 3 & * e e e y e e e y e e e y r y e i y p i i a a i i a a A A a A A A Z Z F T Z >.Z Z Y Y Y Y Z A e + 9 H y.e.e.i.i.i.i.i.d.p.d.p.d.d.d.d.d.g.d.p.a.p.p.i.i.p.i.i.e.L r.g.d.a.s.g.s.g.g.z.g.g.z.z.z.z.z.z.z.z.z.z.z.z.z.z.l.l.g.e.y.H @ 9 9 q 0 9 0 K R c.S.N.B.M.B.B.V.V.C.V.C.C.V.C.C.C.A.C.C.C.C.C.C.A.A.S.m.K K c.N.A.C.C.C.C.C.C.C.C.C.V.C.A.B.B.B.B.N.B.N.N.M.N.N.M.N.M.c.c.K 9 .   X   - h / / _ _ _ _ J._ _ _ _ J._ J.J.J.J.J.K.K.J.K.P.K.K.K.K._ J.d Y.K.W.W.W.T.T.U.P.U.K.U.K.L.K.L.K.J.J.J.J.L.J.J.J.J.J._ Y.' ' - - X X o.X.X.X.X.{ X.......X.o.|  .| | ..| ..| | ` | | | ` | ` ` ` W D D D D D m D D D G m D M m m m h c c h c c v x l x h l v l l l g g g < < g g < 6 < , < , : , , : : : , ; : = ; = = : : = = = = o = X o = o o = X X o X o   o O o   X X O PX",
"PX                . .   . .     . . . . . .   . . .   . . . . . . + . + + + + + + + + $ $ O + $ + $ $ $ & + $ $ & $ & & $ & & & & & & 3 3 3 e & e & y e & y e e e y e e y i i y i i i i i i a i A a A A A A Z Z Z S S ! Z Z Y F Y Y Z Z F i @ q L e.e.e.e.i.p.i.p.p.d.d.p.a.a.a.p.a.d.a.a.p.p.p.p.p.p.i.h.e.L L H.d.g.s.g.s.l.l.l.z.l.l.g.z.z.z.z.z.$Xz.z.z.z.z.z.l.g.g.e.e.H 9 q r t q q K m.S.c.N.B.M.B.V.B.A.V.C.C.V.C.C.C.C.C.C.C.C.C.C.C.C.Z.A.S.c.K L c.M.A.A.C.C.C.C.C.C.C.C.C.C.B.A.A.B.A.N.B.B.B.M.B.N.N.f.N.c.m.K @ . X   - j ] ] / _ _ _ _ _ _ _ _ J.J.J.J._ J.K.K.P.P.K.U.T.T.T.^.E.K.Y./ Y.J.).^.^.^.^.T.T.T.I.I.U.U.K.P.L.J.L.J.J.L.J.L.J.J.J.J._ _ ] ' - X = o.X.X.X.X.X... .o.....X.o.| | | | o.| ` o.| | ` D | ` W | D ` D D D D D D m F M D m M c m m c m c m m v c h m l x l l l l h l g g f < g g 7 < , < < , , , , , ; , ; ; , : : ; = = = ; = = o = = o = = o = X o o X o o   X   X X X     X PX",
"PX                          .   .     . .   . . . . . . . . . . . . + O O + . O + + $ O + $ + $ $ $ $ + $ $ & + $ & $ & & & & & & & 3 3 3 & & e e e & e e e e e r e e i i y r i r i i a A i i A i A i A A A Z Z Z Z F Z Z F Z T Y Y Y Z Y 0 9 H e.e.i.i.i.i.p.p.p.d.p.d.p.a.d.a.g.a.a.a.a.a.p.p.p.p.p.p.i.u.L L g.h.g.s.s.s.g.l.l.g.z.z.z.z.z.z.z.z.z.z.z.z.z.z.z.l.l.g.e.u.H 9 9 q q q H ~ m.c.N.B.B.B.V.B.V.V.V.V.C.C.C.C.C.C.C.Z.Z.Z.Z.Z.Z.Z.Z.A.S.m.K L c.N.C.C.C.C.Z.C.Z.Z.C.C.C.A.C.C.V.V.A.B.B.N.B.N.N.N.N.N.c.c.c.K 9 + O X O ` / _ _ _ J._ _ J._ J.J._ J.J.J.J.J.P.K.K.T.K.T.T.T.T.T.T.J.Y./ Y.K.^.).).T./.^.T.T.T.T.I.U.U.U.L.L.L.L.L.J.J.L.J.J.J.J.J.J.] ' d X = o.o.X.+.X.X.X.X. .X.| | ..| o...| ..| | ` | | | W ` | D D D D ` D D D D D D m D m m M D c m m m c v v c v c h x l l v h v h g g l < < g < < g , < , , > > , , 8 : , ; , = = , = : = = ; = = o = = X X o = o X o o X X o o X o   O o X   PX",
"PX                  . . .       .     .     . . .   . . . . . + + . + . + . . + + + + + $ + + $ + $ + $ $ $ & & & % $ 4 4 & & & & & 3 & & 3 e 4 & & e e e e e > y y p e e i e i i i i a i i i i A i A A A A A A Z Z Z Z Z Z Y Y Y Z Y Y Z y q L e.e.i.i.p.i.p.p.p.d.p.d.a.a.p.a.a.a.a.a.a.a.a.p.p.p.p.p.i.u.L L h.g.g.a.g.l.l.l.l.l.z.z.z.z.z.z.z.H.z.z.z.z.z.z.l.l.s.g.e.u.H @ 9 0 q q H r.c.N.M.M.V.V.V.V.V.B.V.C.C.C.C.C.C.C.Z.C.C.Z.Z.Z.Z.Z.Z.S.S.c.K K c.N.A.C.C.Z.C.Z.Z.C.Z.C.C.C.C.V.C.B.B.N.A.N.N.N.B.M.N.M.N.c.m.K * + +   - ] / / _ J._ _ J._ J._ J.J.J.J.J.L.K.P.K.T.T.T.T.T./.T.).).J.Y./ Y.K.^.)./.^./.T.^.^.^.!.T.T.I.I.P.L.L.L.L.L.L.J.L.L.J.J.J.J._ ' 8 - - o.X.{ X.X.{ X.X.X.| o.o.| ..| | ..| o.| | D ` o.D D ` D | ` ` D D D M D D D D m D D G D m c m c v m v c v h x l v h l l g l g g g g , < < < h , < , , , , , 1 : , ; ; ; ; = = ; 8 = ; = = = o = o = = o = X o o X o o X . X X X   X X X PX",
"PX                .         . .   . . . . .   . . . . . . . . . . . . + + + + + $ + + + + $ $ $ $ $ $ $ $ $ $ $ & * * & * & & & 3 % 4 & 3 3 0 & e w & e e e e e e y e r e i p i p i t i a i a i a A i A A A A Z Z Z Z Z Y Y Z Z Y Y Y Y Y 0 9 L e.i.i.i.i.i.i.p.p.d.p.a.d.a.a.a.a.a.a.a.a.a.p.p.p.p.p.p.i.u.L L H.p.g.g.s.g.l.g.l.l.g.z.g.z.z.z.z.z.z.z.z.z.z.z.l.l.g.h.e.y.H 9 0 0 q q H y.c.N.B.B.V.B.V.B.V.A.V.C.C.C.C.C.Z.C.Z.Z.Z.Z.C.Z.Z.Z.NXA.S.c.K L c.B.A.Z.C.Z.Z.C.C.Z.Z.C.C.C.C.C.A.B.B.B.A.N.M.N.N.N.N.N.c.c.u.K 9 + O   X ' _ _ _ _ _ J.J.J._ J.J.J.J.J.K.K.P.P.P.U.T.T.T.T.T.%X^.W.P.K./ Y.J.).).(./././.^.^.^.T.T.T.I.U.I.U.U.U.U.L.L.J.L.J.J.L.J.J.] ' d - O o.o.X.{ ..X...X.| o...X.X.| | ..| | ` | | o.| ` D ` D | D D D D D D ` M D m m D m m M F m m c m c c m h c x h v v l l h l g g g g g h < h < , g , , , , : , : : ; , , ; = , ; ; ; = O ; = = o = = o = o = X o X o o X o X X o   o       PX",
"PX                  .   .   .   . .   . . . . . . . . . . . . . + . + O O + + . + + + + $ $ + + + $ + $ $ $ $ & $ & & $ * & $ & & 3 & 3 3 & 3 3 e e e e e y e e e e p i e e i r p i i i i i A A i A i A A A A Z A Z Z Z Z Y Y Y Y Y Y Y Y t q L e.i.i.i.i.d.p.d.p.p.d.a.a.a.a.a.a.a.a.a.a.a.p.p.p.p.p.p.h.e.L L g.g.g.g.s.k.g.k.l.l.g.z.z.z.z.z.z.<Xz.z.z.z.z.l.l.l.g.d.e.e.s 9 9 q q q H r.c.c.M.B.B.B.B.B.A.C.C.C.C.C.Z.C.C.Z.C.Z.C.Z.C.Z.Z.Z.Z.A.A.c.L K c.S.A.C.Z.A.Z.C.Z.Z.C.C.C.C.C.C.V.V.B.B.N.B.N.B.N.M.M.N.N.c.m.K * . O X 8 8./ _ _ _ J._ _ J.J.J.J.J.J.K.P.P.P.I.T.T.T.T.^.^.T./.%X%XL.Y./ Y.U.).%X(.%X/./.~.~.^.^.T.!.T.I.I.I.U.U.P.P.L.L.L.L.J.L.J.J._ `.d X   o.o.{ { #.X.{ ..| X.| ..| | o.| o.| | ` | ` | ` | ` ` D ` D D D D m D D m D M m D M m m m m m F m c v x h h x x l k h l h g g g g < < < , h , < , < , 7 , : : , , ; 8 ; ; ; ; ; = : = = = = = = o = X = o o X o o X   o . X X X O X X   PX",
"PX            O         .       .   . .   .   . . . . . . O . . . . . + + . O + + $ $ O $ + $ $ $ + $ $ + & $ $ $ $ $ & & 4 & & & & & & & 3 & 0 & & e e & e e e e e e e i i i y e i i i i a i i a A A A A A A Z A Z Z Z ! Z Z Y Z Y Y Y a q q H e.i.i.p.i.i.p.p.d.d.d.a.a.a.a.a.a.a.a.a.a.a.a.p.p.p.p.p.i.e.L L h.g.g.a.s.s.g.s.l.g.z.z.g.z.z.z.z.z.z.z.z.z.z.z.l.l.g.g.e.u.q 0 9 q q q H ,.S.S.N.B.B.B.B.B.V.V.C.C.C.C.Z.C.C.Z.Z.Z.Z.Z.Z.Z.NXZ.Z.C.S.c.K L c.A.C.Z.Z.Z.Z.Z.Z.C.Z.C.C.C.C.V.V.A.A.A.A.N.B.M.B.M.M.N.N.c.m.K @ + X X - ' _ _ _ _ J.J._ J.J.J.J.J.L.K.P.P.T.I.T.T.T.T./.^.%X^.T./.P.U./ W.P.).).(././././././.^.^.^.!.!.I.Q.U.U.U.P.P.L.L.L.L.J.L.J._ ' G X o o...X.{ ..{ ..X.X...o.X.| o.| | ` | | | D o.` | | D D ` D D ` D D D D D D m D M m M D m m m m G m c c v m v v h l h h l g g g g g f h < < < g , < , , : : , , : : , , ; ; = , ; ; = = = = = = o = o = X X o o X X o o X o X . X X X   o IX",
"PX                      .     . .   .   . .   . . .   . . . . + . . . . . . O + + + + + + + + $ $ O $ $ $ $ $ $ $ & $ & $ & $ & 4 & & & & 3 & 3 3 e e & & e e w e e e i e i e i i i i i i i i i A i A A Z A A Z A Z Z Z Z S F Y Y Y Y Z Z S q L e.i.i.i.i.i.d.p.d.a.d.a.a.a.a.a.a.a.a.s.a.a.a.p.p.p.p.p.h.u.L L g.d.V.s.a.g.s.s.l.l.l.l.l.l.z.z.z.z.z.l.z.z.l.l.l.s.g.d.e.u.H 9 9 q q q t r.c.N.N.B.B.B.B.A.V.C.A.C.C.C.C.Z.C.Z.Z.Z.Z.Z.Z.Z.Z.Z.Z.A.S.S.K L S.S.C.Z.Z.Z.Z.Z.Z.Z.C.Z.Z.C.C.C.C.A.B.B.B.N.N.B.N.N.M.N.t.c.c.H 0 .   - - R._ _ _ J.J.J.J._ J.J.J.K.P.K.T.K.T.T.T.T.T./././.(.(.(.(.P.U./ Y.U.).(.(.(.(.(.(.(./.~.~.^.!.!.T.I.!.I.I.U.U.L.U.L.L.L.L.J.J.R.d - X o.o.X.{ X.X...X.X...| | ..o.| | ..` | | ` ` ` | ` ` ` D ` ( D D M D D D D m G D D m D G m c c c m h m x x x v x k h l l l g 6 g 6 g 6 < < < < 7 f < < 7 : , : ; ; ; , = , = = ; ; = = = = = o = = = X = o X X o   o X o   o X   X   X   PX",
"PX                    O   . O     .   . .   . . . . . . . . . O O . . . + + + . + O + O $ + + $ + $ $ $ + $ $ & $ $ $ & $ & & 4 & & & 4 & 3 3 & e 3 e e w e e e e e e e i e i e i i i i A p A A i A A i A G A Z A Z Z Z Z ! Z Y Z Y Y Y Y t q L e.i.i.i.p.p.p.d.d.a.d.d.a.s.a.a.a.a.s.a.a.a.a.p.p.p.p.p.i.h.L L h.d.a.g.s.s.s.g.s.l.l.l.l.l.l.z.l.z.l.z.z.l.l.l.g.g.d.d.e.r.H q 9 q t q H ~ c.N.M.B.M.B.B.V.C.V.V.C.C.C.Z.C.C.Z.Z.Z.Z.Z.Z.Z.NXNXZ.A.S.c.K L c.A.Z.Z.Z.Z.Z.Z.Z.Z.Z.Z.C.C.C.C.A.B.A.B.B.M.B.N.N.B.M.N.N.c.m.K 9 +   X - 8._ _ _ J._ J.J.J.J.J.L.P.P.T.K.T.T.T.^.^./.^././.).(.%X'.P.Y./ W.Q.).(.(.%X(.(.(.(.~./.~.~.!.!.!.!.I.I.I.I.P.U.L.U.L.L.L.J._ Y.j X X o.....X...| X...| o...X.| | ..| | | o.` o.` | ` ` ` ` D B D D D D D D m D D D m M M m m m m c m c c h x h l v l l x l h g g g g g 6 < < < g , < , , , , , : , ; , ; = : = : : = ; ; = = = o = = = = = o o o o X o X o X X X o X   o X X PX",
"PX          O     .     .     .     .   . . . . . . . . . + . + + . . + . + + + O + + + + + + $ + $ + $ $ $ $ $ $ $ $ $ $ & % & & 4 & & 4 3 & 3 e e & e 3 e e e e y e y e i i i i i i i i i A i i A i A A A A A Z Z F Z Z T Z T Y Y Y Y Z t q L e.i.p.i.p.p.d.p.p.a.a.a.a.s.a.s.s.a.a.a.a.a.a.p.a.p.p.p.h.e.L L h.a.g.a.a.s.g.k.l.l.l.l.l.l.l.l.z.z.z.l.l.l.l.k.l.s.d.d.e.e.H 9 9 q t q H R c.S.M.B.B.B.B.A.B.V.C.C.C.C.C.C.Z.Z.Z.Z.NXZ.Z.Z.NXZ.Z.Z.A.S.K K c.A.A.Z.NXZ.NXZ.Z.Z.Z.C.C.C.C.C.V.C.A.B.B.N.B.M.B.N.N.N.N.c.m.K @ +   X 8 R._ _ J._ J.J.J.J.J.L.K.P.U.T.T.T.T.T.T././././.(.(.(.(.(.P.Y._ Y.U.).(.(.(.(.(.(.(././.~.~.~.^.!.!.Q.I.I.Q.L.U.U.L.L.L.L.L.J.Y.d X X o.#.X.{ X.........| ..o...| | | ..` ` | ` | | ` | ` D ( ` D ` ` D D D m m D m M M M D m c c c c c x x x m v h l l h h l l g 6 6 g 6 < , 6 , < < < , , , : , : : ; ; ; ; : = = ; = ; ; = = = = O ; O o o o X o X X o   o . X X   X     X PX",
"PX                        .     .     . .   .   . . .   . . . O . . . O + . O + . + + O + $ + $ + + $ $ $ + & & $ & $ & % $ & & & 4 & 4 & 3 3 & & e & e e 3 y y e e i e e y y i i y i i i i i i A i A A A A A A Z Z Z Z F Z F Z Z Y Y Y Z t q L i.i.i.p.p.d.p.d.a.a.a.a.s.a.a.s.s.a.a.a.a.a.a.p.p.p.p.p.i.h.L r.H.a.a.g.g.s.s.s.g.s.k.g.l.l.l.l.l.l.l.l.l.l.l.l.s.a.d.d.e.y.H 9 9 0 t r H r.c.N.M.M.B.B.B.V.A.C.C.V.C.C.C.Z.C.Z.Z.Z.Z.Z.NXZ.NXNXNXA.A.m.L K c.S.Z.Z.Z.Z.Z.Z.Z.Z.Z.Z.Z.C.C.C.C.A.B.A.B.N.N.M.N.M.M.N.c.c.m.K 9 +   X - `._ _ J.J._ J._ J.L.J.P.P.P.U.T.T.T.^./.T./././.(.(.(.(.).P.U._ Y.Q.(.'.%X(.%X(.(.(./.(./.~.~.^.^.!.T.!.Q.Q.Q.U.U.I.L.U.P.K.K.R.d - X o.o...X.X...X.| X.| | | | X...| | | | ` | ` ` | ` ` ` ` B D M B m D D D D m D m m M M m m m m c v c x x h x l x l l l g l g g g 6 7 7 g , 6 < < 7 , : , , : , ; , 8 ; , = : ; ; = ; O ; = = = = o o X = o o X o o   o X o X o   X o o   PX",
"PX                        .   . .   .   . . . . .   .   . . . . + O + . + + . . + + + + + $ O + $ + $ + $ $ $ $ $ $ $ & $ $ 4 & & & & 3 & 3 3 3 e & e e e & 3 e y y y y e i e y i i i i i A i i i A A A G A A A Z Z Z Z Z Y Z T a Y Y Y Z t q L e.i.i.p.p.d.d.p.a.a.a.a.a.s.a.a.a.a.s.a.a.a.a.p.a.p.p.g.f.h.L L S.p.p.g.s.g.s.s.l.l.s.l.l.l.l.l.l.l.l.l.l.k.l.s.s.a.a.p.e.u.H 9 9 r q q H ,.c.N.M.B.B.B.B.B.V.A.V.C.C.C.Z.Z.C.Z.Z.NXZ.Z.Z.NXNXNXZ.A.S.S.K L S.A.A.Z.Z.NXNXZ.Z.Z.Z.Z.C.C.C.C.A.A.A.B.B.N.B.N.N.N.N.N.c.c.c.K @ +   X - R._ _ J._ J.J.J.J.J.L.K.P.T.I.T.T.^.^.^././././.%X(.(.(.(.P.Q./ U.U.).(.(.(.(.(.(.(.(.~./.~.~.~.!.!.!.!.Q.Q.U.L.Q.L.U.L.L.K.Y.`.d X X o...X.X.| X.X...| ..X.| o.| | ..` | | | ` | | | D D ` ` D D D D D D D m M D m m M m m m c m m v c m h x h x h k x k l g l g g g < h , , < , , , , , , , ; , , ; , ; ; , ; : = = = 8 = ; = = = = O - = = o X X o X o X X   o   X X   X X PX",
"PX                  .   O         .   .   .     . . . . . . . . . . . + O . + + O + + O + $ $ $ $ + $ + $ $ $ & % & $ $ & & & % 4 & 4 & 3 4 3 3 & e & e e e y e e r e i i e i i i y i i i i i A A i i A A A A A A Z Z Z Z Z Z F Y Y Y Y Z q q L e.i.i.p.p.p.d.d.d.a.a.a.a.s.s.s.s.a.s.a.a.a.a.a.p.g.p.p.h.u.L L g.p.g.g.a.a.g.s.g.s.l.l.g.l.k.l.l.l.k.l.l.l.s.l.g.s.p.h.e.r.q 9 9 q q q K R c.N.M.B.B.M.B.B.V.C.C.C.C.Z.C.Z.Z.Z.Z.Z.NXNXZ.Z.NXNXBXA.A.m.K K c.S.Z.NXZ.Z.Z.Z.Z.Z.Z.C.Z.C.C.C.A.V.B.B.N.B.N.M.B.N.M.M.N.t.m.H 0 O   X - `._ J._ J.J.J.J.J.L.J.K.U.K.T.T.T.T.T./././././.^.(.(.(.(.L.W._ Y.U.(.'.(.%X(.(.(.(./.(././.~.~.!.!.!.!.Q.Q.U.Q.U.U.U.U.L.L.J.`.d - X o...{ ..X...| .... ...o.| | | | | | ` ` | ` ` ` | D ` m D ` D D D m D D D m M m m m c c c c m m c h k m m h x h h h h l g g g g < h h g < , 7 f 7 , , : , : : , ; ; : ; = ; : = ; = = = = = o = = = o X o o o X o X o   o X X X   X     PX",
"PX                        . .       .   . . . . . .   . . . + . . . . . . + O + + . + + + + + $ + + $ $ $ $ $ $ $ $ $ $ % $ & $ 4 & $ & 4 & 4 & e e e e e e e e e e e y i e i e i i i i A i i A i A i A A A A A Z Z F Z Z Z Z Y Z Y Y Y Y t q L e.i.i.i.d.p.d.d.a.a.a.s.s.a.s.s.s.s.s.a.a.a.a.a.a.a.p.p.h.h.L r.h.g.a.a.a.a.s.s.g.k.s.l.k.l.l.l.k.l.l.k.s.l.s.s.g.a.p.p.e.u.H 9 9 r q q H R c.N.M.M.B.B.A.A.B.A.C.V.C.C.Z.C.Z.Z.Z.NXNXZ.NXNXNXNXNXZ.S.S.L L S.A.Z.Z.NXZ.Z.NXZ.Z.Z.Z.Z.C.C.C.C.A.A.B.N.N.B.N.M.N.N.N.M.c.m.K 9 O   - 8 R._ J.J.J.J.J.J.J.L.L.K.U.I.I.T.T.^./.T././././.%X(.(.(.).P.U._ Y.U.(.(.(.(.(.(.(.(.(./.~.~.~.~.^.!.!.!.Q.Q.I.Q.I.Q.Q.L.U.L.J.Y.8 X X o...X.{ | X.X...| ..| o...| | | ` ` o.` | ` | ` D ` D ` ` D D D D D D D D D D m m m M m m c c h x v m h l l l x l l l h l g g g < < < , , h , , , , 7 , , : : , ; , = : = ; = ; ; ; = = = = o = = o = o = X o o X o X o X o   X X   X   IX",
"PX              .       .   O   .     .   . .   . . . . . O . . . + O + + . + . + + + O + + + + $ + $ $ & $ & $ $ & & $ $ & $ & & 3 4 3 3 3 3 3 e 4 & e & e e e e i e i e e i i y i r i i i i A i A A A A A A A Z Z Z Z T Z Y Z Y Y Y Y a t q L e.i.p.p.p.d.d.d.a.a.s.a.s.a.s.s.a.a.s.s.a.a.a.a.p.p.a.p.h.h.L L h.d.a.g.a.a.s.s.k.g.s.g.l.s.s.l.k.s.s.l.s.s.s.s.a.g.p.p.i.r.H 9 9 0 q q H R c.c.N.B.B.B.B.B.A.B.V.C.C.C.C.Z.Z.Z.Z.Z.NXNXNXNXBXNXNXS.S.S.K K c.A.A.Z.NXZ.NXZ.Z.Z.Z.C.Z.C.Z.C.A.B.B.B.A.N.N.M.N.N.N.N.t.t.m.K @ +   X - `._ J._ J.J.J.J.J.L.L.P.P.I.I.T.T.T.^././././././.(.(.(.(.L.W./ K.U.).(.(.%X(.(.(.(.(.(.(./.~.~.^.^.!.!.Q.Q.Q.I.I.U.U.U.L.P.J.`.j - X o.X.....o..... ...o.| | | ....| ..| ` ` ` | ` D | D ` D D D ` m m D G D m m m m D m G c m c m x x m v m h x h x l k g l g g < g h < < < < < , h , < , , : , , = : , , = 8 ; = ; = = = = = = = = o = X = X o o   o o o   X   o     o   X PX",
"PX                      . .   O   .   . .   . . . . . . . . . . + . + . . + O + + . + + + + + $ + $ + $ $ $ % $ $ $ % & $ $ & & & & 4 3 4 & & 3 4 e e e 3 4 e 7 e i i e i e i i i i i i i S i i i A A i A S A A Z A Z Z T Z Z T Y J Y Z Z t q L e.i.i.p.p.d.d.s.s.a.s.s.s.s.a.s.s.s.s.s.a.s.a.a.a.p.g.p.h.h.L r.h.g.V.a.a.a.a.g.s.g.g.g.l.s.s.l.s.l.g.s.s.s.s.s.a.a.p.p.e.r.H 9 9 0 q 9 H R c.N.N.B.N.B.B.B.B.A.C.C.C.C.Z.Z.Z.Z.NXNXNXNXNXNXNXNXBXA.A.S.L K c.A.NXNXZ.NXNXNXZ.Z.Z.C.Z.Z.C.C.A.A.B.A.B.M.N.N.N.f.N.c.c.t.m.K 4 O X X - `._ J.J.J.J.J.J.L.L.L.P.U.I.I.T.!.^.^.^././.(.~./.(.(.(.(.L.Y._ L.Q.).).(.(.(.(.(.(.(.(.(.(.~.~.~.Q.~.!.!.Q.I.Q.U.Q.U.Q.L.P.K.`.j X h ..o.X...X.....| ..| ..| ..| | | | | | ` ` ` ` ` D ` ` D m D D D D D m D D m D m m m F m F M c v c c c h v x h x h h l h g g 6 h h , h < , 7 f , , , , , : , ; , ; ; ; , ; ; = O ; = = o = o = o o = = X o o X o X X   o o   o     X X   PX",
"PX          .                 .   . .   . . .   .   . . . . . + + O . + + . . + + . O + + + + + $ $ $ $ $ $ $ % $ & % 4 $ & 4 $ 4 & & & & 3 4 3 5 3 e 3 e e e e r e e e e i i e i e i i i e i A i i A A A G A A Z Z F S Z Z Z F Y Y Z Y Z t q L e.i.i.p.d.d.d.d.a.s.s.s.s.s.s.s.s.s.s.s.s.a.a.d.a.a.p.d.i.h.L L h.p.a.a.a.a.a.s.g.s.k.s.s.l.k.g.s.s.k.s.s.s.s.s.g.p.p.i.e.t.H 9 @ 0 q q H R c.N.M.N.B.B.B.B.A.B.C.A.C.C.Z.Z.Z.Z.Z.Z.NXNXNXNXBXBXBXNXS.m.K K S.S.A.Z.NXZ.Z.Z.Z.NXZ.Z.C.C.C.C.C.B.B.B.N.M.N.N.N.N.f.N.c.t.r.K @ O X X - `._ J.J.J.J.J.J.J.K.K.P.U.U.T.T.!.^.^.~.~./.~.(.(.~.(.(.).U.U./ Y.Q.).(.(.%X(.(.(.(.(.(.(.~.~.~.~.~.Q.Q.~.Q.Q.Q.Q.U.Q.U.U.K.K.`.j - g o.......| X.o...X.| | o.| | ` ..` ` ` | | ` | ` | D D D ` D ` m m D D D m F m M M m m M G c c c m v v c h l l h l h g g g g < g < g h , < , , , 7 , : , 7 ; , ; , = : = ; ; ; ; = ; = ; = = o = X o o = X = o X o o o X X X X X o     o PX",
"PX              O     . O     .         . .   .   . . . . . . . . . + O . + + . O + + O $ $ O $ + $ + $ $ $ $ $ $ $ $ % $ & % & 4 & & & & & 4 3 3 e 5 e e e e e 3 i 3 e i i 4 i y i i i i i S i A A A A A A A F A A Z F Z Z Z Y Y Y Y Y Z t q L e.i.i.p.d.d.d.a.s.s.s.s.s.s.s.s.s.s.s.s.s.s.a.a.a.p.a.d.h.h.L L S.d.d.a.a.a.s.a.s.s.s.s.s.s.k.k.g.k.s.g.s.s.a.a.a.a.p.i.e.e.H 9 9 q 0 q q R c.N.N.M.N.B.B.B.A.B.B.C.C.C.Z.Z.Z.Z.NXNXNXNXNXNXBXNXBXA.S.S.L K S.A.NXNXZ.NXNXZ.Z.Z.Z.C.Z.C.C.C.B.B.A.N.N.N.N.M.N.N.N.N.t.c.m.J @ + O X - `._ _ J.J.J.J.J.L.L.L.P.P.U.I.T.T.^.^.~././.(.~.(.(.(.(.(.P.U./ K.L.).(.(.(.(.(.(.(.(.(.~.(.~.~.~.~.Q.!.Q.Q.Q.Q.U.Q.U.U.U.U.K.`.j - d o.....X.X...| | X.| | ....| o.` o.` | o.` ` | ` D D D ` D D D D D D D M D D m M D F m m c m c c h m v h v v x h l l g g g g g 7 < g < < , < g , , , : , , : : : 8 ; = 8 = = = = = = = = = o = = = o o X o o X o X   X   . X   X   X X X PX",
"PX                        .     .   . .   . . . . . . . . . O . . . . . + O + . + . + + + + + $ + $ $ $ $ $ $ $ & $ & $ $ $ & & $ & & & 3 & 3 3 3 3 4 e e 3 e i y e e i 4 e i i S e i r i i i i A i i A i A A A F A Z Z T Y Z Z Y S Y Y A t q L e.i.p.p.d.a.a.a.s.s.s.s.s.s.s.k.s.s.s.s.s.a.s.a.a.a.a.d.h.h.r.L g.p.p.g.a.a.a.s.g.g.s.s.s.g.s.s.s.s.s.s.s.a.a.a.a.p.p.f.e.r.H 9 9 0 q q H R c.c.N.M.N.B.N.B.B.B.V.C.C.C.C.Z.Z.Z.Z.Z.NXNXNXNXBXBXBXNXA.S.R K c.A.S.BXNXZ.NXNXZ.NXZ.Z.Z.C.C.A.A.B.A.B.M.N.N.N.N.N.c.N.t.c.r.K * +   X - `.J.J.J.J.J.J.J.J.L.P.P.I.U.T.T.T.^.^.^.~./.~.(.(.(.~.(.(.L.Y._ L.Q.~.).(.(.(.(.(.(.(.(.(.~.~.~.!.Q.~.!.!.!.Q.Q.Q.U.Q.Q.U.U.J.Y.j X h o...X...| o.....| ..| o.| ..` | ` | ` ` ` ` ` ` D ` ` ` m D D m D m m D G D m M G m c c c c c c h c m h v h h l l h g l g g g h g 6 , < h , , , , , , : , : = , ; ; ; ; , ; = ; ; = o = o = o X = o = X o X o X X o X o X X o   X X   X PX",
"PX                    .     .     .     .     .   . .   . . . . O . . . . . + O O + + + + + + $ $ $ + $ + $ $ $ $ & $ & & $ & % $ & & * 3 & 3 & e e 3 r e 3 e e r e e e i i r i y i i i i i i i i A i A A A A A Z Z Z F F Z Y Z Y Y Y Z Z t q L i.i.d.d.a.d.s.s.s.s.s.k.k.s.s.k.s.s.k.k.s.s.s.a.a.a.a.a.h.h.L L h.p.p.a.a.a.a.a.s.s.s.g.s.s.s.s.s.s.s.a.a.a.a.a.p.p.i.i.e.r.H 0 9 0 q 9 q R c.c.N.M.N.B.B.B.B.A.V.A.C.C.Z.Z.Z.Z.Z.NXNXNXNXNXBXBXNXMXS.S.L T N.S.Z.Z.NXZ.Z.NXZ.Z.Z.Z.C.C.A.A.A.A.N.N.N.N.N.N.c.M.N.N.c.r.m.K $ O   X - `._ J.J.J.J.J.L.J.L.K.P.P.U.I.I.T.T.^.^.~.(.~.(.~.(.(.(.(.L.U./ J.U.~.).(.(.(.(.(.~.(.~.~.(.~.~.~.~.!.~.!.!.Q.Q.Q.Q.U.Q.U.U.K.W.j - d o.....| X.| | ..| o.| ..| ` | | ` ` | ` ` ` ` W ` D ` m D D D D D D D D D M M m m m m m G c h h m c v h v v l h l l g l g < h < 7 g , h , , , , , , , , : ; , ; ; ; ; : = = = = = = o = o = = X O = = o X o o   o X X X o   X   X     X PX",
"PX                      .     .   . .   . . . . . . . . . . . . + . . + + . . + + . . + + + + + . $ + + $ $ $ $ $ $ $ $ $ & & $ & & & 4 & & & 3 3 3 3 3 3 e e e 5 e i e i 7 e i i 5 i i i A i i A i G A A i A A Z Z Z Z Z Z Z T Y Y Y Z Z q q L e.d.i.d.a.d.s.s.s.k.s.s.k.k.s.k.k.s.s.g.s.s.s.a.a.a.a.a.d.H.L r.h.p.p.p.p.a.a.a.s.a.a.s.s.s.s.a.s.s.s.a.a.a.a.p.p.p.i.i.e.u.H 9 9 q q q q K c.c.N.N.N.N.N.B.B.B.A.B.A.C.C.Z.Z.Z.NXZ.NXNXNXNXBXBXBXA.S.S.K L S.A.A.NXZ.NXNXZ.NXZ.Z.Z.C.C.C.A.A.N.B.N.N.N.f.N.N.c.c.c.c.t.r.J @ O X X d `.J.J.J.J.L.J.J.L.L.P.P.P.I.I.T.!.^.^.^.~.~.~.~.(.~.~.(.).P.L./ J.L.).(.(.(.(.(.~.(.(.~.(.~.~.~.~.!.~.Q.!.!.Q.Q.Q.I.Q.U.U.U.J.`.j X = o...X.....| ....| | | | ..| | ` ` ..` | D ` D ` D ` D D D D D D m D G D m m M m m m c M m c m c c h c h v h l l g h g h g f < h g , , < , , , , , , ; , , : = , ; 8 = ; : = = = = o = = = = o = = = X o = X o o X o . X X X o     o X   PX",
"PX          O   .         .   O           .   .   . . . . . . + . . . . O . + . . + + + + $ + $ + $ + $ $ $ $ $ $ % $ % $ & $ 4 & $ * & & 3 & & 3 e 3 3 5 3 e e e e e i i i i i i S e i i i S i i A A A A A A A Z Z Z Z Y Z Z Z Y S Y Y a t s L e.i.p.d.d.s.s.s.k.s.s.k.k.s.k.k.s.k.s.k.s.s.s.a.g.a.a.p.h.h.L r.d.p.p.p.p.a.a.a.s.s.a.s.a.s.s.s.s.a.a.a.a.a.a.d.p.p.i.i.i.r.H q 9 0 0 q q L c.c.N.N.M.N.N.B.B.B.V.C.C.C.C.Z.Z.Z.Z.NXNXBXNXBXBXBXBXNXA.S.R K S.A.NXNXNXZ.NXZ.Z.Z.Z.C.C.C.C.B.B.B.N.A.N.N.N.c.N.c.N.c.t.t.r.J * O   X 8 `._ J.J.L.J.L.L.J.P.L.P.U.U.I.I.!.!.^.^./.~.(.~.(.~.(./.~.L.K./ J.L.~.~.(.(.~.(.(.(.(.(.~.~.~.~.~.~.Q.!.!.!.!.Q.Q.Q.I.I.U.U.L.R.j - , o...| ..| ..| ..| ..` ` | ` ` | | ` | ` D | ` D D D D D D M D m G D m D M m M m m m m c m c c c c h h c v v l l l g g g g g g , g , , < h , , , , , ; , , ; : = : = ; ; = = = = o = = o = o o = X = X o o o X X o   X X   o   X X   X   PX",
"PX                          .   .   .   . . . . . .   . . . . . . . . . + + . + + O + O + + O $ $ + $ + + $ $ $ $ $ $ $ & $ & % * & * & & & 4 3 3 3 3 3 4 e e e e e e e y C i e e i i i i S i A i i A A A S A F S Z Z Z Z Z Z Z Y Z Y Z Z t H L e.i.p.d.a.s.s.s.s.k.k.k.k.k.k.k.k.k.k.s.s.s.g.a.a.a.a.g.d.h.L L h.i.a.p.a.p.p.a.a.a.s.s.a.s.a.s.a.s.a.a.a.a.d.p.p.p.i.i.e.r.H 9 9 q 0 q t K t.c.N.N.N.M.N.B.N.B.B.B.A.C.C.Z.Z.Z.Z.NXZ.NXNXNXBXBXNXBXA.m.K L m.S.A.Z.Z.NXZ.NXZ.Z.Z.Z.C.C.A.A.A.A.N.N.N.N.N.M.t.N.N.t.c.t.m.K @ O   X d `._ J.J.J.J.J.J.L.L.P.P.P.I.I.T.T.T.T.^.^.~.~.~.~.~.~.(.).L.K./ J.L.).(.(.(.(.~.(.~.~.(.~.~.~.~.~.!.~.!.!.!.!.Q.Q.Q.Q.Q.U.U.K.W.j - - o.` ......| ..| | ....o.| | ..| ` | ` ` ` ` ` ` D ` D D D D D D D m D m D F M m m m F G m h c h c c c v h l l h g l g l h < < < h g , < , , 7 , , , : , , : ; , = , ; ; ; = = = = = = = = o = = o X o o X o X o X X . o X   o   X X   o PX",
"PX                        O         .   .   .   . . . . . . . . . . . . + . . O + . + + + + + $ $ O $ + $ + $ $ $ % $ $ $ & $ 4 % % 3 3 & 3 3 & 3 3 e 3 e e 3 e i e e i e e e i i i i r i i A i A i A A A A A A Z Z Z Z Z Z Z F Y Z Z S A t q L e.p.d.d.s.s.s.k.k.k.k.k.k.k.k.k.k.k.k.k.s.g.s.s.a.a.a.p.h.h.L L f.p.p.p.a.p.a.a.a.a.a.a.a.s.a.s.a.a.a.a.p.a.a.p.p.p.i.i.e.e.H 9 9 9 q 0 q K c.c.c.N.N.N.M.M.N.M.A.A.A.A.C.Z.Z.Z.Z.Z.NXNXNXNXBXBXBXA.A.S.K K S.A.NXNXZ.Z.NXZ.Z.Z.Z.Z.C.A.A.A.N.B.N.N.N.N.c.c.f.c.t.N.t.c.r.S * O   X - `._ J.J.J.J.J.L.L.L.L.P.P.I.I.I.!.!.!.!.~.~.~.~.~.~./.~.~.L.K._ _ P.^.(.(.(.(.~.(.~.~.(.~.~.~.~.Q.~.~.Q.~.Q.Q.Q.Q.Q.Q.Q.L.Q.L.`./ - = o.........| | | ..| ..| ` | ` ` ` ` ` ` ` ` D ` D ` D D D D D m D m G D D M m m m c m M c c m h c c h v l v h l g g h 6 h h 6 6 g , , < , , , , , , = , : ; , = , = : = = = = = = = = = = = o = X o o X o o X o X o o   X X   X X     O IX",
"PX                          .   .   .     .   .   .   . .   . . + . . . O . + . + . + O + + + + + $ + + $ $ $ $ $ $ & $ $ $ & $ 3 % & & & & & 3 3 4 4 e e 3 e e e e e e e i 5 S e i i i i i i i S A i A i A A A Z Z Z Z F T T Z Z T T Y A t q L i.i.d.a.a.s.s.k.k.k.k.k.k.z.k.k.k.k.k.k.s.s.s.s.a.s.a.g.g.H.L L h.p.p.a.a.p.p.a.a.g.a.a.a.a.a.a.a.a.a.a.a.p.p.p.p.i.i.i.e.r.H 9 9 0 0 0 q T r.c.c.N.N.N.M.M.B.N.N.A.A.A.C.C.C.Z.Z.NXNXNXNXNXNXNXBXBXA.m.K L S.S.A.NXNXZ.Z.Z.Z.Z.C.C.C.A.A.A.B.N.N.N.N.c.N.c.c.N.c.t.t.r.r.t * $   X d `.J.J.J.J.L.J.L.J.L.L.P.U.U.I.T.I.!.T.!.^.~.~.~.~.~.~.~.).J.L./ _ L.).).(.~.(.(.~.~.~.~.~.~.~.~.~.~.Q.~.Q.~.Q.~.Q.Q.Q.Q.Q.Q.L.`.j - - o.` { ....| | ..| ..| ` ..` ` ....` | ` ` ` ` ` ` m ` D ` G D D D D D m m m M m m m c G c c c h v h h v h v l h l g g g 6 6 6 6 g 7 f , g , , , , , , ; : , = : ; 8 = = : = = : = = = O o = = X = X o o X o X   X O X X   o X     o X   PX",
"PX                                .         .   .   . . . . . . . . . . + . . + O . + . + + $ + $ + $ $ $ + $ $ $ & & $ & $ & & & & & 4 3 3 & 3 3 3 3 3 e 3 3 e i 7 e e e i 4 7 e i i i i i i i i A i i A A A A Z Z Z Z S S ! Y Y Y Z Z Z t q L e.d.d.a.s.s.k.k.k.k.k.z.k.z.k.x.k.l.k.l.s.k.s.s.s.g.s.d.l.h.L r.p.p.V.p.p.p.a.a.a.a.a.a.a.a.a.a.a.a.a.p.p.a.p.p.p.i.i.i.e.r.H 9 9 q q q q L r.t.c.t.N.N.M.M.N.B.A.N.B.A.C.C.Z.C.Z.Z.NXNXNXNXNXNXNXNXS.S.L K c.S.Z.NXZ.Z.Z.Z.C.C.C.C.A.B.B.N.B.N.N.N.c.N.N.c.t.c.c.c.t.r.y.q * 2 X X - `.J.J.J.J.J.L.J.L.L.P.P.U.I.I.I.I.!.!.!.~.^.~.^.~.~.~.~.~.L.K._ _ L.Q.).~.~.(.~.(.~.~.~.~.~.~.~.~.!.~.!.!.~.Q.Q.Q.Q.Q.Q.Q.U.L.W.j - - ` ............| [ ..` ..| ` | ` ` ` ` ` ` ` ` D ` D m D D ` m D G D M M D D m D c c c c c h m c m h v v h l l l g g g g h g g g , < , , , , , , ; , : ; , ; , = ; = = : : = = = O = = = = X o = X = o X o X o   X   X . o     X     X   PX",
"PX                                    . .     . . . . .   . . . . + O . . + + . + + . + + $ O + + $ + + $ $ $ $ $ $ $ $ $ $ % $ & % & * & & 3 & 3 3 e 3 3 e 3 e 4 e e i e i i i i i e r S i i i i i A A i i A A S F S Z Z F S Z Z Y Y Y Z q q L e.d.d.d.s.s.k.k.k.k.k.k.z.k.k.k.l.k.k.k.l.s.s.s.a.a.a.g.h.h.L L f.p.p.p.p.p.p.a.a.a.g.a.a.a.a.p.a.a.a.a.a.p.p.p.p.p.i.f.e.r.H 9 9 0 0 q q T c.c.f.N.N.f.N.N.M.N.N.N.B.A.A.C.C.C.Z.Z.NXZ.NXZ.NXNXBXS.S.S.K K c.A.A.Z.A.Z.Z.Z.C.Z.A.C.A.B.B.B.N.N.N.c.N.c.t.t.c.c.c.c.c.t.,.J * O X X - `.' J.J.J.L.J.L.L.L.L.L.U.U.I.I.I.I.!.!.!.^.^.^.~.~.~.~.).L.L./ _ P.).~.(.(.(.~.~.~.~.~.~.~.~.~.~.~.~.Q.~.Q.~.Q.Q.Q.Q.Q.Q.Q.J.`./ - - 7...{ [ [ | | ..[ | | ..` ..` | | ` ` | ` D ` ` B ` ` D D m D D m D M M M G m G M c c c c m h v v v v h v h l h g g 6 h < g 7 g f , < h , , , , , , ; , , ; = : ; ; : = = ; = = ; = o o = = o = o X X o X o X o X o X X   X o   X X     PX",
"PX                    O   .       . .   .   .   . . . . . . . . . + . . + . . + + . . + + + + $ + $ + $ + $ $ $ $ % $ $ & $ & $ & $ 4 * & & 3 3 3 3 3 4 r 3 3 y e e e e i 4 i e e i i i i i i i A i i i A A A A A Z Z Z Z Y Y Y Y J Y a A t H L e.i.d.s.k.k.k.k.z.k.z.k.k.z.z.k.l.k.k.k.l.s.s.s.s.a.a.g.h.h.L L h.p.p.p.p.p.p.a.a.s.a.a.a.s.a.a.a.a.a.a.p.p.p.p.i.i.i.i.e.r.H 9 9 0 q 0 q K m.c.c.f.t.N.c.N.N.f.N.N.M.B.A.C.C.C.C.Z.Z.NXZ.NXNXZ.NXZ.S.S.L K c.B.A.Z.Z.Z.Z.C.C.C.A.V.A.N.N.N.N.c.N.c.t.N.t.N.t.t.c.t.r.v.r.q @ +   X - `.J.J.J.J.L.J.L.L.L.P.P.P.P.I.U.Q.Q.Q.Q.!.~.Q.~.~.~.~.~.Q.J.Y./ _ L.Q.~.~.~.~.(.~.~.~.~.~.~.~.~.~.Q.Q.~.Q.Q.Q.Q.Q.Q.Q.Q.U.W.L.W.j - - ` o...[ ..| | | | | ` | | | [ ` ` | ` ` ` ( D D D B m ` ` G m D m D D m m m m m m m c G m c h c h v h v l l h g g g g g 6 < g < , , , , , , , ; , : ; , , = : ; ; ; ; ; = = = = = = = = = o o = X o X o o   o . X X X X X   X   o     O PX",
"PX                                      .         .   . . . . . O . . . . + O . + . + . + + + $ + + $ + + $ $ $ $ $ $ & $ $ $ & $ & & & & 3 & 3 e 3 3 e 3 3 e 3 e e e e e i e e 4 i e i y S i i S i A A G A A A A Z S F Z S Z Z S Z Y Y Z q q L e.d.d.s.s.k.k.k.k.k.z.z.z.z.l.z.z.l.l.l.s.l.g.s.s.a.a.d.g.H.L L i.i.p.p.p.p.a.p.a.a.s.a.a.a.a.a.p.a.p.p.a.p.p.i.p.i.i.i.e.r.H 9 9 0 0 9 r K r.t.t.c.f.c.c.N.N.c.N.N.N.B.B.B.B.C.C.C.Z.Z.Z.Z.Z.NXZ.ZXA.c.K L c.N.A.C.Z.C.C.C.A.B.A.B.B.B.N.N.N.N.c.N.c.c.t.t.t.c.c.t.r.r.R H @ .     - R.] J.J.J.J.L.L.J.L.L.L.P.P.I.Q.U.I.Q.Q.Q.Q.~.Q.Q.~.Q.~.).L.J./ _ L.Q.~.~.~.~.~.~.~.~.~.~.Q.~.Q.~.!.~.~.Q.Q.Q.Q.Q.Q.Q.Q.Q.U.L.`.j - - o.| { ..| ..| ..| ..| | ` ( ` | ` ( | ` D ` ( ` ` B ` D D ` ` m D m m m m m m m m m c m h c c h c c v l l h l g g g g g 6 g , g < , , < h , , , - , , : : : ; ; , = ; ; = = = = o = = o = X o X = o o o X o X X   o   o   o   X   X     PX",
"PX      O                           . .     . . . .   . .   . . + . . . . . . + . O + + O + + + $ O $ $ + $ $ $ & $ $ % $ & & $ & & * & & & 4 & 4 4 e 3 3 e 3 e 7 e e e e i i i i i 4 S i i i i i i i A A A A A Z A Z Z Z Z Z Z Y Z Y Z A t q L e.d.d.k.k.k.k.k.z.z.z.z.z.z.z.l.l.l.l.k.l.k.s.s.g.a.a.g.h.h.r.L i.i.p.p.p.p.p.a.a.a.a.a.a.a.a.a.p.a.a.p.p.p.p.p.p.i.i.i.e.r.H 9 9 0 0 9 q K r.t.N.t.N.t.t.N.t.N.M.N.M.B.B.B.A.A.A.C.Z.Z.Z.Z.Z.Z.NXNXS.c.K K c.S.A.C.C.Z.C.A.A.A.B.B.N.N.N.N.c.N.c.c.c.t.c.t.t.c.c.c.t.r.R H @ . O   8 R._ J.J.L.J.L.J.L.P.L.L.U.U.U.Q.Q.I.Q.Q.Q.Q.~.Q.~.~.~.Q.~.J.L./ _ L.).~.~.~.~.~.~.~.~.~.~.~.Q.!.Q.Q.~.Q.Q.).Q.Q.Q.Q.L.Q.L.L.L.`.j X - | | ..[ ..| ....` [ ..( ( | | ( ` ` B ( D D D ( D ` D m D m ` m m D M D G m m c c h c m m m c v h h v h l l l h g < h 7 < < h < , h , , , , , , , , ; , ; , ; 8 = = ; = = = o = = o = X = = = X = o X o o X o X X o X   X   X   X   X X PX",
"PX                    .     .   .         .       . . . . . . . . . . . . + . + + . + . + + + + + + + + $ + $ $ $ $ $ $ $ $ $ & $ 4 & & 3 & & & 3 5 3 3 e 3 e e i 4 e y i 4 7 i i i i i i i S i i i i A i A A A Z Z S Z Z Y Y Y Z Z Y S A t H L e.d.s.k.k.k.k.k.z.k.z.z.z.z.z.z.z.l.l.l.l.g.g.s.g.s.g.g.l.l.L L p.i.p.p.p.p.p.a.a.a.a.a.a.a.a.p.a.p.p.p.p.p.p.p.p.i.p.f.e.r.q 9 @ 9 9 @ 9 K r.c.t.f.f.t.c.f.t.c.c.N.N.M.N.B.B.A.A.C.A.C.C.Z.Z.Z.S.NXN.c.K H c.N.A.C.A.A.C.B.B.B.B.M.N.N.N.N.c.c.c.c.c.t.t.t.t.t.r.c.r.r.R S +   O   8 R._ J.J.J.J.L.J.L.U.L.P.U.U.U.U.U.Q.I.Q.Q.Q.Q.~.Q.Q.Q.~.Q.J.Y._ _ L.Q.).~.~.~.~.~.~.~.~.~.Q.~.~.Q.Q.Q.Q.Q.Q.L.Q.Q.L.Q.Q.L.Y.L.W./ - = o.| ..[ ( | | ` ..` ` | | ` | ` ` [ ` ` | D ` D D B ` D ` m m D m m m D D m m c c m c h c h h c c v v l h l g g g g g 6 h h < , , g , , , , , , = , , ; ; , ; : = ; ; = = = = = = o o = o o X o o X o X X o   X o   o   X o   X   X     PX",
"PX                O       O         .     . .   . . . . . . . . . . . . . O O + + O . + + + O $ + + $ $ $ $ $ $ $ $ & $ & $ $ $ $ 4 & & & & 4 & 4 3 3 3 e e 3 e e e e e i e 4 i e i e i e i i i A i i A i A A A A S A F Z Z Y S Y S Y Y Z q H L e.d.d.k.k.k.z.k.z.z.z.z.z.z.z.z.z.l.l.l.s.l.l.g.a.g.a.g.g.H.L r.i.i.p.p.p.p.p.p.a.a.a.a.a.p.p.a.p.a.p.p.p.p.p.p.i.i.i.f.e.m.q @ + 0 9 @ 9 q R r.t.t.t.c.c.t.t.t.N.f.N.N.N.N.M.M.B.B.B.C.C.C.C.Z.A.NXS.c.H K c.c.B.A.A.B.B.N.M.M.M.N.N.N.N.c.c.c.c.c.t.t.t.c.t.t.r.r.r.v.>.r $ O O X - / `.Y._ J.J.J.J.L.L.L.L.P.L.Q.L.Q.U.I.Q.Q.Q.!.Q.~.Q.Q.~.Q.L.K./ / K.U.).Q.~.~.Q.~.~.~.Q.~.~.Q.Q.Q.Q.Q.Q.Q.Q.L.Q.L.L.L.L.L.L.J.W.j - - 7.| [ [ ..| ( ( ..` ( | ` ( | ` ` ` ` D ` m ( D m ` D m m ` D m m m m m m m m m m c h m h x x l x k h v l l h g g g g 6 6 < 7 g < < , , , , , , , ; ; : : = ; , = ; = ; = = o = = = X = = o o X o o o     X o o X o   o   X   X X       PX",
"PX                                      .       .     . .   . . . . . . . + . + . + . . + + + + + + $ + + $ + $ $ $ $ $ $ $ $ % * & $ & & & & & 3 3 3 3 3 3 e 3 e e e e e e i e i e i r i S i i i A i i A A i A A F A Z Z Y Z Z Y A T S Z t H L e.d.d.s.k.k.k.z.z.z.z.z.z.z.z.z.k.z.l.k.l.k.s.s.g.s.a.g.g.H.L L i.i.p.p.p.p.p.p.a.a.a.a.a.a.a.p.a.p.p.p.p.p.p.i.i.i.i.e.u.y.q + @ @ * @ @ r T r.r.c.t.t.t.c.N.t.t.c.t.c.f.N.N.N.N.B.B.B.B.A.A.A.A.A.N.c.H K t.N.N.B.A.B.B.N.N.M.N.N.c.c.c.c.t.c.t.c.t.t.t.c.r.c.r.t.r.T T r $       X d `.'.J.J.J.J.J.L.L.L.L.P.U.L.Q.Q.Q.Q.I.Q.Q.Q.Q.Q.Q.~.Q.~.L.L./ _ Y.U.).^.~.Q.~.Q.Q.Q.~.Q.Q.Q.Q.Q.Q.Q.Q.L.L.Q.Q.L.L.L.L.L.L.J.`.j - - ` ......[ ..| ..` [ ..` [ ` | ( ( ` ` ( ` ` D ` ( m m ` ` m m ` ` m D m m m c m h m m c m v h m h h v h l h l g g g g g h < < < 7 , , , , , , , , , : , ; 8 = : = 8 = = = = = = o = = o o = = = X o X o o X X   X   X o X   X     X     PX",
"PX                              .     .       . . . . . . . . . . . . . + . + . + . . + + . + + $ + + $ + + $ $ $ & $ & $ & $ $ $ & & & & & 3 & 3 3 3 3 r 3 3 e e e e e e e i i r e i i i i i A i S A i A i i A A Z A A Z S Z Y Z Y Y J a q q L e.d.k.x.k.k.z.x.z.z.z.z.z.|.z.z.z.k.l.l.k.k.s.s.g.g.g.g.h.H.L L i.i.p.p.p.p.p.p.p.p.p.p.p.p.p.p.p.p.p.p.p.i.i.i.i.i.f.H.L q 9 + + 9 * $ $ 0 q K R c.t.t.t.t.t.t.t.c.t.N.M.N.N.M.N.N.M.M.M.M.M.B.S.A.c.r.H H r.c.N.N.N.c.N.M.N.N.t.c.c.t.t.t.t.t.v.t.t.r.c.r.t.t.r.r.K t S y   .   + v X - d `.Y.Y.J.J.J.L.L.L.L.L.U.U.U.L.I.U.Q.Q.Q.Q.Q.Q.Q.Q.Q.J.J./ _ J.U.).^.Q.Q.Q.~.Q.~.~.Q.Q.Q.Q.Q.Q.L.Q.L.Q.L.L.L.L.L.L.L.L.J.`./ - - 7.` ( ) ..[ ( [ | | ` ( ` ` ` ` ` ` ( m ` ( m ` m ` D ( m ` m m m B m M D G m m h m m c h m m v h x v l h l h g g < 7 h < g h < < , , , , , = , , , ; , , ; ; ; : = = = ; o = = = X = o = X X o = X o X o o X o X . X     X   X     X   PX",
"PX                      .           .     . .     .   .   . . . . . + . . . . + . + + O + + + + O + $ + $ + $ $ $ $ + $ $ $ & & & $ * * 4 & & & 4 3 3 4 3 3 e 3 7 y 4 e e i 4 i e i 5 S i i i i A i i A S i A A A Z S Z Z Z Y S Y J Y J J t H L e.k.k.k.z.z.z.z.z.z.$Xz.z.z.z.z.z.z.l.l.l.s.k.g.s.a.g.d.h.z.L L f.i.p.p.p.p.p.p.p.p.i.p.p.p.p.i.i.i.i.i.i.i.i.f.i.e.e.u.q 9 0 * 4 $ & O 5 4 r t ,.r.r.r.t.t.t.c.t.t.t.t.c.t.t.c.N.t.t.N.f.N.c.c.S.h.t.r.H q R r.t.t.t.c.t.t.t.t.t.t.t.t.t.t.t.t.t.t.r.t.t.r.r.r.r.R H r 4 O O 2   O 7 O 8 - ] W._ J.J.J.J.J.J.K.L.L.L.U.L.U.U.U.Q.Q.Q.L.Q.Q.Q.).L.L./ / K.U.Q.^.Q.~.Q.~.Q.Q.Q.!.Q.Q.Q.Q.Q.Q.L.Q.Q.Q.L.Q.L.L.L.L.L.L.'./ - - ` o...[ ..[ [ [ [ ( ( ` ( ( ( ( ( ( ( ` m ( ` ` D D ` m m m m ` m m m M m m m m m x m h c v m h x h h l l h g g g g g < h g , , , h , , , , , , 8 , : ; , ; ; ; = : = ; = = o = = = o = X = o o X o X o   X X   X X X   o   X   X       PX",
"PX                        O         .     .     . . . . . . . . . . O . + . + . . + . + . + + + $ + $ $ + $ + $ + $ $ & $ $ $ $ * $ & & $ 4 & 3 4 3 3 3 3 3 3 r e e 4 e 4 i e i e S y e i i S i i i A i A i A A Z A S Z Z Z Z Y S S J J t t q L e.k.k.z.z.z.z.z.z.z.z.z.z.z.z.z.z.l.l.k.k.k.g.s.g.s.g.g.h.H.L L h.e.i.p.i.i.p.i.i.i.i.i.i.i.i.i.i.i.i.i.i.i.f.e.i.t.y.L q e + 4 + 4 + O y $ S t T R r.r.r.c.r.t.t.r.r.c.t.t.c.c.t.c.t.t.c.t.t.c.t.t.r.r.q q R r.r.t.c.t.t.t.t.t.t.t.r.r.r.r.t.r.r.r.r.r.t.r.r.r.L R q E F 2 8 2 2 O O > 7 - j `._ _ J.J.J.J.J.J.L.L.J.L.J.K.J.J.K.K.L.P.L.L.W.L.J.Y./ _ L.U.Q.Q.~.Q.~.Q.Q.^.Q.Q.Q.Q.Q.Q.L.Q.Q.L.L.Q.L.L.L.L.L.L.J.J.'.G - X o.....[ ) { ( ( [ ( ` ( ` ( ) m ` m ( m ` ( m ` m ) m m m ` m m m m D m m m c m v x m c c h m l x x l l l g l g g g 6 < h 7 7 , h , , , , , , , = , = , , = = : ; = = : : o = = o = = o o = X = X X o X X .   X o     X   X X   X   X X PX",
"PX                          .         . .     . .   .   .   . . . . + . . . . + + O + . + + + + + + O $ + + $ $ $ $ $ + $ $ $ $ & & & $ & & & & 3 3 4 3 3 3 3 3 e e y i i e e e i e i i r i i e i A i i i A i A Z A Z A Z Z Z Y Y J Y J A q H L e.h.z.z.|.z.z.z.z.z.z.z.z.z.z.z.l.z.l.l.k.k.g.s.a.a.s.g.l.H.L L u.u.u.e.t.f.u.e.t.e.t.e.e.e.e.u.e.t.e.e.e.e.e.e.e.r.y.H @ A 4 3 + 4 4 $ O + r @ T R R R r.R r.r.r.r.r.r.,.r.r.r.r.r.r.r.t.r.R r.,.r.y.R 0 r ~ r.r.r.r.r.,.r.r.r.r.r.r.r.r.r.r.,.R r.r.R r.R R R R T 0 p A 7 C C 2 2 2 5 = 8 d 8.] ' ] _ ] ] K.] K.] _ Y.K.K.Y.Y.Y.K.Y.Y.W.Y.Y.Y.Y.Y.j / Y.Q.Q.).Q.Q.Q.Q.Q.Q.Q.Q.Q.Q.Q.Q.Q.Q.L.U.Q.L.L.L.L.L.L.L.L.J.'./ - - ` ` ) ) ) ....[ ..` ) ` ) ` ` ) ` ) ` ` ` m ) m ` m m ( m ( ( m ( m m m m m m c m m c h c c h x h l l l h g g g g < 6 h < , g < , , , , , , , , , = , = ; ; 8 = = = = o = = = o = = X = = X o o o o   o X X o   X X X X X     X         PX",
"PX                                  .   .         . . . .   . . . . + . O + . . . + . + + + + + + + + + $ $ $ $ $ $ $ & $ $ & & * $ $ & & & & & & 3 3 3 3 r 3 3 e e e e e e e i e i i i i i i i i A i S A i A A S A F A Z Z Z S Y a Y S Z t s L e.e.d.d.g.d.k.k.k.k.k.z.g.g.k.g.s.d.d.d.d.d.d.p.p.p.i.i.h.u.L q q H H H H H H H H H K H H H H H q H H H H H q q q q q 9 + $ 2 4 <.4 1.r * $ O 4 + 0 0 q r 0 r 0 r q q q q q q q q q t t q q q q q q q r * @ @ 0 r q q q q 0 q 0 q q r t q q q q q q 0 q 0 9 9 0 4 4 $ & 2 C :.6.-.G C 2 O   X - 8 - - d d - - - - d - - - d - d - d d d - d / 8 d d d / J.L.L.Q.Q.Q.Q.Q.I.U.Q.U.Q.Q.L.L.L.L.L.L.L.L.L.L.L.L.L.L.J.J.'.G - X h ( ..) ) ) ( ..) ( ` ) ) m ( ` ` ` m ) ) ` ` ( ) m m m m m m m m m m m m m v h m h c c h c x h v l h l h g g g g f g g < < , < < < , , , 8 , = , , : : = ; ; = = ; = = = = = = o o o = X o o X X o o X o X X     o X       X     X     PX",
"PX                  O               .       . .   . .   . . . . . . . . . . . + . + O . O + + + + + + $ + + $ + $ + $ $ $ $ + $ $ 4 $ & & & 3 & & 4 3 3 4 3 3 e y 4 e e e e e e i e e r i y S i i i i i i A A A A A A A Z S Z Z Z Y S J a 0 0 K u.e.e.h.h.x.h.h.h.h.h.h.h.h.h.h.h.h.d.h.d.i.i.i.i.i.i.e.t.y.H q 9 q 9 9 q 9 q 9 q 9 9 q q 9 9 9 9 9 9 9 @ 9 9 @ @ @ + + $ 4 4 ! <.r 1.S r $ 2 2 + + $ 4 $ + + @ 4 @ + + + $ $ $ 4 * 4 r * @ + 4 * @ * $ $ O $ $ $ $ 4 $ $ $ $ $ + $ $ $ + + . . + + + + . . + O O 2 2 2 C C 7XeX;.7X-.C 2 2 O X 8 X O O 8 O - 8 X X X X X - X X X X X X - - - d - - - / Y.Y.Y.U.W.Q.L.Q.U.U.L.U.L.L.L.U.L.L.L.U.L.L.L.L.L.L.Y.L.Y.' './ - = - ` ` ) ) ) ) ) ) ) ` ) ) ) ( ) ) m ) m ) m ` m D D ( D ( m m m m m m m m G m c m v c c h h l x h l l h g g g g g < 7 , h , h < , , , , , , , , = = : = ; , ; = ; = = : = o o = o = = X = o o X o o X o   o X o   X   X X X   X X X     PX",
"PX                                    .     . .   . .   .   . . . . . . . O + . . . + + + + O + + + + $ $ + + $ $ $ $ $ $ $ $ $ & $ & & 4 3 & & 3 3 3 3 3 3 4 e e e e e e e e i e i e e i i i i i i A A i A A A Z A Y S A Z S A A Y J S A r 9 q y.H.H.H.H.H.H.H.H.H.H.H.H.H.H.H.H.H.h.H.h.H.u.u.h.u.u.u.y.H q 9 0 J a Z J Y A Z a Y Z Z Y Z Z Z Z Z E Z Z F Z Z F <.F F <.<.<.r r S S S S S F F ! <.F <.F <.<.<.<.<.F <.<.<.<.<.<.<.<.<.<.<.6.<.<.<.<.! 6.<.<.D <.<.6.<.<.6.<.6.<.<.6.<.<.<.6.<.` <.! <.D <.` <.F <.<.:.6.=.5X5X7X9X;.:.6.9.6.6.6.7.6.6.9.6.7.6.6.7.6.7.7.` 6.7.7.` o.` 7.o.D ` / - - d d ] ] Y.R.Y.] K.K.] ] _ ] _ ] _ _ _ ] _ / _ _ / _ / / / / G d -   X - 8.R.8.R.$.$.$.8.$.$.' ' ....' ` ' ` ` ) ` G j - O m m ` m M c c D m m h m m x m x h h c h l h l l h l g g g g 7 g 7 g f g , , g , , , , , : , = , , = ; - = = = = = = = = = X = o X = o X = X o X o X X X   X X X   o   X           X PX",
"PX                                . .   .       .   .   . . . . . . . . . . . + . + + . + + + + + O + + + O $ $ $ + $ $ $ * $ * $ & $ & * & 3 & & & 4 3 3 3 3 3 3 e e e e e e e i e i i i i e i i i i i A i i A A A a A Y A Y Y S Y Y J a 0 @ 9 H L H L L L L K L L L K L L L L L L H L L L L L L L L H q 9 0 9 J ! 0 0 * * r $ * * @ 4 4 $ 4 & O + $ + O 4 $ O 2 O 4 O 2 3 4 A >.S S 5.5.i 4 2 O O 2 O 2 2 O 4 O 2 C C 2 2 2 C 2 C C 2 i C 4 2 2 2 4 2 O O 2 C 4 C C 2 2 O C 2 O 2 2 O 4 4   O 2 O O O 2 O 2 2 2 2 2 G =.:.5X6X5X7X7X9X=.-.G C G -.-.G G C G 8 7 8 8 8 8 8 8 $ 8 : 7 = 2 8 - 8 j 6.O - d d d j d j d j j j / j / j j j d d j j j j j j d j j j j j d - X X X d w.R.`._._._._._._.8.8.$.$.$.' o.' ` ` m D D m m D m h m m c M b M m m m v m l m c v v v v h h l h l g g g g g g , g , 7 , h 7 , , , = , , - , : = = , 1 = = = = = o = o = = o = o o o = X o o o X o . X o     X X   X     X   X     PX",
"PX                      O       .         .   .     . . . .   . . . . . . . + O . + . + . + + + + + $ + + + + $ + $ $ $ $ * $ $ * $ & $ & & & & 3 4 3 3 3 3 3 3 3 e e e e i e i i e r i 4 i i i i A i S i i i A A A A A A A A Z S Y T S S e + @ q H H H H H H H H H H H H K H L H L H L L H H K H H q q @ @ 9 q q G.~ 0 + * 4 4 4 $ 4 4 4 4 $ 4 4 4 7 2 4 2 4 7 2 4 4 O O 4 2 r 4 4 C 4 2 4 2 e 7 2 7 C C 7 C 7 7 i i S C i S G G S S S S S G S G C A r 4 2 7 C S G -.S S G S S G S 4 C 7 C 4 4 2 7 2 7 7 2 2 4 8 2 C C -.-.=.=.;.;.=.-.C C 2 C C C C C C C C 2 8 2 2 O O O 2 O O   O O O X 8 X UX' ` - - - d d j j j j j j G / j j j j j j / j j / / j / j / / / / d d - - - - - - - - 8 - - - - - - - X - X X - X X X X X X X X X X     = X , m m k k m m k h x v v h l k h l k g g g g < g 7 g , h , , , , , , , , , , = , , , = = = = = = = = = = = o = X = o = X X X o X o o   X X     X     o   X   X       X PX",
"PX                                    .   .       . . . .   . . . . . . . . . . . . . . + + + + + + + + + + $ + $ $ $ $ + & $ * & & $ & & & & 4 & & 4 3 4 3 3 3 e 3 e e e e e e i 4 i e S i i i i i i A i A A A A A A A A A Z Z Z Z Y t Z 0 @ 9 q K H L L H L L L L L L L L L L L L L L L L r.L L L L H 9 @ s a G.UX0 @ + + O 4   . O O O O O   O   O O 2 O 2 2 2 2 O O 2 2 2 2 2 4 2 O 2 2 2 O 2 2 2 2 2 2 2 2 2 2 2 2 2 C 2 C C 2 2 C 2 4 C 4 4 4 2 2 2 2 2 4 2 8 4 2 C 2 C 2 C 2 2 4 2 2 2 2 2 2 O 2 2 2 2 2 2 2 2 2 C C C -.C -.-.C C C C 2 C C 2 C C C 2 2 2 2 2 O 2 O O 2 O O   O O O   X G UX6.- - d d ] ' ] K.] ' J.] ' ' K.K.' Y.Y.Y.Y.Y.W.`.W.`.W.W.'.W.`.'.`./ d - = X X X X - - X X   X X   X X X X   X X X         O O   X X     X 8 m x m l f h m h h c v l g l l h l g g g g g g < 7 < < < , , , ; , , 8 , , = = = = = 8 = = = o = o = = = O = o = X o o o X o X X X . o X X   o X   X         X     PX",
"PX            O                       O   .   .   . . .     . . . . . . . . . . O + . . + + + O O + + + + + $ $ + $ $ + $ * $ $ $ & & $ & & 4 * 7 4 & & 3 3 3 4 7 4 e e e e e e e i e i y i i i r i A i i A A a A a A a A A A S Z Z Y S Z 0 9 q R R F.e.u.u.u.h.H.h.H.H.H.h.u.h.h.h.h.h.c.h.f.h.h.u.u.^ q 9 J ~ UX0 @ + + O 2 O       O O O O 2 2 O 2 2 2 2 O 4 2 2 2 4 2 2 O 2   O 2 2 2 2 4 4 2 2 2 2 2 2 2 2 2 2 2 2 2 2 2 4 4 C O 2 2 2 2 2 O O 2 2 O 4 2 2 2 2 2 2 2 C 2 C 2 2 2 2 2 2 C 2 2 2 2 C 2 C 2 C C C C C C C C 2 C C C C C 2 C C 2 C 2 C 2 2 2 2 2 2 O 2 O 2 2 O 2   O     O   X 8 7.G - - 8 / `.Y.W.Y.W.Y.W.W.W.W.W.W.W.'.W.'.W.W.W.'.).'.'.'.).).'.).'.] ] - X 8 X X   X X X X X   X 2 X     X X   X   X X         X   O X X X   m x k k m m h x h x h h k h l g g g g < 7 g f < h , , , , , , , , , = , = = , , = = = = = = - = = = o o o = o o X X o o X o X X X       o X   X   X   X X       X PX",
"PX                O                   .       . .     . . .   . . . . . . . . . + . + . + + + + + + + + + + $ + $ $ $ * $ $ $ $ 4 $ $ & * & & & & 3 3 4 3 3 3 3 e e e e e e e i e r i e i S 4 i i i i i i a i S A S A A A Z J A A Y S J A 0 0 H u.e.e.e.i.i.i.h.i.h.i.i.i.i.i.h.i.i.i.i.i.i.i.i.i.f.t.F.q 0 E J @ 0 * . . O O 2 2 2 2 2 2 2 2 2 4 4 2 2 2 2 C C C 2 C 4 C C C 2 2 2 2 2 C -.C C C C C C C C C C C C C C C S C C C C C 2 C C C 4 2 2 2 2 i G 2 2 2 2 C C C C C S C C C C C C C C C -.C C C -.-.C C -.-.C -.C 2 C 2 C C C -.C C C C -.C C -.S C C C C C C C C C C C 2 C 2 2 8   h X - d h - 8 ' Y.J.J.J.L.L.L.J.J.J.L.L.L.L.L.L.L.P.U.U.U.Q.Q.Q.L.I.U.U.P._ ] d - 8 8 - - - - - - - - - - - - - - - X - - - - - X - X X X 7 7 X   X h M c k m h x h x h x k h g l g g g g h < h < < < , < , , , , = , , , , = = , = = , = = = = = = o o = = = X = = = o o X o X o . X o X X   X X X X   X             PX",
"PX                      O               .   .           . . . . .   . . . . . . . + . . . . + + O $ $ + + + + + + $ $ $ $ $ * $ + * $ & * 4 & & & 4 & 3 3 3 3 3 3 e 4 y e i e 4 e i e i 7 i i i i i S i i i i A A i A A A S A A Y J S t i 0 r H r.e.i.i.d.i.d.d.d.d.d.d.d.d.d.d.d.d.d.d.d.p.p.p.i.h.e.H.q q ! 0 * $ e 4 7 2 C S C C C -.C -.C -.-.-.-.-.-.-.-.=.=.-.-.-.-.-.=.C C C C C -.=.-.=.=.=.=.=.=.=.=.=.=.-.=.-.-.-.-.-.-.=.-.-.-.-.-.-.C C 2 <.G A 2 C -.-.-.-.=.=.;.=.;.=.=.=.;.=.;.;.;.;.;.;.;.;.;.;.;.;.;.;.;.=.C C C -.=.;.;.;.;.;.=.;.;.;.;.;.-.;.;.=.=.-.=.=.=.=.-.-.-.C 2 6.7 7 - X 6.8 - d / ] J.J.L.J.L.L.L.L.L.L.L.L.U.U.U.Q.I.Q.I.Q.Q.!.Q.!.!.Q.Q.W.Y.Y.j - G / j / j j / j d j / j j j d j j j d j d j / j d d - - -   7 8 7 - v c x h f m x h k l l k h g g g g g 7 < < < , f g , , , , , , = , = - = , = , = - ; = = = = = = = o o X X = X o o X o o X o o X X     X o               X       PX",
"PX                                .               . .     .   . .   . . . . . . . . . + O + + . + + + + + + $ $ $ $ $ + $ $ $ $ & * & & % $ & & & 4 & 4 3 4 3 4 r 3 e e e 4 i i e e i e 5 S i 4 i i i i S i i i A A A A A A J A S J Y S i 9 q L e.e.e.g.l.k.k.z.l.l.z.l.k.z.k.k.g.g.g.g.g.g.g.a.g.g.h.H.H 9 e * $ 3 4 4 4 4 -.=.;.;.5.;.;.;.;.;.;.;.;.;.5X;.5.5X;.5X5X5X5X5X;.5X=.C -.=.;.;.5X5X5X6X5X5X5X5X5X5X5X5X5X5X5X5X5X5X5X;.;.5X;.5X5X;.:.=.:.S C C C -.:.5X;.5X5X6X5X7X6X5X6X6X6X6X6X6X6XaX6X6X7X6X6XkX6X6X6XkX6X7X=.-.;.:.7X6XkX7X6X6X6X7X6X6X7X6X7X7X6X6X5X6X6X5X6X5X5X5X5X:.=.C 8 C   X 7.8 - - / Y.J.L.L.L.L.L.L.L.L.U.L.Q.Q.Q.U.I.Q.Q.Q.Q.Q.!.!.!.!.^.Q.Q.Y.Y./ j '.3X'.3X'.'.3X'.'.'.3X'.'.'.'.'.'.'.'.'.`.'.`.W.`.Y.$.d - 6 O O   X m h m f m h h x x h l h h l g g g < h h < , g , , , < , - , , , = , , 1 = , = = 1 = = = = = = X = = = o = o o o o o X X o     X o X o     X   X X   X X         PX",
"PX                      O                   .     . .   . . . . .   . . . . . . . . + . . . + . + + + + + O + + $ + $ + $ * $ $ + $ $ & & 4 * & & & & 4 & 3 3 3 3 3 3 e e e e e i 4 i e i i i i i i i i i i A i i A A a a A A Z S Z Y t t r q L e.e.i.s.k.k.k.k.k.z.z.z.k.z.k.k.k.l.g.s.s.s.s.a.a.g.h.H.s 9 0 + + e O 2 C -.5.;.5X5X5X5X6X5X6X6X6X6X5X6X6X6X6X6X6XaX6X6X6X6X6X5X5.;.=.7X5X6X6XaXaX6XaX6XaX6XaXaX6X6XaX6X6XaXaX6X6X6X6X6X6X6X6X6X5X;.5.C C -.-.;.6X6XaX6XaXaXaXaXaXaXaXaXaXaXaXaXaXsXaXaXaXaXaXaXaXaXaXaXaX7X;.=.;.5X6XaXaXaXaXaXaXaXaXaXaXaXaXaXaXaXaXaXaXaXaXaXaX6X6X5X7X:.C 4   8 ` - X - _ _ J.L.L.L.L.L.L.L.L.Q.Q.L.Q.U.Q.Q.Q.Q.Q.!.!.!.Q.!.!.!.Q.Q.Y.Y./ / W.'.).).).).).).).).).T.).T.W.T.W.T.W.U.Y.U.Y.K.Y.Y.R.j - - O O X X G h c h m k x l l h h f h g h g < h , < h , , < , , , ; , , , , , = = , = = = = = = = ; = = o = o = o = = X X o X o X   o X o o   X   o     X   X     X         PX",
"PX                              .         .     .         . .   . . . . . . . . O . . . + + . . + + + + + + + $ + $ $ $ $ $ * $ $ & + 4 $ & & $ 4 & 4 & 3 4 $ 3 3 3 e e e e e e e i i e 4 i i i r i i i t A i A a A A S A A J S Z S Y S S 0 q L e.e.i.d.k.k.k.k.k.k.x.k.k.z.z.k.l.l.l.k.k.s.k.s.g.g.h.F.H 9 e + . . 4 2 C :.5X5X6X6X6X6X6X6X6XaX6XaXaXaX6XaXaXaXaXaXaXaXaXaXaX6X5X;.;.;.aXxXxXaXaXsXsXaXsXsXsXaXsXsXaXsXaXaXaXaXsXsXaXaXaXaXaX6X6X5X;.-.C C 7X5X8XaXaXaXaXsXsXsXsXsXsXsXsXfXdXfXfXfXfXfXdXfXfXfXsXfXfXsXaX6X;.;.5X6XaXsXsXsXsXsXsXsXsXsXsXdXsXsXsXsXsXsXsXsXsXsXsXsXaXaX5X;.-.C 2 O G , - d / ' J.L.L.L.L.L.L.U.L.L.L.U.Q.Q.Q.Q.Q.!.!.!.!.!.!.!.^.Q.Q.).U.W./ / K.W.T.^.^.!.T.T.^.^.T.T.T.I.I.U.P.P.P.P.P.L.K.J.J.J._ R.d - X   O X c c x h h k h l h k h h g g g g h < h , , , , g h , , , , , = = , , , = , , , = = = = - = = = = = X = o o o o X o X o X o X   X X   X   X X   X X     X       X PX",
"PX                                    .   .   .       .   . .   .   . . . . . . + . + . . O + + . + + + . + + $ $ + $ $ $ $ $ $ * $ * $ & $ $ & & 4 & & & 3 4 3 e 3 e 3 e e e e e e e i e i i e i r S i i i i S S i t A A A A a A A Z S i r H L e.e.i.k.k.k.k.k.z.z.k.z.z.z.z.z.l.k.l.l.s.k.k.s.s.g.h.h.H q 9 $ . . 4 C =.5X5X6X6XaXaXaXaXaXaXaXaXaXaXaXsXsXaXsXsXsXsXsXsXaXsX6X5X;.;.5XaXxXjXjXsXsXsXsXsXfXsXfXfXsXsXsXsXsXsXsXsXsXsXsXsXsXsXaXaX6X5X=.C C 5X6XaXaXsXsXdXfXdXdXfXfXdXdXdXdXdXdXdXdXdXfXdXdXdXdXdXdXfXsXsX6X;.;.6X6XaXfXfXfXfXfXfXfXfXfXdXdXdXdXsXfXfXfXdXdXdXfXfXsXsXaX6X6X;.-.C 2 G : X d / J.J.L.L.L.L.L.L.L.Q.L.Q.U.U.Q.Q.Q.!.!.!.!.~.!.~.~.~.!.^.Q.U.W./ / K.Q.^.^.!.!.!.T.!.Q.!.I.I.I.I.I.U.P.P.P.L.K.L.J.K.J._ W.j -   X   X c m v k h k h k k h g g h g h g , h h , h , , < h , , , , = , - , = = , - : - ; = = - = = = = o o = X = X = o X o X O o X o   X o     X   X X           X       PX",
"PX                                            .   . .       . . . .   .   . . . . . . . . + O . + + + O + + + + + $ + + + $ + * $ $ $ & $ & $ & & & & 4 3 3 & 3 3 5 4 e e e e e e e i 4 i i 4 i i i a i i i A i A i A A i A S a A A Z S i q H L e.e.i.d.k.k.k.k.k.k.z.z.z.k.k.k.l.l.k.l.s.s.s.s.d.g.h.j.H 0 w O   O C :.;.6X6XaXaXaXaXaXsXaXaXsXsXsXsXsXsXsXsXsXsXsXfXsXsXgXgX6X6X5X5X6XaXxXlXjXjXgXgXsXfXfXfXdXfXfXdXfXdXfXsXsXfXdXfXfXfXsXsXsXaX6X6X;.-.5.5XaXsXsXfXdXdXdXdXdXdXdXdXdXdXdXdXdXdXdXdXdXdXdXdXdXdXdXfXfXsXaX5X;.6XaXsXdXdXdXdXdXdXdXdXdXdXdXdXdXdXdXdXdXdXdXfXdXfXfXdXsXaX6X5X7XC 2 F 8 - d / J.J.L.L.L.L.L.L.L.L.Q.I.Q.Q.Q.Q.Q.Q.!.~.!.~.!.~.!.~.~.Q.).U.Y./ / K.W.^.^.!.^.^.^.T.!.!.Q.I.I.I.I.U.U.U.P.P.P.K.L.J.J.J._ R.' - X X X c x h k m h k h h h k h g f f g h , , h , , , , , , , , , , 1 , = , = = = , ; = = = = = = = = = = o = o o X X o o X X o X   X o X   X   o     X   X X           PX",
"PX              O                           .   .     . . .   . .   . . . . .   . . . . . + . + + O + + + + + + $ + $ $ + $ $ * $ $ $ * & & & $ & 4 4 & 3 3 3 3 3 3 3 r 3 3 e e e e i e e i i i e i i S i i S i A i S i A A A A S a Z A S 0 q L e.i.i.d.d.k.k.k.x.k.k.k.k.z.l.k.k.k.k.k.s.s.s.s.d.d.h.F.H 0 p + O 2 C ;.5X6XaXaXaXaXaXsXsXaXsXsXsXsXsXsXsXfXfXfXfXsXdXgXgXhXhXaX6X5X5X6XaXxXlXlXlXjXhXgXsXsXsXdXdXdXdXfXfXfXfXfXfXfXfXfXfXsXfXsXsXaX6X5X=.=.6XsXsXfXdXdXdXdXdXdXdXdXdXdXdXdXdXdXdXdXfXfXfXdXdXdXdXdXfXsXaXaX5X;.6XaXsXdXdXdXdXdXdXdXdXfXdXdXdXfXdXdXdXdXdXfXfXfXfXdXdXdXfXaX6X5X=.C 7 7 d d / ' J.L.L.L.L.L.Q.U.L.Q.Q.Q.Q.Q.!.!.!.~.!.!.~.~.~.~.~.~.Q.~.Q.W./ / J.W.^.^.^.!.^.!.Q.Q.Q.Q.I.I.I.I.U.U.P.P.P.L.L.K.K.J.J.J._ ] - -   X x h f m k l h h l h h g g h f h h , h h , , 7 g , , , , , , , , = , = , = = = = = = = = = = = o = = = X o o o o X X o   X o o   X   X     X X     X             PX",
"PX                                .           .     .       .   . . .     . . . . . . + . + + . + + + + + + O $ + + $ + $ $ $ + * $ $ $ & $ & * & * & & & 3 & 4 3 3 3 e e 3 e e i e e e e e i 4 i r i i i i i i i A a A a a S t t A Z t t 0 H L e.e.d.k.k.k.k.k.k.k.k.z.z.k.l.l.l.k.k.k.k.s.s.s.k.k.h.H.H 0 t + O 2 -.;.5X6XaXaXaXsXaXsXsXsXsXsXsXsXsXsXsXfXfXfXfXfXgXgXjXjXjXaX6X6X5X6XkXlXxXzXlXlXjXjXgXgXfXsXdXdXdXfXfXdXfXsXfXfXfXfXfXfXsXsXsXaX6X6X=.;.6XaXfXdXdXdXdXdXdXdXdXdXdXdXdXdXdXdXdXdXfXgXdXdXdXdXfXfXgXsXsXaX5X;.6XaXsXfXfXfXdXdXdXdXdXdXdXdXfXdXdXdXfXdXfXdXdXdXfXdXdXfXfXsXaX6X=.C 7 7 8 8 _ J.L.L.L.P.U.U.Q.L.Q.Q.Q.Q.Q.Q.!.!.!.~.~.~.~.~.~.~.~.~.).Q.Q.W./ / K.^.^.~.~.^.!.!.!.!.!.!.Q.Q.I.I.U.U.I.P.P.P.L.L.J.K.J.J._ ] d X     v h k h x l h k k h h g f g , g , , , , 7 , , g , , , = 1 8 , = , = , = = = = = = = = = = X = = o X X = o X o X o o X o o   X X   o   X X     X X     X X     X PX",
"PX                                                . .     .     .   . . . . . . . . . . . O . + + + + + + + + + $ $ $ + + $ $ $ $ $ $ & $ & 4 & & & 4 4 4 4 & 3 4 3 3 3 3 e e 3 4 e e i r e i i r i i i i i i A i t i A A S A A A S S S a 0 q L e.e.i.d.k.k.s.k.k.k.k.k.k.k.k.k.k.k.s.k.s.s.s.s.d.d.h.H.H q p @ O 2 -.;.5XaXaXaXaXsXaXaXsXsXsXsXsXsXfXfXdXfXfXdXsXgXhXjXlXlXjXaX6X5X5X5XaXzXFXxXzXzXlXlXjXgXgXdXdXdXdXdXdXdXdXfXfXsXfXfXsXsXsXsXaXaX6X5X=.;.6XsXsXdXfXdXdXdXdXdXdXdXdXdXdXdXdXdXdXdXfXdXfXdXdXfXfXsXgXhXgXaX5X;.6XaXsXfXfXdXdXdXdXdXdXdXdXdXdXdXdXdXdXdXdXdXdXdXdXdXdXfXdXsXaX6X=.C 8 , - d / J.Y.L.Q.U.Q.Q.Q.Q.Q.Q.Q.!.!.!.^.~.~.~.~.~.~.~.~.~.~.~.).).Q.W._ / _ W.^.^.!.!.~.~.!.!.!.Q.!.I.I.I.I.U.U.P.P.P.L.J.L.J.J.J._ _ - -     m h h m l l k h h h h f , h h , g h , h f f , , , , , , , , , = = = = = ; - = = = = = X = = = X = X = o X o   o X   X o   X   X X     X   X X X                 PX",
"PX                                    .     .   .       .     . . .     . . . . . . + O . . + . . + + O + + + + + $ + $ * + + $ $ $ * % $ $ + * $ 4 & & & 3 3 3 r 3 3 3 3 e 3 r e e i 4 e i e i r i r i i i i i a a S a A t a S J J A Y i q q ^ e.e.d.d.d.d.s.k.k.k.k.k.k.k.k.k.k.k.l.s.s.s.s.s.s.d.h.H.H t y @ O 2 -.5X6XaXaXaXsXaXsXsXaXsXsXsXsXsXfXfXfXfXfXsXsXjXjXjXlXxXxXaXaX6X6X6XkXxXFXGXFXzXzXlXlXjXhXgXfXfXdXdXdXdXdXdXfXfXfXfXfXsXsXsXsXsXaX6X=.;.6XaXsXdXdXdXfXdXdXdXdXdXdXdXdXdXdXdXdXdXdXdXdXfXfXfXhXhXjXjXjX6X5X;.6X6XsXfXsXfXgXdXdXdXdXdXdXdXdXdXdXdXdXdXdXdXdXdXdXdXfXfXfXsXsX6X;.C 7 , f d _ Y.L.U.U.Q.Q.Q.Q.Q.!.!.!.!.~.~.!.~.~.~.(.~.~.~.~.(.~.(.~.~.U.W./ / K.).^./.~.~.^.!.!.^.!.!.T.I.I.T.I.U.U.P.P.P.P.K.L.L.L.J.J.] d X X X m k h k l l h h k f g f h f g g , , h , f 8 , , , , , = = , = , = , , = ; = , = = = - = = = o = o = o o o o o X X o O X o X o     X X   X         X X   X       PX",
"PX                                      .     .     .   .       . . . . .   .   . . . . . . . . O + + + + + O $ + + + $ + $ $ + $ * $ 4 $ 4 $ & & 4 & & 4 & 4 3 4 * e & 4 e e 3 e e e e e e e i e i i i r r i S A i S S a A A S i S A t i q q L e.i.d.d.k.k.k.k.k.k.k.k.k.k.k.k.s.k.s.s.s.s.s.s.a.d.h.x.q 0 i @ O 2 =.5XaXaXaXsXsXsXsXsXsXsXsXsXfXfXfXfXdXdXdXgXgXjXjXlXzXxXxXaX6X6X5X6XkXzXFXGXFXFXzXzXlXlXjXhXsXdXdXdXdXdXdXdXdXdXsXdXsXdXsXsXsXaXaX8X=.;.6XaXfXfXfXdXdXdXdXdXdXdXdXdXdXdXdXdXdXdXdXdXfXsXgXgXjXjXlXjXkXkX;.;.6XaXaXfXdXgXfXfXdXdXdXdXdXdXdXdXdXdXdXdXdXdXdXdXdXdXfXfXfXsXaX6X;.C 2 , d d / K.K.U.U.Q.Q.Q.Q.Q.!.!.!.!.~.~.~.~.~.~./.~.~.(.~.~.~.(.(.~.Q.W./ / K.W.^.~.~.~.~.~.^.!.!.!.!.T.T.I.I.P.U.U.P.P.L.K.K.J.L.J._ ] d -     v l v h l h g f f h , g g f , h , h , , 7 f , , , , - , , = , , ; ; = = = = = 8 = = = = o = X o = = X o o X o X   o X X o X X   X X X   X     X X               PX",
"PX                                .           .   . .     . .   .   .   . . . . . . . . . . . . + . + . . + + + + $ + + $ $ + $ $ + $ $ & $ $ 4 $ $ & 4 & & & & e e & e e 3 3 e r 3 e e e i e e r i i r i i i i i a a i i A a S A A a S t 9 q L e.i.i.d.d.d.s.s.k.k.s.k.k.k.k.k.k.s.s.k.s.s.a.a.a.s.h.H.H q a * . C =.5X6XaXsXsXsXsXsXsXsXsXfXfXfXfXdXfXdXdXfXgXhXjXlXzXzXzXlXaXaX6X6X5X7XHXGXGXFXGXFXFXzXlXlXlXhXgXdXdXdXdXdXdXdXdXdXdXfXfXdXsXsXsXaX6X;.;.6XaXsXfXfXdXdXdXdXdXdXdXdXdXdXdXdXdXdXdXdXfXsXhXhXjXlXlXlXlXzXkX;.5X6XaXsXsXgXdXgXfXfXdXdXdXdXdXdXdXdXdXdXdXdXdXdXdXdXdXdXfXfXsXsX6X;.C 2 , f d / K.K.U.Q.U.Q.Q.I.Q.!.!.!.~.!.~.~.~.~.~./.(.~.(.(.(.(.(.~.).^.W.j / K.)./.~.~.~.~.~.^.^.^.!.!.I.I.I.I.T.U.P.P.P.K.L.L.J.J.J.J.] d X X   c h l k k k h k h f h f h , h , h , , , d , , , , 8 , , , = = - ; = = : : = = o = = - X = o = o X o o X o o X o X X . o   X   X       X   X             X       PX",
"PX                                    . O         .         .   .   . . .   . . . . . . . . . . . + . + + . + + $ + $ + + $ $ $ $ $ * $ $ $ $ $ 4 & * & & & & 4 & 4 e & & e & e 3 3 3 e e e y e e r i i i i i i S i S a S S a A A A S t t 9 H ^ e.e.i.i.d.s.d.s.s.k.s.k.k.k.k.k.s.k.s.s.s.s.s.a.a.d.h.H.H t p @ $ 2 =.5XaXaXsXsXsXsXsXfXsXfXsXfXfXdXfXdXdXdXgXgXjXlXlXzXzXzXzXaX6X6X6X6XkXGXGXGXGXGXFXFXzXzXlXlXhXhXdXdXdXdXfXdXdXdXdXdXfXfXfXsXfXaXaX5X;.;.6XaXsXfXdXfXdXdXdXdXdXdXdXdXdXdXdXdXdXdXdXgXhXjXlXlXlXzXzXzXlXkX;.5X6XaXaXgXjXxXjXhXgXdXdXdXdXdXdXdXdXdXdXdXdXfXdXdXdXdXfXfXfXsXsX6X;.C 8 , f d / K.K.U.U.Q.I.Q.Q.Q.Q.!.!.~.~.~.~.~.~.(./.(.(.(.(.(.(.(.~.(.W.)./ / K.).)./././.~.~.~.^.!.!.!.Q.I.I.I.U.U.P.P.P.K.L.L.J.J.J.J.] d X X   v l h k f h g h g f g h g 7 , , , , f 7 , , , = , 8 - = , = = , ; ; = = = = = = = X = X X = X o = o = X X X o   . X X X o   X X X   X   X   X     X           O PX",
"PX                                              .     . .     .   . .   .   .   . . . . . + O . . + . + + + + + + + $ + $ + + + $ + + $ $ 4 & * & $ 4 $ & 4 & 4 3 0 4 & & e e e 3 e r e e e y r e i e i e r i S a i i i a i a t S S Z t r q q r.u.i.d.d.d.d.d.s.s.s.k.k.s.s.s.s.k.s.s.s.a.s.a.a.a.d.h.H.H t t + * C =.6XaXaXaXsXaXsXsXfXsXsXfXfXdXfXdXdXdXgXgXhXjXlXzXxXFXFXxXkXaX6X6X6X7XFXGXGXGXGXGXGXFXzXzXlXjXhXgXdXdXfXdXfXdXdXdXdXdXfXsXsXsXaXaX6X;.;.6XaXsXfXdXdXdXdXdXdXdXdXdXdXdXdXdXdXdXfXgXhXjXlXlXzXzXzXzXzXlXxX5X;.6X6XsXgXhXxXjXhXhXfXgXdXdXdXdXdXdXdXdXdXdXdXdXdXdXdXfXfXfXsXsX6X=.C 2 , f f / ] L.U.Q.Q.I.Q.I.!.!.!.!.^.~.~.~.~.~.~.(.~.(.(.(.(.(.(.(.^.).W./ / K.^././././.~.~.~.~.~.!.!.T.!.I.P.T.U.P.P.L.L.K.J.J.J.J._ _ d - X X v l k h h g f f f g g < f d , h h , , , , , , , , , , , = , , = , = ; = ; = = = = = o = = X = o X o X o o o X o X X o   X   X   X   X       X     X             PX",
"PX                                                      .       . . . . .   . . . . . . . . . . . . . O + + + + + + $ + + $ $ $ + * $ $ $ $ & $ $ $ & 4 & $ 4 $ 4 4 & e e & e 4 3 3 3 e 4 e e e r i i r i i r i i i S i i i i A t A S a t 0 H L e.e.i.d.d.d.d.k.s.s.k.s.k.s.k.s.s.s.s.s.s.a.s.a.d.d.h.H.H s a @ 4 C =.5XaXaXsXsXsXsXsXfXsXsXfXfXdXdXdXdXdXgXgXjXlXlXzXzXFXHXzXaX6X6X5X6XkXFXGXGXGXGXGXGXGXGXzXzXlXhXgXdXfXdXfXfXdXdXdXdXdXdXsXdXfXaXaX6X;.;.6XsXsXdXdXfXdXdXdXdXdXdXdXdXdXdXdXdXfXfXhXjXlXlXzXzXzXzXzXFXzX9X;.;.6XaXaXhXlXlXlXlXhXgXfXfXdXdXdXdXdXdXdXdXdXfXdXdXdXfXfXfXfXsXaX6X;.C 2 h f d / K.L.U.U.Q.I.Q.Q.I.!.!.!.^.~.~.~.~./.(.~.(.(.(.(.(.(.(.~.(.!.'./ / K.)././././.~./.~.~.~.!.!.T.T.I.T.U.P.P.P.P.L.L.J.J.J.J.J.] d - X X h l h k h h h f f , g h 7 f f , , f , < , , , = , , , = = , = = = = , = = o = = o o = = X = = X o X o X X o o o X   X X . X   X   X   X   X     X       X       PX",
"PX                                                . .     . .   .     . . . .   .   . . . . . . + . + . . . + + + + + + + + + + $ + $ $ $ $ $ 4 $ 4 * $ & 4 & & & & & & 4 3 & e r 3 3 r e e e e 3 e e i r i r i i a t S S S t i i S S t r 0 H L e.e.i.i.d.d.d.d.s.s.s.s.s.s.s.s.s.s.a.s.a.s.a.a.d.d.h.H.H t a @ * C ;.5X6XaXsXsXsXsXsXfXfXfXdXdXdXdXdXdXdXdXgXjXjXzXzXFXGXxXxXaXaX6X5X6XkXHXGXGXGXGXGXGXFXFXzXzXlXjXhXgXfXdXdXdXdXdXdXdXdXdXdXsXsXsX6X6X;.;.6XaXsXfXfXdXdXdXdXdXdXdXdXdXdXdXdXdXfXgXjXlXlXzXzXzXFXFXFXFXFXxX5X;.6X6XaXjXlXxXlXlXjXjXgXfXdXdXdXdXdXdXdXdXdXdXdXdXdXdXfXfXfXsXsX6X;.C O g f d ] _ L.L.U.I.I.Q.I.!.!.!.!.^.^.~.~.~.~.(.(./.(.(.(.(.(.(.(.(.!.'./ / K.).(./.(././.~.~.~.^.^.^.!.I.T.U.T.T.P.K.L.K.J.J.J.J.J._ _ d - X   v h k f g f h f h f f , f , , h 7 7 7 d , , = , , - 8 , = = , = ; = = = = = = = ; - X = = X o o X = o o X o X     o   o X   o   X   X         X                 PX",
"PX                              O         .       O         .       . . . .   . .   . . . . . . + . + . + O . + + + + + $ $ + $ + $ + * $ * * + $ $ $ & & $ & * & 4 * 4 3 3 4 3 3 5 3 e e e e e e e i e i e i i r S i S a i i r S S a i t 0 q R e.e.i.d.d.d.d.d.a.s.s.s.s.s.s.s.s.s.s.s.s.a.s.a.d.d.h.H.H s a @ 0 C =.6XaXsXsXsXsXsXfXfXfXsXfXdXdXdXdXdXdXgXhXjXlXzXzXFXFXGXzXaX6X6X6X6X7XGXGXGXGXGXGXGXFXFXzXzXlXjXhXfXdXdXdXdXdXdXdXdXdXdXfXsXfXsXaX6X=.;.6XaXsXfXfXfXdXdXdXdXdXdXdXdXdXdXdXdXfXgXlXlXzXzXzXFXzXFXFXFXFXxX;.5X6XaXaXjXxXzXlXlXlXjXgXgXdXdXdXdXdXdXdXdXdXdXdXdXdXdXfXfXsXsXaX6X=.C 2 g h d / _ K.P.U.Q.I.Q.Q.!.!.!.!.^.~.~.~././.(.(.(.(.(.(.(.(.(.(.(.T.W./ / K.).(./././././.~.~.~.^.!.T.T.I.U.U.K.U.P.P.L.J.J.J.J.J.J.] d - X X l k g f h f f g f f , f , h 7 f < , 7 , , , , , , - 1 = = = = = - ; = o = = X = = = o - X = o o X o X . o   X o X X   X o   X         X X     X           O     PX",
"PX                                          O   .     . .     . . . .     . . . . . . . . . . . . . . . . + + + + . + + + + + + $ + $ $ $ $ $ 4 $ $ 4 $ $ 4 $ 4 & * & e 4 3 e 3 e 4 r 3 e e e e i e e y r y S r i i i i t i a S i t S a i 9 H L e.e.e.i.i.d.d.d.a.d.s.s.s.s.s.s.s.a.a.s.a.a.a.a.d.d.h.H.H t t @ r C ;.5XaXaXsXsXsXsXfXfXfXfXdXdXdXdXdXdXdXdXgXlXlXzXzXzXFXFXxX6XaX6X5X6XkXGXGXGXGXGXGXGXGXFXzXzXlXjXhXgXdXdXdXdXdXdXdXdXdXdXdXfXsXsX6X6X;.;.6XaXsXfXfXdXdXdXdXdXdXdXdXdXdXdXdXdXfXsXlXlXzXzXzXFXFXFXFXGXFXxX:.5X6XaXaXjXlXzXzXlXlXjXhXgXfXdXdXdXdXdXdXdXdXfXdXdXdXfXfXfXfXsXsX6X;.C 2 h f d ] K.L.P.U.I.I.I.T.I.T.!.^.^.~././././.(.(.(.(.(.(.(.(.(.(.(.T.)./ / K.)./.(.(.(././././.~.^.^.T.T.T.T.T.T.P.P.P.K.K.L.J.J.J._ _ d - X   h g f g g f h g , f h , , 7 7 d d , f , - , : , : , = , , = = = ; = - ; = = O = O o o o o X o X o o o X X X o X   o X X   X   X   X X           X               PX",
"PX                                                              .   .   . .   . .   . . . . . . O + . . . + + . + O + . + + + $ + $ + $ + $ + * $ $ 4 $ 4 * & $ 4 0 * 4 & * 4 e e & r 4 e e e e r e e S S e e r i e S y i t i t a S t S e q H R e.e.e.i.d.d.d.d.d.k.d.s.s.d.s.a.s.a.s.a.a.a.a.a.d.d.u.H.H H a @ & C ;.6X6XsXsXsXfXfXfXfXfXfXdXdXdXdXdXdXdXfXgXjXlXlXFXzXFXFXxXaX6X6X6X6X6XGXGXGXGXGXGXGXFXFXzXzXlXjXhXfXdXdXdXdXdXdXdXdXdXdXfXfXsXsXaX6X;.;.6XaXsXfXfXdXdXdXdXdXdXdXdXdXdXdXdXdXfXhXlXlXzXzXFXFXFXFXGXGXGXxX;.5X6X6XaXjXzXzXzXzXlXlXhXhXfXdXdXdXdXdXdXdXdXdXdXdXdXdXfXfXfXsXsX6X;.C O l k j ] _ K.P.U.I.I.I.Q.Q.!.!.^.^.~.~./.~.(.(.(.(.(.(.(.%X(.(.(.(.).)./ / K.).(.(.(./.(./.~./.^.^.^.!.T.T.T.K.U.I.K.P.L.J.J.J.J.J.J._ d X -   h l g f f f f f , f f , 8 , , , , , , , - , , = , = , = = = = = = = = = = = = o = o o X o X o o X o o   o o   X X   X o   X X   X X       X   X                 PX",
"PX                                              .   .   .   . .     . .     . . . .   . . . . . . . + . . . + O + + + + + + + + $ + $ * $ $ $ $ $ * $ $ $ $ 4 $ & 4 & 4 & e 4 & 4 e & e e e e e 3 e e 5 e r i e i S S i i S i r A i S i t 9 H L e.e.i.i.i.i.i.d.d.d.s.s.a.s.s.s.s.s.a.s.a.a.a.d.d.d.h.H.H s n @ 4 C ;.5XaXsXsXsXsXsXfXdXfXfXdXdXdXdXdXdXdXgXhXjXlXzXzXzXFXFXxXaX6X6X5X6XkXFXGXGXGXGXGXFXFXFXzXzXlXjXhXfXdXdXdXdXdXdXdXdXdXdXfXfXfXsX6X6X;.5.6XaXsXfXfXdXdXdXdXdXdXdXdXdXdXdXdXgXgXhXlXzXzXFXFXFXFXFXGXGXGXGX5X5X6XaXaXjXzXzXzXzXlXlXjXhXfXdXdXdXdXdXdXdXdXdXdXdXdXfXfXfXfXsXaX6X;.C 8 l f f / K.K.L.U.U.I.I.I.I.T.!.!.^.~.~./.~.(.(.(.(.(.%X(.(.(.(.(.(.).)./ _ U.).(.(.(.(./.(./.~./.^.^.T.T.T.T.U.P.K.P.K.K.J.J.J.J.J._ _ d - X   l h f g h g h , h , , f f f f , , d , , , , , = 8 1 , = , ; = = = = = X = = - o = X = X = X o X o X X o X   o   . X X   X     X       X   X               X     PX",
"PX                                        O           .           . .   .   .     .   . . . . . . . . . + . + + + + . + + + + . + $ + + + $ $ $ $ $ $ $ $ 4 + $ 4 & 4 & & 4 & 0 & * e * 0 e e e e e e e e e i r i r y i r i i r i r t A e q q L e.e.e.i.i.d.d.d.d.d.d.k.s.s.a.d.d.a.s.a.a.a.a.d.d.d.h.j.H J a @ 4 S ;.6XaXaXsXfXfXsXfXfXfXdXdXdXdXdXdXdXdXfXhXjXjXzXzXFXFXFXxXkXaX6X5X6X6XFXGXGXGXGXGXGXFXzXzXzXlXjXhXfXdXdXdXdXdXdXdXdXdXdXdXfXsXsXaX5X;.;.6XaXsXfXfXdXdXdXdXdXdXdXdXdXdXdXdXdXgXjXzXzXzXFXFXFXGXGXGXGXGXxX:.5X6XaXaXlXxXFXzXzXlXlXjXhXfXdXdXdXdXdXdXdXfXdXdXdXfXfXfXsXfXsXsX6X;.C 8 l k j / ] J.P.U.U.I.I.I.T.!.!.!.^.^.~././.(.(.(.(.%X(.(.%X%X(.(.(.^.'./ / K.).(.%X(.(././././.~.^.^.T.T.T.T.P.T.P.P.P.J.L.J.J._ J.J.] d - =   l g f g h g , f h , 7 f , , , , , , - f = , = , , = = - : = = = - o = = = o = o o = o o X o o X X X X X   X X o   X X   X         X X X           X             PX",
"PX                                                      .   .           . . .   . . . . .   . . . . . . . . . . + . + + . + + + $ + + $ * + $ + $ $ $ $ 4 $ * & * * * & & & & 4 r & & e 4 3 4 e r r e e i 4 e i r i r i i i t i S i r i r 0 H R e.e.e.i.i.e.d.i.d.d.d.d.d.d.s.d.s.a.d.a.d.d.d.p.d.d.h.H.H J a * 4 C 5.5XaXsXsXsXfXfXdXdXfXfXdXdXdXdXdXdXdXdXgXhXjXlXzXzXxXzXzXaX6X6X5X6XkXFXHXGXGXGXGXFXFXzXzXlXlXhXhXdXdXdXdXdXdXdXdXdXdXdXdXfXsXsXaX6X;.5X6XaXsXsXfXdXdXdXdXdXdXdXdXdXdXdXdXgXhXjXzXzXFXFXFXFXGXGXGXGXGXGX;.5X6X6XkXlXxXFXzXzXzXlXjXhXgXdXdXdXdXdXdXdXdXfXdXfXdXfXfXfXsXsXaX6X;.C $ b k j / K.K.L.U.P.U.I.I.Q.T.T.!.^.~.~./././.(.(.(.%X(.(.%X(.%X%X(.^.)./ / Y.).(.(.(./.(./.~.~.~.^.^.!.!.T.I.T.K.P.K.K.J.J.J.J.J._ _ _ d - X X h f f f , , f , , < d , , f , , , 8 , = 1 - , , = = = = = = = - = = = = X - o o = X o   o o X X o X o X X X   X X     o X   X   X                               PX",
"PX                                                          .   .     . .   . . . .   . . . . . . . . . . . + . . + + + + . + + + $ + + + $ + $ $ + * $ $ $ $ 4 $ * & * * & * 4 3 4 e e e e e 4 3 3 e e e r r e i r i r S y r i r i r i 0 0 q L e.e.i.e.i.i.d.h.d.d.d.d.d.a.d.a.d.d.a.d.d.a.d.a.d.i.h.H.U s a 9 S C 5.6XaXsXsXfXfXfXfXdXdXdXdXdXdXdXdXdXdXdXgXhXjXlXzXzXFXxXxXkX6X6X5X5XkXxXFXGXGXGXGXFXFXzXzXzXjXhXhXfXdXdXdXfXdXdXdXdXdXdXdXfXfXsXaX6X;.5X6XaXsXfXfXfXdXdXdXdXdXdXdXdXdXfXdXgXhXjXzXzXGXGXGXGXGXGXGXGXGXGX:.;.6X6XaXlXFXFXxXFXzXlXlXhXfXfXfXdXdXdXdXdXfXfXfXdXfXfXfXsXsXsXaX6X;.C 3 b V j / ] J.K.P.U.P.I.U.I.T.!.!.^./.^./.~./.(.(.(.(.%X%X%X%X(.%X'.).)._ / K.).(.(./.%X(./././.~.^.^.!.T.T.T.K.T.K.K.L.J.J.J._ J.J._ _ d - = X g f f , h , , , d , f , , , , , , , , - , 1 : , = , = = = = = = = X = X = = - o = X o X o X o X X o X X X X   X X   X X   X   X     X           O               PX",
"PX                                                .               .       . .   .   . .   . . . . . . . . . . . . . + . + + + . + + + $ $ + $ + $ + $ $ $ $ $ $ 4 * 4 * 4 & 4 0 4 0 * 4 * 4 & r 3 3 3 e r 3 e r 3 r r i r i i r r i t r r 0 q L e.e.e.i.i.h.i.i.i.d.d.d.d.d.d.a.a.d.a.d.a.d.d.d.d.h.u.H.H s J @ i -.;.6XaXsXsXfXsXfXdXdXfXfXfXdXdXdXdXdXdXdXdXhXhXlXlXzXzXzXlXaX6X6X6X6XkXbXFXFXGXGXFXFXzXzXlXlXjXhXgXdXdXdXdXdXdXdXdXdXdXdXdXfXsXsXaX5X;.;.6XaXsXsXfXdXdXdXdXdXdXdXdXdXdXfXdXgXhXjXlXzXFXGXGXGXGXGXGXGXGXHX5X5X5XaXaXzXxXFXFXzXzXlXjXjXfXfXfXfXdXdXdXdXdXfXdXfXfXfXfXsXsXsXaX6X;.C $ c V j / K.K.P.P.U.U.I.I.I.T.!.!.^.T.^.~././.(.(.(.(.%X(.%X%X%X%X(.).'./ _ T.).(.(.(.(.(./.~.~./.^.^.T.T.T.P.T.K.P.P.J.J.J.J.J._ J._ _ d - - = g f f g < f 7 f , , , , - , , , - , = = 1 - - , = ; = = = = = = = = = = X = o o = O X o X O X X X X X   X   X   X X           X   X                             PX",
"PX                                                      .         . .     . .     . .     . . . . . . . . . + . . . . + + . . + + + + + $ + + $ + $ $ $ $ * $ $ * $ $ 4 * 4 & 4 * 4 4 4 & e e * 3 3 e e 3 3 r i r r r r i r r r i r r i r 0 q L r.e.e.i.i.i.h.d.d.d.d.d.d.d.d.d.d.d.d.d.d.d.d.d.d.i.h.H.K J s * i -.;.6XaXsXsXsXfXfXdXdXfXfXdXdXdXdXdXdXdXdXdXgXjXlXlXzXzXzXxXgX6X6X5X6XkXzXFXGXFXFXFXFXzXzXlXlXjXhXgXdXdXdXdXfXdXdXdXdXdXdXdXfXdXaXaX6X;.;.6XaXsXfXsXfXdXdXdXdXdXdXdXdXdXdXdXhXhXlXzXzXFXFXGXGXGXGXGXGXGXGX7X5X6X6XaXxXzXFXzXzXzXlXjXjXgXfXdXdXdXdXdXdXfXfXdXfXfXfXfXsXsXsXaX6X;.-.% m V j / ] J.L.P.P.P.I.I.I.T.T.T.^./.^.~./././.(.%X(.%X(.%X%X%X%X(.).'./ / K./.(.(.%X/./././.~.~.^.^.T.T.I.T.P.P.P.K.J.J.J.J._ J._ _ _ - - X = g , < < , , , , , , f , , - - , , 1 , - = = = = ; = = = - o = = = = X = = = o X o o o X o o o X X X X   X X   o X   X   X       X                               PX",
"PX                                                    .               . .   . . .   .   . .   . . . . . . . . . . . + . . + + + $ + + + + + + $ $ + $ + $ $ $ + * 4 * 4 & & & * & * e 0 4 * & 4 3 r 4 r 3 r e e e i e i r i e i r i S r 0 9 q L e.e.i.e.e.i.i.e.i.d.i.d.d.d.d.d.d.d.d.a.d.p.h.p.d.i.e.H.H K a 9 r S :.6XaXaXsXsXfXfXfXfXdXfXdXdXdXdXdXdXdXdXdXgXgXjXlXlXzXlXlXaX6X6X6X7XkXzXFXFXFXFXFXFXzXlXlXlXgXgXfXdXdXdXdXdXdXdXfXdXfXdXdXfXfXsXaX5X;.5.6XaXsXsXfXfXdXdXdXdXdXdXdXfXdXdXdXgXhXjXzXzXFXFXGXGXGXGXGXGXGXGX:.:.6X6XkXlXzXFXFXzXzXlXlXhXgXfXgXfXdXdXdXfXfXfXfXfXsXfXfXsXsXsXaX6X:.C 7 m V V / _ J.L.P.P.P.P.U.I.T.T.T.T.^.^./././.(.(.(.%X(.%X%X(.%X(.(.~.)./ / Y.).(.(.%X/./././.^.^.^.^.T.T.I.P.T.P.K.L.K.J.J._ J._ J._ _ d - = X , f , f , , , d , , - , , , , , - = 1 = 1 - ; = ; = = - = = = = = X = = X X o o o X X o X X X X X o X X X X X     X     X   X                                   PX",
"PX                                              O           O   .   .   . .   . . .   . . . . . . . .   . . . . . + . . . + + + + + + + + $ + $ + $ $ + $ + * $ $ $ 4 4 * $ & $ 4 * & & & & & & 4 e e 4 e e r 4 e r i r r r r r r r i r e 0 H L t.e.e.i.i.i.i.i.d.h.d.i.d.d.d.d.d.d.d.d.h.d.d.d.d.i.e.H.H q Z 9 r S ;.6XaXsXfXsXsXfXfXfXdXdXdXdXdXdXdXdXdXfXfXgXgXjXlXlXzXxXlXaXaX5X6X7XkXlXFXFXFXFXzXzXzXlXlXjXgXdXdXdXdXdXdXdXdXdXdXfXfXfXfXdXfXsXaX6X5.;.6XaXsXsXsXfXfXfXfXdXdXdXdXdXdXgXdXgXhXjXzXzXzXFXFXGXGXGXGXGXGXGX7X5X5X6XaXlXzXzXzXzXzXlXlXjXgXfXdXdXdXfXdXfXfXsXfXsXfXsXsXsXsXsXaX6X;.S 4 b m V / J.J.K.P.P.P.P.P.U.T.T.T.!.~.^././././.(.(.%X(.%X%X%X%X%X(.^.'./ / P.).).%X(.(./././.^.^./.T.T.T.K.T.P.K.K.K.J.J.J.J.J.J._ _ ] d - = X f f h , , , , , , - , , - , - , = = , = - , = = = = = - = = X = = X X = X = o X o o o o o o X o o   o   o     X   X           X X       O                       PX",
"PX                                                                                . .   .     . .   . . . . . . . . . + . . . + + + . + + + + + + $ + $ $ $ $ * $ $ $ $ * 4 * 4 & 4 * 4 4 & * r & * e r 4 3 e r r e r r y i e i r i r i e q H L e.e.e.e.e.i.i.i.i.h.i.d.i.h.d.i.d.i.d.d.p.d.p.p.d.h.h.H.L J Y * r >.;.6XaXsXsXsXfXfXfXfXdXdXdXdXdXdXdXdXdXdXdXdXdXjXjXlXlXlXjXaX6X6X6X6XkXxXzXzXzXzXzXzXzXlXjXgXgXfXdXdXdXgXgXdXdXgXdXdXgXfXdXfXfXaXaX5X5X5.6X6XsXsXfXsXsXfXfXfXdXgXgXgXgXdXgXdXhXjXlXzXFXFXGXGXGXGXGXGXGXGX:.7X5XaXkXxXFXFXFXzXlXlXjXhXgXgXgXdXgXfXfXfXfXfXsXfXsXsXsXsXsXsXaX6X;.-.7 c V j / _ J.J.P.P.P.P.I.P.I.T.T.T.!.^.^.^./././.%X(.%X(.%X%X%X%X%X^.'./ _ K.).(.(.(.(.%X/./.^.^.T.T.T.T.T.K.U.P.K.J.J.J._ J._ _ J._ _ d - = X d f , < , , f , , f 1 - 1 , = = , - - 1 = = = = = = = = = = = X X = = X o X o o X X   X X   X   X X   X   X X   X   X   X                                 O     PX",
"PX                                                              .   .   .   . .   . . . . . . . . .   . . . . . . + + . + + + + + + + + + + $ $ @ + $ + * $ $ + * * * $ * * 4 * 4 * * * 4 * * 4 * r & & 0 4 e e e r r e r y r 0 r i r r r 0 H L r.e.e.i.e.i.i.i.d.i.h.i.d.h.d.d.d.d.i.d.d.p.d.d.i.h.h.H.H K A 0 S S 5.6XaXsXsXdXfXfXdXdXdXdXdXdXdXdXdXdXdXfXdXdXdXjXhXxXlXlXhXkXaX5X5X6XkXlXzXzXzXzXzXzXlXjXhXhXfXfXdXdXdXgXgXgXgXgXdXgXfXfXfXdXfXsXaX6X;.;.6XaXaXsXfXfXdXgXfXgXgXdXgXgXgXgXgXgXhXjXlXlXzXFXFXGXGXGXGXGXGXGX6.:.6X6XkXlXzXzXzXzXlXlXjXhXhXgXgXgXdXdXdXdXfXsXfXfXsXsXsXsXsXsXaX6X;.G r M V / / ] _ K.K.K.P.P.P.P.P.T.I.T.T.^.^./././././.%X%X%X%X%X%X%X'.).'./ / U.).%X(.%X/./././././.T.T.T.T.T.U.P.K.K.J.J.J.J._ _ _ _ _ / d - - X d , , , 1 1 1 d - 1 1 1 1 = = - 1 = = = = = = = = = = = X X = = = = = X = = = X o o X o o X o   o X X X X     X     X   X   X             X                     PX",
"PX                                                  .   .   .         .   . .   .   . . . .   . . . . . . . . . . . . . . + . + + . + + + + + + + $ @ $ $ + $ @ $ + * * $ * @ @ @ * * r 0 4 0 0 * * e 4 0 e r 0 e e 0 r i q r e r r e r 0 r t L e.e.e.e.i.e.i.i.e.i.i.d.i.d.i.d.i.i.d.i.p.h.i.i.i.i.e.H.H J Y * A -.5.6XaXsXsXfXfXfXdXdXdXdXdXdXdXdXgXdXdXdXdXdXfXdXgXjXjXjXgXgXaX6X5X7XkXlXlXzXzXzXlXlXjXgXgXfXfXdXgXdXgXgXgXgXgXgXgXgXgXgXdXfXfXaXaX6X5X5.6XaXsXsXfXsXfXdXgXdXdXgXgXgXgXgXhXgXhXhXlXzXzXFXFXFXGXGXGXGXGXLX9X7X5XaXaXzXzXxXzXzXlXlXjXjXhXgXgXdXgXdXgXfXfXfXfXfXfXsXsXsXsXaXaX5X:.C 7 F V V / ] J.J.J.L.K.P.P.P.P.I.I.T.T.T.^.T.~./.(./.(.%X%X%X%X%X%X%X^.)./ / K.).(.(./././.T.T./.T.T.T.T.P.K.K.K.L.K.J.J.J._ J._ _ _ _ _ d - , X f f 1 1 d = 1 1 1 1 1 - = = 1 = 1 = 1 = ; - = = = = o = = = X = X X = X X X X X   X X X X X   X     X   X   X     X                                             PX",
"PX                                              .   O   .   .     .   . . . . . . . . . . . . . . . + . . + + + + + + + + + + + + + @ + @ $ $ + * @ * $ * 4 @ * 0 & * 0 0 9 & 9 9 * 9 * 0 e 0 e e e 0 r r 0 r y r y r t y t r p t t t a p q H L e.e.e.e.e.e.i.i.e.d.i.i.i.d.d.i.d.d.d.d.i.d.i.d.d.i.h.F.H K S 4 S -.:.6XaXaXsXsXfXfXdXdXdXdXdXdXdXdXgXdXgXdXdXfXfXgXhXgXjXjXgXkX6X5X7X6XkXjXlXlXlXlXlXlXjXgXsXfXdXdXgXgXgXhXhXgXgXgXgXgXhXgXdXgXfXsXaX5X5.5X5XaXaXsXsXgXgXfXgXgXgXgXhXgXhXgXhXhXhXjXlXlXzXzXzXFXGXGXGXGXGXGX:.7X5X6XaXxXxXzXzXlXlXjXjXjXhXhXgXgXgXfXgXsXsXsXfXsXsXsXsXsXsXaXaX6X;.G 8 F m / / ] _ J.J.L.K.L.P.K.P.I.I.T.T.T.T./.T.%X/.].%X%X%X%X%X%X%X%X).'./ / K.).]./././.^.T.^.^.T.T.T.T.U.P.K.K.J.J.J._ J._ _ _ _ _ _ / j d - X f f 1 f d 1 f 1 f d 1 1 1 1 ; ; ; ; = 1 = = ; = = ; = = = ; = = = = = = = o o X o X = X X X o X X o   X     X   X X   X   X           X                         PX",
"PX                                    O     .         .     O   . . . . . . . . . . . . . . + . + . + . + + + + + $ + @ @ * * * * * * & * & & 3 & e & 0 & 0 e & 0 i e e e i e t i i t p i a a a t A a a A Z a Z Z a Z J Z Z J J Y Y Y Y J t J L r.e.e.e.i.e.i.e.i.i.h.i.i.i.i.d.i.i.i.d.d.i.d.i.h.i.e.H.K K T r i S 5.6XaXsXsXsXdXfXfXdXdXdXdXgXdXdXgXgXgXdXdXgXfXdXgXgXgXhXfXgXkX5X6X7XkXjXlXlXlXlXhXhXgXgXfXgXgXgXgXhXhXhXhXhXhXhXhXgXgXgXgXgXgXaXaX6X5X:.6XaXaXsXsXgXgXgXgXgXhXgXhXhXhXhXhXhXhXjXjXlXlXzXzXFXFXFXGXGXGXGX;.7X6XaXkXlXzXzXlXlXjXlXjXjXhXhXgXhXgXgXgXgXfXsXsXsXsXsXaXsXaXaX6X5X:.:.C D M V / / _ J.J.L.J.L.K.L.K.P.P.P.T.T.T.T.T.%XT.%X].%X%X%X%X%X%X%XT.'./ / K.^.).%X^././.T.T.T.T.T.T.P.K.P.L.K.J.J._ J.J._ _ _ _ _ / ] d d , = m m V V V V V k h m x k x k k k l k k f k f f < f f f 1 1 1 = 1 , 1 , = , , 1 , , ; = = ; = = = = o = = = = o o O X o o X = o X o X O X O X X   X X X     X     PX",
"PX                O               . .   .     O   .   . . O . . . O . . . . . + + + . + + + + + + + + + + + + + * + $ * * * * * * 9 4 * 0 * 4 0 e 0 e & 0 e 0 e r 0 0 e i r p p t y p p t p t t a A a a A t a Z Y Y J Y Y J J Y Y Y Y Y Y H H L e.e.e.i.e.i.e.i.i.i.i.i.i.h.d.i.d.d.i.i.i.d.i.h.h.i.u.H.K T T 4 S S ;.6XaXaXsXsXfXfXdXfXdXdXdXdXgXdXdXgXgXgXgXgXdXgXdXgXgXgXgXkXkX5X6X6XkXjXjXjXjXjXhXgXgXgXgXgXhXgXhXhXjXhXhXhXhXhXhXhXhXhXgXgXgXsXaX6X5.;.5X6XaXgXgXaXaXgXgXhXhXgXhXhXhXhXjXjXhXjXjXjXlXlXlXzXzXFXGXGXGXHX5X7X5XkXkXjXlXlXlXlXjXjXhXhXgXgXkXgXgXgXgXgXgXaXgXaXaXsXsXsXaXaX6X5X:.S 7 F ( V j _ _ J.J.J.J.L.J.J.K.P.P.P.U.T.T.T.T.T.T./.T./.%X%X%X%X,X%XT.'./ / ] ^.%XT.T.T.T.T.T.T.T.P.K.K.J.J.J.J._ J.J.J._ _ _ _ _ _ / / d - - = m m V ) k V V m k V V V k V x k z k k k k k 1 k k f f < 1 f f f , 1 1 1 1 1 1 1 , ; 1 = , = = ; ; = ; = ; = ; ; # = o o = O o X O o X o X o X X X X o   X     X PX",
"PX                                          .     . O   . . . . . + . . . . . . O . + . + + . + + + + + @ + @ @ @ * + @ $ @ + * & * * & & & 0 & & * 4 0 & e e 0 e 0 y t p 0 0 t r t t t i t p a J t a t J a J J a J a J J J Y J J Y Y Y J t H L r.e.e.e.i.e.i.e.e.i.e.i.i.i.i.i.i.i.i.d.h.i.d.i.i.h.c.F.K Y S S S S 5.6XaXsXsXsXfXfXfXfXdXdXfXdXgXgXgXhXgXhXgXgXgXgXdXdXgXgXgXgX6X6X7X6XkXhXhXhXhXhXgXgXgXgXhXgXhXhXhXjXjXhXhXhXhXhXgXhXhXhXhXhXjXsXkX6X5.5X6X6XaXsXsXkXgXgXgXjXjXhXjXjXhXjXjXjXjXjXjXjXjXlXlXzXzXzXzXFXGXGX;.7X5X6XaXjXlXlXlXjXjXhXhXhXhXhXgXgXgXgXaXgXgXgXsXaXsXaXaXaXaXaX6X;.:.:.8 m m V j / _ J.J.J.J.J.J.J.J.J.K.L.K.K.P.P.T.T.T.T./././.(.%X%X%X%XY.W./ / ] W.).W.T.T.T.T.K.T.K.K.K.J.J.J._ J.J._ _ _ J._ _ _ _ _ / / d d 1 1 m V k V V V k V V k k k x k k k k k k k f k k f f f w f f 1 1 1 1 1 1 1 - 1 = = 1 ; = 1 = ; ; = ; = = = o = = o o o o o o o o o o o O X o O o   o O X X   X     PX",
"PX                                    .     .   . .   .   . . . . . . . . . . . + . + + + + . + + + + + + + @ + @ @ @ + * * @ * * * * * * * 0 4 0 & 9 4 0 e 0 e e 0 e 0 p 0 0 p 0 p t t p t t t t t a a J t J Y t Y J Y J Y J J J Y a Y J t q L r.e.e.e.e.e.i.e.e.i.i.i.e.i.i.i.i.i.i.i.h.i.i.i.h.e.u.G.T T S r S S ;.5X6XsXsXsXfXfXfXdXdXgXdXgXgXgXgXhXhXhXgXgXgXgXgXgXgXgXgXkXkX6X7X6XkXgXgXhXhXgXgXhXgXhXhXhXhXhXjXjXjXhXhXhXhXhXhXhXhXhXjXhXjXgXkX5X;.5.5X6XaXkXsXgXgXkXgXgXkXjXjXjXjXjXjXjXjXjXhXjXjXlXlXlXlXlXzXFXFXJX;.7X5X6XkXjXjXjXjXjXjXhXgXjXgXkXgXgXkXgXkXsXgXaXaXaXaXsXsXaXaX6X5X;.-.S 7 m ` ) j ] _ _ J.J.J.J.J.J.J.J.J.L.L.L.P.P.U.T.T.T.].T./.].].%X%X].K.W./ / K.K.T.W.T.T.K.T.P.P.K.K.K.J.J._ J._ _ _ _ _ _ _ _ _ _ / / / , ; 1 = m V V V V V k V k k k V k V k k k k k k k w f w f f 1 k k 1 1 1 1 1 1 1 1 1 1 = = 1 = 1 = ; = ; = o ; = o ; o = o = o o o o o X X o   o o   o   o   o   X   O X PX",
"PX                                .     .     .   .   . . . .   . . . . . + + . . + + . + + + + + + + + @ + + @ @ + @ @ @ $ $ @ @ * * * * & * * 0 * * r e 0 & 0 0 0 0 r q y r y t q w p q y s t t t t a t t a t J Y J J t J J J J J J Y J t q H L r.e.e.e.e.e.e.e.i.i.i.i.i.i.i.i.p.h.i.i.i.h.h.e.H.L K J T Y r S >.5.5X6XaXsXfXsXfXfXfXdXdXdXdXgXgXhXhXhXhXhXhXgXhXgXgXhXhXjXjXkX6X6X6XkXhXhXgXhXhXgXhXhXhXhXhXjXjXjXjXhXhXgXhXhXhXhXhXhXjXhXjXjXaXkX7X7X5.5X6X6XaXkXaXaXgXgXjXjXjXkXjXjXjXjXjXjXjXjXhXhXjXjXjXlXlXzXzXFXxX;.:.5X7XaXaXgXkXgXhXaXhXhXaXgXgXkXgXgXaXgXaXgXaXaXaXkXaXaXaX6X6X;.-.F G 7 G G ` j j `.Y.J._ J.J.J.J.J.J.J.J.J.J.J.P.K.P.K.T.T.T./.%X%X%X(.%XK.W./ / _ _ _ _ K.K.K.K.J.J.J.J.J.J.J._ _ J._ _ _ _ _ _ _ _ _ / d - , , 1 ; V V V V V V j V V V k k k k V k k k k 1 k f f f f f f 1 1 f f 1 1 1 1 1 1 - 1 1 1 = ; = ; = ; ; ; = = o = = # = o o o o o o o o o . o     o   X   o o   X       PX",
"PX                            O .   .   .     . .   . . .   . . . . . . . . . . + . + . . + + + + + + + @ + + + @ + + @ * @ $ @ * * * * 9 * 0 * * r * * 9 r 0 0 0 e 0 e y 0 y 0 0 t t 0 t p y t t t t t t t J t J t J a J J t J J K J J t t 0 q H L r.r.e.e.e.e.e.i.i.i.i.i.i.i.i.p.i.i.i.i.h.e.H.L H t r S S r T -.-.5.;.6XaXsXfXfXdXdXdXgXgXgXgXgXhXhXjXhXhXhXhXgXhXhXhXhXjXkX7X6X7X6XjXjXhXhXgXhXhXhXhXjXhXjXjXjXhXhXhXgXgXhXhXhXhXhXhXjXjXkXhXkXkX7X;.=.;.5X6XaXaXaXgXkXaXjXjXjXjXjXjXjXkXlXjXjXjXgXjXkXjXgXjXjXjXlXzXxX;.5X5X5X6XaXsXgXaXgXaXgXgXjXjXkXgXgXgXgXkXsXsXaXaXaXaXaXaX6X6X;.=.:.G G - D G D - j / j _ _ _ J.J.J.J.J.J.J.J.J._ J.K.J.K.K.K.T.K.T.)./.%XW.K.'./ j / _ _ _ _ _ _ _ J.J.J.J._ _ _ J._ _ _ _ _ _ _ _ _ _ / ] - - = = 1 1 m V k k V k V V V k k k k f k k f k f k f f f k f 1 1 f 1 1 1 1 d 1 1 = 1 1 - 1 ; 1 = 1 1 = ; = o ; ; ; = o = = o o = X X o X X . X o X o X X . o       o o X O PX",
"PX              O                     .   .       .   . . .   . . . . . . . + . . + + + + + + + + + + + + + @ @ + @ + * * * @ * @ * * * 4 0 * * 0 * * 0 0 * 0 e 0 e 0 0 t 0 t 0 q w q p 0 q t s t p t t t J a t t J t J t J J J J J t J Z t 0 9 q L r.e.e.e.e.e.e.i.e.e.e.i.i.i.h.i.i.i.i.h.i.h.H.H q 0 r T S S S S S =.5.6XaXaXsXsXgXdXgXgXgXgXgXhXhXhXhXjXjXjXjXjXhXjXhXjXjXjX7X6X5X6XkXjXjXhXhXhXhXhXhXjXhXhXjXjXhXhXgXhXgXhXjXhXhXjXjXjXjXlXkXkX7X;.=.=.;.5X6X6XaXaXaXaXkXhXkXjXkXjXjXkXlXlXjXjXkXjXgXjXkXkXkXkXjXxXlXxX;.:.5X5XaXaXkXaXgXgXgXgXkXaXaXaXkXkXaXkXaXaXaXaXaXaX6XaX6X6X5X=.-.G C G 8 G ` 7 8 - d / ] _ J._ J.J._ J.J._ _ J.J.J.J.K.K.K.K.K.T.T.T.E.W.).Y._./ / _ _ _ _ _ _ J._ _ _ _ _ _ _ _ _ _ _ _ _ _ _ _ _ / _ / ] - - X = d d k V j V k V k k k j V k V k k k k f k f f k f w f k f 1 1 f 1 f 1 1 1 1 1 = 1 1 1 = 1 = ; ; ; ; ; = = o o = = o = o o o o o o o o X   o   o   o   o o       X   PX",
"PX                                . .     . .   . . . . .   .   . . . . + . . + + + + + . + + + + + + + + + + + @ + * + @ * @ * @ @ * * 9 & 0 0 * 0 * 0 e e 9 e 0 e 0 0 0 0 r q 0 y t q s 0 t t s t s t a t t J t J H t J J J J K K t t t t * @ q H L r.e.e.e.e.e.e.e.i.e.e.e.i.e.i.i.e.h.f.e.H.K q 9 0 r S S r S G S -.S ;.6XaXaXaXsXgXsXgXjXgXhXjXjXjXjXhXjXjXjXjXjXjXhXkXlXkX9X6X5X6XkXlXkXjXjXhXjXjXjXjXjXjXhXhXjXgXaXhXgXgXhXjXhXjXjXjXjXkXkXkX5X:.=.-.=.;.5X6X6X6XkX6XkXkXkXkXkXkXkXkXkXkXkXkXkXkXkXgXkXkXaXgXkXkXkXkX;.5X5X5X6XkX6XaXaXkXkXaXkXaXkXaX6XaXaX6X6X6XaX6X6X6X6X5X7X5X;.:.G C h G O G D 8 8 X G d / ] _ _ J._ _ J._ J._ J._ J._ _ _ J._ _ _ K._ _ K._ Y.'./ / / _ _ _ _ _ _ _ J._ _ _ _ _ _ _ _ _ _ / _ / / / ] / / / X X   : = - k k k j k k k V f k f k k j k j k f f f f f w f f 1 1 f 1 f 1 1 1 1 1 1 1 1 1 1 = 1 = = 1 = ; = ; ; # = o = = o o o o o o o o o o o o o   o o   o     o . X     PX",
"PX                            . .       .     . .     . . . . . . . . . . . . . + . . + + + + + + + + + + + @ + @ * @ + + * $ @ @ * @ * * * * * 0 * 0 0 9 0 0 0 0 e 0 r y t 0 y p q t t t t t t t t t t J t J t J J J J J J J Y J J J J J t @ @ @ q L r.L r.e.r.r.e.e.u.u.u.h.u.h.u.u.u.u.u.u.L H 9 $ e r S S r S 4 C S -.=.7X6XkXkX6XkXkXaXkXkXkXkXkXjXkXxXjXxXxXlXkXxXxXxXxXkXbX5X5X5XkXlXlXkXjXjXkXlXkXkXjXkXaXkXaXaXaXkXkXgXkXkXkXgXkXkXkXkXkXeX;.=.C -.:.:.5X7X6X6X6XkX6X6X6XkX6XkXkXkXkXkXkXkXkXaX6XkXkXaXkXkXaXkXkX6X5X;.5X5X6X6X7X6X6X6X6X6X6X6X6X5X6X6X5X6X6X5X5X6X5X5X5X5X5X;.-.-.C 8 2 2 8 G G C 8 X h d ] Y.`.Y.Y.Y.Y.Y.Y.Y.Y.Y.Y.Y.Y.Y.Y.Y.Y.W.Y.Y.R.Y.Y.R.' ] j d 6.' ' ' ] ] _ ] ] ] _ ] ] _ ] ] / / / / ] ] _ ] ] / ` d - X O   = - k m k V k k k j j k k k k k k k k f f k k f f 1 f f f 1 f 1 1 1 1 1 1 1 1 = = = 1 = 1 = ; = ; = = = = = ; = o = o ; o o o o o o   X o X X o   o   o o   X   X O PX",
"PX                                    .             .   . . .   . . . . + + . + . + + + . + + . + + + @ @ + @ @ + @ * * @ + * * * @ 0 * 0 * * 0 * 0 0 & 0 0 0 e e 0 y r t y t 0 t p q p t J t a t t J J J s J J J J J J K J K K K K J J J J @ + + q q H H L H L L L L L L L L L L L L L L L L H J 9 e r r r S S S C 2 S S ;.=.;.;.5X5X5X5X5X5X5X5X5X5X5X5X6X5X6X6X6X6X5X5X5X5X;.;.5.;.5X7X6X6X6X6X6X6X6X6X6X6X6X6X6X6X6X6X6X5X5X5X5X6X5X5X5X5X5X;.;.:.-.C C =.-.=.;.;.;.;.;.5X5X5X;.5X5X;.;.5X;.;.;.5X5X5X5X5X5X;.5X5X5X5X;.;.;.:.;.;.;.;.;.;.;.;.;.;.;.;.;.;.;.;.;.=.=.=.;.=.=.=.-.=.-.C C 8 8 O 8 8 8 G 7 - - 8 - / j j j / j j j j / d j j j j j j j d j j j j j d j j j k j j j j d d d j j d d j d d d d d d d d - d d - d - - d - X O X X - = h x j V k j j V k V j k k j k V k k k f f f f k k f f f f 1 1 1 f 1 1 - 1 1 1 = = 1 = 1 ; ; ; ; = ; = = = o o = = o o o o o o o o o X o . X o   o .   X X O X   PX",
"PX                  O   .         . .     . .     . . .   . . . . . . . . . . . + . . + + + + + + + + + + + + + * + + @ * * @ * @ * * * * * 0 & 9 4 9 r * e 0 0 0 0 t q y q t p q q t t t t t s H J t H J J J K J J K K J J J K Y T K T J t @ + + @ q q H q H H H H H H H H H L H H H L K H J K S 4 4 $ r S S S S 4 4 C C S -.=.=.=.;.=.;.;.;.;.;.;.;.;.;.;.;.;.;.;.;.5X;.;.;.;.;.;.:.;.;.5X5X5X;.5X5X;.5X5X5X;.5X5X5X5X5X;.5X;.;.;.;.;.;.;.;.;.=.=.:.-.C -.:.:.=.=.-.=.=.;.;.;.;.;.=.;.;.;.;.;.=.;.;.;.;.;.;.;.;.;.;.;.;.;.:.;.=.=.;.;.=.=.;.=.=.=.;.=.-.-.-.=.=.-.-.-.=.-.=.-.-.-.C C G C 8 8 8 8 8 8 G 8 8 8 - - h j G / j j j / j G j j / j j j j j d j d d d j j j h j / j j d d j d d d d d d d - d - - - - - - - - - - - - 8 8 d O X   X X d h V j V V j V V j k V k k V f k k k f k f k f f f f f 1 1 f 1 d 1 1 1 1 1 - 1 1 1 = 1 = = 1 = ; ; = # = ; o ; = o = = o o o o X o o   o   o O o . o X . . X   O PX",
"PX          .                     .       .   .   . . . . . . . . . + . + . + . + . + + + + + + + + + + + + @ + * + * $ $ * $ * * * @ * w * 9 & 0 * 0 0 e e 0 0 0 0 e 0 q 0 y t t t t t t t t s J t J J H J K J K J K K Y K T J K K T J Y t 0 @ @ 9 0 q 9 q q q q q q q q H q H H q H H q q H q r 0 * r r 1.v.1.S S 4 S C -.-.C -.-.-.=.=.=.=.=.;.;.;.;.=.;.;.;.;.;.;.;.;.;.:.;.;.;.:.;.;.;.5X5X5X;.;.7X5X5X5X7X;.5X5X;.;.;.;.;.;.;.;.=.;.=.=.=.=.-.-.C -.C C -.-.=.=.=.=.=.=.=.=.=.=.=.=.=.=.;.=.;.;.;.;.;.;.;.;.;.;.;.;.;.;.=.=.=.=.=.:.=.=.=.=.-.=.=.-.-.=.-.:.-.-.-.G -.-.-.G C C C C 8 2 8 8 8 6.G G X 8 8 - 8 - - 8 d d d d d d d j d j j j j j j j d / h j h j k j f j f j d j d j h j j j h d h d h f 8 d , - d 8 , - - - X - X O X   X , f h h f k j k k V k f f j k f k k f f k f k f f f f f f f f f 1 f 1 1 1 1 1 1 ; 1 = 1 = ; = 1 ; ; = ; = o = ; o = o o o o o o o o o X o X o   . X X   o     o X   PX",
"PX                .                 . .     . . .   .   .   . . . . . . . . . . . + . + + + + + + + + + + $ + @ @ * + @ * @ * * * @ @ * @ * * 0 & 0 & 0 9 0 r 0 0 0 r 0 q p 0 0 q 0 p q t t t t q J J t t J H J J J Y J J T K J T K J J t t 0 9 @ @ @ 9 9 0 9 9 9 q q q q q q q q q q q 0 q 0 r 0 0 r r J 1.1.,.>.S C C C S -.C -.-.-.-.-.-.-.-.-.-.=.=.=.:.;.=.=.;.:.;.;.;.=.;.;.;.=.;.;.;.;.;.:.7X;.;.:.:.;.;.:.;.:.;.;.;.;.;.=.=.=.=.-.=.=.-.-.-.-.-.C -.C -.-.C -.-.-.=.-.-.=.-.=.-.=.=.=.=.=.=.=.=.=.;.=.=.=.;.=.;.=.=.=.=.-.-.=.-.-.-.-.-.-.-.-.-.-.-.-.C C C -.C -.C C C C C C C 8 2 C 8 8 G G G G 8 - - X X 8 8 d - - - - d 8 d 8 d d d d d d d d d d d d d d d d - - d - d d - - d - - - - - - - - - - - X - X - X - X - X X X X X X - , k h j f j k f j j k j f f f k k j k f f f f f f k f 1 f 1 1 f 1 1 1 1 1 1 1 ; 1 ; 1 = ; ; ; = ; ; ; = = ; = ; = o o = o = o o o X o X   o X o X . . X   o o     X PX",
"PX      O       O               .       .         . . .   . .   . . . . . . + . + . + . + + + + + + + + + @ + + $ + @ * + * * @ * * @ * * @ * * 9 9 0 0 * 0 * 9 0 e 0 0 0 t 0 t q y 0 q i t 0 t q t t t t t t t t q t t H t H H q q q q 0 0 @ + @ @ @ @ 9 9 9 9 q 9 9 9 9 q 9 q 9 q q 0 q q q t t r t J T T T T >.S S 2 C C C C -.C C -.-.C -.-.-.-.-.=.-.=.-.=.=.=.=.;.=.=.-.=.=.=.=.=.=.=.=.=.=.=.=.=.=.=.=.=.;.=.-.=.-.=.-.=.=.=.=.-.-.-.-.=.-.C C C C C C C C C -.C C -.C -.-.-.-.-.=.-.=.-.=.-.-.=.=.=.=.=.-.=.-.-.-.-.-.-.-.-.-.-.-.C -.C C -.-.C C -.-.-.C C C C C C C C C C C 2 C 2 8 2 8 G G 8 G 8 G 8 G G G ] m ] G ] m / G ] / ` G / / m / h h j d d d - - - - - - - - - d d d , d d d d d - d d - d - d d , , d d d - 8 - X - X - : - d 1 d d d f f d f d f f f f f f f f f f w f f f f f f f f 1 1 - 1 - f d 1 1 1 = 1 1 1 1 ; ; = ; o ; = = ; = o = = o ; o o o = o o X o X o . X   o o   o   o X X X PX",
"PX                            . .   .   .   .     . .   . . . . . . . . . + + . . + + . + . + + + + + + + + @ + + @ + $ * @ + * @ * @ @ 0 * @ 0 * * 0 * 0 * 0 0 0 4 0 e e 0 0 0 t 0 q 0 q q 0 t q 0 t q q q q t t q t q t q r q 0 q q 9 0 0 @ 9 9 9 9 q q 9 q q q q q q q q q q q H q t r q t t t t t S K T T T >.S C C C C C -.-.-.-.-.-.-.-.=.-.=.=.=.=.=.;.=.;.=.;.;.;.=.;.=.;.=.=.;.;.;.;.;.;.;.=.;.;.;.;.;.;.;.;.;.=.;.=.;.=.=.;.=.=.=.=.=.=.-.-.-.-.-.-.-.-.-.-.-.-.-.-.-.-.-.-.-.=.=.=.=.=.=.=.=.=.=.=.=.;.=.=.=.=.=.=.=.=.=.=.-.=.=.-.-.=.-.-.-.-.-.-.-.-.=.-.-.-.-.C -.-.C C C C C C C 8 C G G d 8 j G 8 j j G j 8 G / / G j j j j / G j j j j / j j j d d d d d d - = d d d d d j j d d d d d d d d d d - d d d d - 8 - - - - X X - - = - = - - 1 - d - 1 d f d f - f d f 1 d f d f f 1 d 1 f 1 1 d 1 1 1 1 1 1 = 1 1 1 = = = = ; = ; = ; = = ; o o = o o = o o o o o o o o o o o   o o X O o   o   . .   PX",
"PX            .     .   .           .       . . . . .   .   . . + . . . . . + + + + . + + + + + + + + + + + @ @ + @ + @ + @ * @ * @ @ @ 0 * @ @ * 0 0 9 0 0 * 0 0 * 0 0 e 0 0 t 0 0 t 0 0 0 0 q q 0 r t t q t t t q t t t t t H t H H t t t t t J H K K K K K K T K K R K T R K R K T T K T T K J T T S T S >.>.>.S -.-.>.-.=.5.:.;.5X;.:.5X5X7X5X5X7X5X7X7X7X7X7X7X7X7X7X7X7X6X7X7X7X7X7X7X7XkX9X9X7X7X6X7X6X7X7X7X7X7X6X7X7X6X5X7X;.5X6X5X5X:.;.;.;.;.=.=.;.=.=.;.;.=.;.;.;.;.;.;.;.;.;.5X;.5X5X7X5X7X7X5X7X7X7X7X5X7X7X7X:.7X7X:.7X:.7X5X7X7X7X7X:.:.:.:.:.:.;.;.:.:.:.:.:.:.=.;.:.-.:.G -.G G G G G G G G G G G G G G / G G / / / G G / / / / / / / / / / / / / / / / ) / / / j / / / j / j j / j j / j j / j j G j j j j d d d d d d d 1 - d 1 1 d f d f d f - d 1 d 1 d d 1 1 1 d 1 1 1 1 1 1 1 1 1 1 1 d 1 1 - 1 1 1 1 - 1 = 1 = = ; ; = = = ; ; = ; = = ; = o = o o o o o o o o o o X   o   o   o   o   X   PX",
"PX                              .   .   .       .   . . .   . . . . . . . . + . + . . + + + + + + + + + + + @ + @ + $ @ * @ * $ @ * # @ @ @ * 0 * * * & * 0 * 0 9 e 0 0 0 0 0 0 r 0 q 0 q t t 0 r r q t t r r t S t t J t J J K T J J J Y K K J K T K ^ K R R R R R R R R R R R R R R R ~ R ~ >.T >.T >.>.>.>.>.5.>.5.5.:.7X5.6X5.7X8X6X7X9X7X8XeX9XeXkX9X9XxXeXeXkXbX9XxXeXeXeX9X9X9X9X9XbX9XxXxX9XxXxXeXxXbXkX9XkXkX7X7XaX7X9X9XkX7X9X7X6X9X7X7X7X7X:.7X:.:.7X5X:.:.7X5X5X7X7X7X7X7X7X7X9X9X9X9X9X9X9X9X9X9XkX9X9X9X7X9X7X7X7X7X7X7X7X9X9X7X7X7X7X7X7X7X7X7X7X7X:.:.7X7X:.:.:.:.:.:.:.:.:.:.:.:.:.G :.6.G G G G ] G ] ] ] ] ] G ] ] ] ] _ ] ] ] ] ] ] / ] ] ] ] ] ] ] ] ) / ) ) ] ) _ ] / / ] / ] ] ] / ) / / ] / / j / / / j j / V h f j f f j f f k f f f f f f f j d f f f d d 1 f d 1 1 d d 1 1 f 1 1 1 = - 1 1 1 = 1 = 1 = 1 = = ; = ; ; ; ; = = o o ; = = o = o o o o o o o X o   o o o o     o   o     X X IX",
"PX        .                 .         .   .   .   . .   . . . . . . . + . + + + . + + + + + + + + + @ + + + + @ @ + + @ * + @ * * * @ @ 0 0 * * 0 * 9 0 0 9 r 9 9 0 0 0 0 e t 0 q t 0 r t 0 t t t t t t J J J J t J J Y T J T Y K T K J K T K K T L R R R R R R R y.r.y.y.y.y.y.m.m.y.~ m.y.1.R ,.1.>.1.>.5.5.>.5.5.5.5.8X7X8X9X9X9XeX9XyXeX9XkXeXeXbXeXbXeXbXeXbXbXbXbXbXbXbXaXeXxXeXxXbXxXbXbXbXbXbXbXbXxXbXbXeXxXbXbXbXbXbXsX9XxXeXxXeXeX9XeXeX9X0X7X7X5.8X7X8X9X9X9X7XeX9X9XeX9X9XeXeXkXxXeX9XeXxX9XeXxXxXbXuXxXxXbXuXxXxX9X9X9X9XxX9X9X9X9X9X9XxX9X9X9X9X9X7X9X7X9X6.9X9X7X7X9X7X6.7X6.6.:.6.:.6.6.:.G 6.G 6.] 6.] ' 6.' ' ' 6.' 6.6.' ' ' ] ' ' ' ' Y.' ' ' ' ' ] ] ' ] _ ] ] ] ' ] ] ' ] ] ] ] ] ] ] ) ] ) ) / ] ) ) / ` ) / ) j / k / k j m j V k V V k k V k k k k f f k f f f f f f f 1 f f 1 d 1 f 1 1 1 1 1 1 1 1 = 1 = = 1 = 1 = = = = = = = = = = o o o = = o o o o o o   o X X o X o o X o     o X X PX",
"PX              . .             . .       .     .   . . .   . . . . . . . . . . + . + + + + + + + + + + + + @ + $ @ + @ @ + * @ * * * * & @ 0 * * 0 0 4 0 e 0 0 t y 0 r y q 0 t y t q t t t t t t t t H t S H J K T J J K T K Y T K J R T K L R R R R R r.r.r.r.r.r.y.r.y.r.m.r.y.y.r.m.y.m.y.m.y.,.>.1.>.>.>.5.>.5.5.7X5.8X6X8X9X8X9XeXeX9XeXeXeXeXeXxXeXxXbXbXxXbXbXbXbXbXbXbXeX9X9XeXbXbXbXbXbXbXbXbXbXbXxXxXbXbXbXxXkXbXtXeXeXeXeXeXkXeXeX9XeX9X9X0X9X5.7X9X9X7X8X9X9XeX9XeX9X9XeX9X9XeX9X9XxXxXeXbXeXxXeXuXxXbXuXxXxXbXuX9X9X9X9X9XeXxXuXxXuXxX9X9X9X9X9X9X9X7X9X9X7X9X9X6.9X6.7X7X6.9X:.7X:.6.6.:.6.6.] 6.6.6.' 6.6.' 6.6.' ' ' ] ' ' ' ' ' Y.' ' #.K.#.Y.Y.' Y.#.] ] ] ) ] ] ] ' ] ' ] ] ] ' ) ' ) ' ] ] ] ] ` ] ) ] ) / / ) ) / V / V V k ) m m V j k j V j k k k f k f f k f f f f f 1 f f f f 1 f 1 f 1 1 1 - - f = 1 1 - = 1 = = = 1 = = ; = ; = = = ; = = o o o = o o o o o o o o   o o   o   o o X O   PX",
"PX                  . .     .         .     . .   . . . . . . . . + . . + + . + . + + + + + + + + + + + + + @ + @ @ + + * * * * * * 9 * * 0 e 0 0 r 0 0 0 0 0 e 0 0 e y q t t w p q t q q t t q J t J K J K J J T K J T R J T Y ~ K J R T K T K R R R r.r.^ r.r.r.y.y.y.y.r.y.y.y.m.m.m.m.D.D.m.y.1.1.R 1.T >.5.>.<.5.3.8X7X8X9XyXyXeXyXyXaXtXtXxXtXtXbXxXbXbXbXbXbXbXbXbXbXbXtXeXeXkXeXbXbXbXbXvXbXvXbXbXvXbXbXbXbXbXbXbXbXbXbXxXtXeXeXkXeXeXeXeXeX8X9X8X7X7X8X8X9X8X9XeX9XeXeX9XeXeX9XeXbXeXbXeXeXbXbXbXbXbXbXuXGXvXuXJXuXuX9X9XuX9XuXxXuXuXxXxX9XuXxX9X9X9X9X9X9X9X9X9X9X9X6.9X6.7X6.6.7X6.6.6.6.6.:.6.6.` 6.' 6.' 6.' ' ' ' ' ' ' 6.Y.' ' ' ' ' ' ' R.Y.R.' R.Y.' Y.' ] ] ) ] ] ' ' ' ' ' { ' ] ' ] ] ] ] ..] ] ] ) ] ) ] ) ) ) ) / V / k V k V V / V V k V V V V k k j k k k k k f k k f f f f 1 1 f 1 1 1 1 1 1 1 f 1 1 1 1 - 1 1 = 1 - = 1 = = = = = = = o = ; o = o o o o o o o o o o X o X . X . X o   X O PX",
"PX                .       .       .   .   . .   . . .     . . . . . . . . . . + + + + . + + + + + + + + + @ @ @ + * * * * * * * & 0 4 & e & 0 0 0 * 0 e 0 e e 0 t 0 t 0 t y t t t t t t t J a J t J J t J K Y J K T Y K Y J K R J R Y Y R K R R R R y.r.y.r.y.y.y.u.u.m.m.F.D.m.m.F.D.D.D.m.D.D.m.1.1.1.>.1.<.<.5.5.5.8X8X7X8X8XyXaXyXtXtXyXbXcXbXbXbXbXbXbXbXbXbXvXHXvXvXHXbXbXbXtXyXbXbXHXHXHXHXHXvXLXvXvXvXvXvXvXbXbXbXbXbXbXbXbXbXtXcXtXeXbXeXeX9X8X8X8X8X0XeX8X9XeXeXeXeXeXeXbXbXeXeXbXeXbXbXbXvXvXbXbXvXvXJXJXJXJXJXJXuXxXeXuXeXbXbXcXbXbXuXJXbXuXuXuXuXxXuX9X9XuXpX9XuX9X9X9.pX9X6.9X9X6.6.6.6.6.` 6.6.' 6.6.8.' 6.`.6.Y.Y.6.' ' R.R.' R.Y.R.`.R.R.R.R.W.R.R.R.R.R.#.' ' ] #.' Y.#.Y.#.Y.$.' R.' ' #.' ' ....' ' ' ] ) ) ) ] ) ` / V ) V / V V V V V ) k V j V V V V V k k k k f j k k f f f k f f f f 1 1 1 d 1 1 - 1 1 1 1 = 1 1 = 1 ; = = = = ; = = = ; = o = o = o = o o o X o X o o o   X o o X   .   X PX",
"PX        .                 . . . . .   .   .   .   . . . . . . . . . . . + + + + + + + + + + + + + + @ + * + * * * * * * * 0 & * & 0 & 0 e 0 e 0 e 0 0 0 q 0 r p t t t t t t p t t t J a J J t J t J J J J K J K Y T J Y R T Y T ^ R Y K R R R r.r.R r.y.r.u.y.y.m.D.u.u.u.m.u.F.D.m.D.D.m.D.m.D.m.m.1.>.<.1.5.>.<.5.3.8X8X8XeXeXeXaXtXtXtXsXtXtXbXbXbXvXbXbXbXvXvXvXvXvXvXbXtXeXeXtXtXbXvXJXLXHXHXHXvXLXvXHXvXvXvXvXvXbXbXvXbXbXbXbXbXeXbXbXeXtXeXeX0X9X9X8X9X8XeX8X8XeXyXeXeXiXeXuXtXbXtXbXbXbXbXvXvXbXHXHXJXJXJXLXJXJXJX9XuX9XuXuXuXbXuXJXuXxXuXbXuXbX9XuXuXuXuX9X9XpX9XpX9X0X9X9X6.pX6.6.6.6.6.6.6.6.6.6.' 8.' 8.8.`.6.`.8.`.' `.R.' `.`.R.R.R.R.8.R.R.R.`.E.W.R.R.R.#.' ) #.#.Y.$.#.Y.Y.#.Y.$.$.' $...' ' ' ' ' ) ..] ) ' ) ' ) ) ) ) V V / V V ) V / k ) V V j V V k j V k j k V k k k f k 1 1 k 1 f 1 f f 1 f 1 1 1 1 1 1 1 1 1 1 = = 1 = 1 1 = = = = = = = = o = o o o o o o o o o o X X o   o     o X o X PX",
"PX                .   . .             .   . . . . . . . . . . . . + . + + + . + + + + + + + + @ @ + @ + + + + * * * * & * & * & & 0 * e & 0 y 0 e 0 e t i y 0 p 0 t w t p t t t t t t t t J J t t J J J J J Y T T J ! K J ~ K R K T K ! R J ^ R R y.y.y.y.u.y.u.u.F.u.m.D.F.F.D.F.u.F.F.m.G.F.m.D.D.1.1.1.1.>.<.5.5.5.8X8X8XeX8XaXyXyXeXtXtXyXbXbXtXtXbXCXbXvXvXvXvXLXvXHXvXvXbXbXeXtXtXcXHXHXLXHXHXLXLXLXLXLXvXHXvXHXvXbXbXbXbXbXtXtXtXbXtXtXtXeXeX8XeX3.8X0X8X9XyXeXeXeXeXeXyXeXeXiXcXeXbXbXcXvXvXvXvXHXbXJXHXLXLXLXLXJXJXbXuXuXuXbXbXJXJXbXJXJXbXJXJXJXuXbXuXuX9XuXpX9XpX9XpX0X9XpX9X9.9X9X9.6.6.9.6.o.o.6.7.6.8.' ' 6.`.' 8.6.`.6.`.`.' 8.`.R.R.`.`.`.`._.`._.E.E.R.#.Y.' ..' R.#.R.R.R.R.R.$.$.Y.$.Y.' ' #.' #.' ..' ..' ) ' ) ) ] ) ) ) ) V V ) k V ) V V ) V V V V V k V V V k k k f k k k f k f k 1 f 1 f 1 1 1 f 1 1 1 1 1 = 1 1 = 1 = ; ; ; = ; ; ; ; o ; ; o = = = o o o = o o o o o o o o o o o   o o   PX",
"PX        .     .       .       . . . . . .   . . . . . + . . . + . . + + . + + + + + + + + + + + @ + * * @ % * * & 0 & & & * e 0 0 4 e 0 y y y y 0 t p 0 0 p y t 0 t p t a t t a a t J J t J J J J J J Y J Y U J ! U Y ! K E J ! T Y R T R R R R y.y.m.u.u.y.u.D.u.F.D.D.F.D.F.F.D.F.F.D.G.m.D.D.m.1.1.1.1.>.1.<.<.3.3.8X8XyXeXmXyXeXyXtXyXbXtXtXbXcXcXbXvXvXvXvXLXvXLXHXHXvXtXeXeXtXbXvXHXHXLXLXLXLXLXLXvXLXvXvXvXLXvXvXcXvXcXbXtXbXtXtXtXtXeXrXrX0X0X9X3.8X0X8XeX8XeXyXeXeXtXuXtXuXuXcXiXuXJXbXbXbXJXHXJXHXHXHXHXLXLXHXJXuXuXuXuXuXuXJXuXJXJXJXuXJXuXuXJXuXuXuXuXeXuXuX9XpXpXpX0X0X9.9X9.9X9.6.7.6.7.6.7.6.$.7.8.8.8.8.8.8.$.8.R.8.R.8.`.R.`.`.`._._.`._.`._._.E.R.E.R.$.' ' ' R.R.R.$.R.R.$.$.R.R.Y.R.$.$.' #.' ..' ' ..' ' ..) ] ..) ) ( V V ) V V V ) V V k V V V V k V V V k V k V k k j k k k 1 k f f f f 1 1 f 1 f 1 1 1 - 1 = 1 1 = 1 1 = 1 = = = = ; ; = = # ; o = ; o o o o o o o o   o o X X o   o X O PX",
"PX            .     .       . .   .     . . . . . . . . . . . . . . + . + + + + + + + + * + * * + % * + * % * * * & * * & * 0 & 3 e e 0 y 0 r 0 0 e 0 0 p t i q p q p t t a s t s t a t t J J a J a J J J J J Y J J Y R K ! R ! T ^ J ! U R Q R y.~ r.y.y.y.y.m.u.y.F.u.u.m.F.F.m.F.F.m.F.m.F.D.D.1.D.1.1.~ ~ <.>.<.5.3.8X8X8XeXtXeXyXeXtXyXyXbXcXcXcXvXvXbXvXHXvXvXLXvXvXvXvXbXbXyXeXtXcXJXHXLXLXLXLXLXLXLXLXLXLXvXvXvXvXvXcXcXcXbXtXtXtXtXeXtXeX0X0X0X3.0X8X0X0X8XeXyXeXyXyXtXtXuXiXiXuXcXcXcXJXJXJXJXJXHXHXHXLXLXLXLXHXHXcXuXxXuXuXuXJXJXuXxXJXiXJXuXuXbXuXbXuXuXuXpXuXpXuX9X9XpX0X0X9.9.9.6.<.6.7.6.o.` ' o.' 8.' 8.R.' R.R.R.8.`.8.`.8.`.8.`._._.`._._._.'._.'._._.R.$.' $.$.$.$.$.R.R.R.R.R.$.$.$.$.' $.$.#.' $.#...' ..........) ) [ ) V ) V ) V V V ( V V V V j V V V k k k k k k k V k k k k k f 1 k 1 1 k f 1 1 f 1 1 1 f 1 1 1 = 1 1 1 ; ; = ; ; ; ; ; = ; = o = = o ; = o = o o o o o o o o o o o X X o PX",
"PX            .   . .     . .   . . . . . . . . . . + . . . + . . + . + + + + + + + + + + + $ + @ # + % % % * * * * * & 0 & * & e & 0 e e e e t p t y t t p t y t p t t t a t a t s J t a J J J J Y J Y Y Y J K Y J Y J ! K ^ K ~ J R ! ^ T R R ~ y.y.u.u.y.u.D.u.F.u.F.F.F.F.F.F.F.F.F.F.F.F.D.D.D.D.1.1.1.1.1.1.<.3.3.8X8X8XeXeXyXeXyXtXtXtXtXtXbXcXbXvXvXvXHXCXvXvXHXHXHXvXtXtXtXbXtXvXJXLXLXLXLXLXLXLXHXLXvXLXCXLXvXvXbXvXcXcXcXbXtXtXtXbXyXeXyX0X0X0X3.8X0X8XeX8XeXeXyXeXtXiXtXiXiXcXvXvXvXbXJXJXJXJXHXHXHXLXLXLXLXHXJXuXuXuXuXuXJXuXJXJXJXFXuXJXJXJXuXuXuXuXeXuXuXpXuXpXpX9X9.9X9.9.9.0X9.7.7.7.o.6.` 7.$.' 8.8.' 8.R.R.8.8.R.E.R.8.R.R.R.`._._.`._._.`._._.'.`._.R.$.' $.$.8.R.R.E.R.R.R.R.R.R.$.R.' ' $.' $.' ..' ......' ..] ) ) ) ) ( V ( V ( V B V B V V V V V V k V V k V k k k k k k k k k k w f k k 1 w f 1 1 1 f 1 1 1 1 1 1 1 1 = 1 = 1 ; = = ; = ; = = ; = o ; o = o o o o o o o o o o o X o O o X PX",
"PX    .   .       .     .     .   . . . . . . . . . . . . + . . . + + . + + + + @ + + + + * + * + + @ % @ % * * & * e & 0 & 0 e 0 e 0 e 0 y 0 y y 0 0 p 0 0 p t w t p p a s a a a t J a t J a a a J J Y Y J Y T ^ T ! J Y T T E J T Q K Y R ~ ~ ~ r.y.y.y.u.D.u.F.m.F.F.F.F.F.m.F.F.F.F.G.m.F.F.D.D.m.1.1.~ ~ 1.<.5.<.3.3.8XyX8X8XyXeXyXyXtXtXtXtXcXbXvXbXbXvXvXLXvXHXHXHXvXbXtXbXeXtXbXvXHXLXLXLXLXLXLXLXLXLXLXvXLXvXvXvXcXcXcXbXtXtXbXtXtXeXtXyXeX0X0X8X0X0X8XwX0XyXeXyXtXeXtXiXuXcXiXcXcXuXcXJXbXJXJXHXHXHXHXLXLXLXLXLXJXJXuXuXuXuXJXJXvXJXJXJXJXuXbXJXuXbXuXuXuXuXuX9XuXpX9XpX0XpXpX9.9X6.9.7.6.6.o.7.o.7.' $.$.8.R.8.$.8.R.$.R.%.R.`._.8.`._._._._._._._._._._._._.R.$.$.' $.R.%.R.R.R.R.%.R.R.$.R.$.$.$.$.$.#.' $.$.#.' ) ..) ..{ ) [ ( V V B V V B V V V V V V V V V V V k V k V k V k k k w k k k f w k 1 1 k 1 f 1 1 1 1 1 1 f 1 = - 1 1 ; ; ; ; 1 ; = ; ; = ; o = ; = ; o = o = = o o o X o o o o o o X X IX",
"IX      .   . .     .   .   . . . . . . . . . . . . . + . . + . + . + + + + + + + + + + @ @ # + + % * * * * & w * & 0 & & 0 & & & w e 0 e e e 0 0 p 0 p t 0 t t p p s i a t a a a t a t J a J J J a Y a J J Y E ! Y Y Y Y T ! J ! ^ T ! R Y ~ ~ y.y.y.y.u.y.F.u.u.F.F.H.u.F.F.F.F.F.F.F.G.m.H.m.D.D.1.D.O.1.~ 1.1.<.<.3.8X8X8X8XyX8XyXeXyXyXtXeXtXcXcXcXcXvXvXvXLXvXHXvXHXvXvXbXiXtXtXtXbXHXLXLXLXLXLXLXLXHXHXLXCXvXvXvXvXvXcXcXcXtXcXtXtXtXrXtXyXyXwXqX3.8X0XqX0XyXeXwXrXrXeXtXtXiXcXiXcXcXcXvXvXvXHXvXHXLXHXHXLXLXLXLXLXJXuXuXuXbXuXvXvXJXvXJXuXJXuXJXuXJXuXuXuXuXuXeXuXpXeXpX0X0XpX9X9X9.9.9.9.7.<.` o.' 7.8.$.$.$.$.R.%.8.R.E.R.R.8.E.R.E.`._._.`._._._.4X_._._._._.`.%.$.$.$.R.R.R.R._.R.E.8.R.8.R.$.$.$.$.$.$.' ..$.' ' ....' ) ..( ( ( ( V ( V V V B V N V V V V V V z V k V k k k s k k k k s k k 1 w f w 1 k 1 1 w f 1 1 1 1 1 1 1 1 1 1 1 ; 1 ; 1 # 1 ; = ; = ; ; o # o ; o o o = o ; o o = X o o o X o   IX",
"PX        .   .   .       . . .   . . . . . + . . . . . + . . + . + + + + + + + + + @ # + + * + @ % * * # * * * & * 0 & & 0 e w 0 e w w w 0 y y p y y t t p p 0 p t p t t p a s s a a J a J a J a J J J a J Y J J Y Y ^ Y ^ Y Y K ! Q K ! ^ R ~ r.y.y.y.F.u.u.F.j.F.F.F.F.F.F.F.H.F.F.F.F.F.F.G.D.D.D.O.1.~ <.<.<.<.5.3.3.8X0X0X8XeXyXyXyXeXtXtXtXcXcXvXbXcXvXvXvXLXHXvXHXvXvXtXbXeXiXbXvXHXHXLXLXLXLXLXLXHXHXvXLXvXHXvXvXbXcXcXcXcXtXtXtXtXtXrXyXyXwXqX0X8XqX0X8XyX0XyXrXeXtXtXtXtXiXiXcXcXcXvXvXvXHXHXHXHXLXLXLXLXLXLXHXJXvXuXuXuXiXbXvXJXJXvXJXJXJXJXvXuXuXvXuXuXuXpXpXeXpX0XpX0X0XpX9.0X6.q.6.7.7.7.7.` $.o.$.8.8.$.8.R.8.R.8.R.R._.E._._._._._._._._._.'._.'._._._.R.R.$.' $.$.%.R.R.8.R.E.E.R.R.$.R.$.' $.$.' ..$.....$.........) ( ) ( V ( V ( B B V B V V V B V V V V k V s V k k V k k k k k f k k k 1 f f k 1 f 1 1 1 1 1 1 1 1 1 ; ; 1 * 1 ; 1 ; ; ; ; ; ; o = = = = ; o o ; o o o o = o X = o o o o o X IX",
"IX  .   .     .   .   . .     . . . . . . . . . . . . + + . . + + + + + + + + . + @ + + + + + * + * % % * * & & * * * & e & e & & 0 & e 0 y w 0 t 0 p 0 y p t p 0 p t p p s a t a J a s a J n a J J J Z Y J Y Y Y J Y Y ^ Y J ~ Y ! ! J ! K ~ ~ ~ y.y.u.F.u.D.F.F.u.F.F.F.F.F.F.H.F.F.F.F.F.F.F.D.D.1.D.y.1.1.<.<.<.<.3.3.qXqXyXyX8XyXeXeXyXtXtXtXcXcXcXcXvXvXvXvXHXvXHXvXHXvXtXiXeXeXbXvXHXLXLXLXLXLXLXLXHXHXHXLXLXvXvXvXcXcXcXiXiXtXiXtXtXrXrXyXyX0X0X0X3.qXqX0XwXyXeXyXrXeXtXtXiXiXcXcXcXcXvXvXvXvXHXHXLXHXHXLXLXLXLXHXHXbXuXuXcXcXcXvXvXJXxXuXuXJXuXuXJXvXuXuXuXuXuXeXpXeXeX0XpX0X9.9.9.pX9.7.7.7.o.o.$.o.o.8.$.$.%.8.%.E.R.R.E.8.`.E.E.`.8._._._._.'._._._._.4X`._.R.R.$.#.$.R.8.E.E.R._.%.R.R.R.%.$.R.R.$.$.$.' $.$.........) ) ..( ..V ( V B B V V V V V b V V V V z V V k k k k k V V k k k k k w k 1 k 1 1 1 w 1 w 1 1 w 1 1 1 1 * ; 1 ; 1 1 # # ; ; ; ; ; = ; ; o = o ; = o ; = ; o = o o o o X o o X o O IX",
"PX  .   .   . . .   .       . . . . . . . . . . . + . . . + . . . . + + + + + @ + + + + * * + % * + * * * & * & & w & & & & 0 & w e e 0 y y 0 p y i 0 p 0 p p t p t p t a a p t s a a a J a a J J n J n J Y J E U Y J ! Y Y J ! Y ! U R R ^ ~ R y.y.y.y.y.D.u.F.F.F.u.H.F.H.F.H.F.G.H.F.F.F.G.F.F.D.D.D.1.~ Q 1.<.1.3.3.3.8X8X8X8XeXyX8XyXyXeXtXtXtXcXcXvXcXCXvXvXHXvXHXHXvXvXcXiXtXtXiXcXJXHXLXLXLXLXLXLXHXHXvXvXvXHXvXvXcXcXcXcXiXtXrXtXrXrXrXyX0XwXqX8X3.0X0X8X0XwXyXeXrXrXtXiXtXiXiXcXcXcXvXvXvXHXHXvXLXHXHXLXLXLXLXHXHXuXuXuXuXuXvXvXvXvXJXJXJXGXvXvXuXvXuXuXuXuXuXpXuXpXpXpX0XpXpXpX0X6.q.6.7.7.6.o.7.$.$.o.8.8.R.%._.R.8.8.E._.R.R._._._._._._._._.`.4X_._._._._.%.$.$.' $.%.R.R.R.E.R.R.E.8._.$.R.$.$.$.$.$...$.$.' ..' ........( ) ) ( ( V V V V B N V V V V V V V k V V V V k k k k w w k k 1 k f k 1 k k 1 f 1 k 1 f 1 1 1 1 1 1 1 ; ; ; 1 ; 1 ; 1 ; = ; ; = = ; = ; o ; o o o o o o X = o o o o o o o o PX",
"PX  .   . . .   .   .   .   . . . . . . . . . . . + . . + . . + + + + . @ . . # @ + + # + # + + * * + % # * % * & 0 0 & & & w 0 e > w e y y y y p p 0 p p y 0 p p t a p p p s a a s a a a J n J a J J n E J J J T J E J ! J ^ J ^ ! J ! ^ T ~ ~ y.y.y.y.u.u.F.j.F.H.F.F.F.H.F.G.F.F.F.F.F.F.G.m.D.D.D.D.1.~ 1.1.1.<.<.3.8XqX0X0X8XyXyX8XyXeXyXtXcXtXcXcXcXcXcXvXvXvXvXvXvXvXcXtXtXeXbXcXvXJXHXHXLXLXLXLXLXHXHXHXvXHXvXvXcXcXtXcXiXtXtXtXtXtXyXyXyX0X0XqX3.qXqXqXwXyXyXyXeXyXrXtXtXtXcXtXcXcXcXvXvXvXHXHXLXvXLXLXLXLXHXHXHXJXuXbXuXuXbXcXvXJXJXJXJXiXJXuXuXvXuXuXuXuXpXpXeXpXpX9X9XpX0X0X9.9.9.6.7.7.7.o.o.o.$.8.$.%.$.8.%.R.8.E.E.E.R.E.E.E._._._._._._.4X_._.'._.'._._.R.R.$.$.$.$.R.E.E.E.E.R.R.R.%.%.$.$.$.$.$.$.............' ) ..` ) ` ( V V ( V V N V V V V V V V k V k k V k V k k k k k k k w k k w k 1 1 w 1 1 w f 1 w 1 1 1 1 * 1 1 1 1 ; 1 ; ; ; ; # = ; = ; ; # = = ; o = = o o o = = o o o o o o X o X IX",
"IX      .     .   .   .   .   . . . . . . + . + . . + . . + + + + . + o + + + @ o + + @ % @ + * + + * * * & * & & & & * & e & w w & 0 w 0 w y 0 0 p p 0 w t p p t p p t t a a p a a a a a a a a J a J J J a n Y Y E Y Y J Y Y ! K Y ~ Y ! ^ ^ y.y.y.y.F.D.F.u.F.F.F.F.F.H.F.H.H.G.H.H.G.H.G.F.F.D.D.D.1.D.O.1.~ <.1.1.3.3.3.3.qX8X8X0XyX8XyXeXtXtXtXcXcXcXcXvXvXvXLXvXvXvXvXvXcXiXtXtXcXcXJXJXHXLXLXLXLXHXHXHXHXHXvXvXcXcXcXvXVXiXtXtXtXrXrXyXyXyXqXqX0X0X3.qX8X8X0X0XyXyXyXrXtXtXtXtXcXcXcXcXvXvXvXvXHXvXLXvXLXLXHXHXHXJXJXuXuXeXbXuXvXvXvXJXuXJXuXGXJXvXuXJXuXuXuXuXuXuXpXuXpX0XpXpX9.pX9.9.9.7.7.7.7.$.o.o.$.8.8.R.%.8.R._.R.R.8._.%.R._.E._._._._._._._._._._._.E._.%.%.$.' $.R._.%.R.`.8.E.R.R.8.R.$.R.' $.$.' $.' $...' ......) ..[ ( ( B B V V m V V b V b V V z V z V k k k k k k k k s k k k k f k 1 k f f k 1 w 1 1 1 1 1 1 1 1 1 1 ; ; 1 1 ; 1 ; 1 # ; ; ; = = = = = = o = o o ; o o o o o o o o o o o o PX",
"PX    . . . . . .   .   .   . . . . . + + . . . + . + + . . + . + + + + + + + + + + + * + # * % # % # * % * * & & & & w w & & & 0 & & e w e w 0 0 y p y 0 p p t p p p p s p t a p s t n s a a J n a a J J J J E Y Y E J Y E ! Y Q K Q ! ^ J ~ ~ y.y.y.y.D.u.F.F.F.F.F.F.F.F.F.F.S.F.H.F.F.F.G.F.F.D.D.D.~ 1.~ <.1.<.<.3.3.0.8XqX0X8X8XyXyXyXyXrXtXtXtXcXcXcXcXvXvXHXvXCXvXvXcXtXuXeXuXcXvXJXJXHXLXLXLXLXHXHXvXHXvXvXvXcXcXcXbXbXiXtXtXrXrXrXyXyXyX0X8XqX8X9.8XqXwXwXyXwX0XyXyXrXtXtXcXtXcXcXcXcXvXvXLXvXLXvXLXvXHXHXHXJXJXJXuXJXuXbXuXcXcXJXJXJXJXuXuXJXuXJXuXuXuXuXeXuXpXpXpXpXpXpX0XpX9.9.9.q.7.7.7.' o.o.$.8.$.$.8.%.8.%.%.8.%._.R.E._._._.E._._._._._.'._._._._._._.R.R.$.#.$.$.R.E.E.E.E.R.%.%.R.$.R.$.$.$.$.$.$.....$.' ..` ....( ( ( V ( B B B V V b V z V V V V V V k V k V k k k k k k k w k k k 1 k 1 w k 1 f f 1 1 1 w 1 1 1 1 1 1 ; # 1 # ; 1 # 1 ; ; = = ; ; o # = o ; # = = o o o o o o o o o o . o X PX",
"PX      .     . .     .   .   . . . . . . . + . . + . . + + . + . + . + o + + o + + + % + @ % + @ % * % % * & * & & * & & 0 e e e > 0 w e e w p p y y 0 p p p 0 p p p p a t p p a a s a a a a a a J a n a E a Y J U J E Y ^ J E Y ! J ^ ! R ~ ~ ~ y.y.u.D.F.y.F.F.F.H.F.H.F.F.H.G.F.F.F.F.F.m.F.D.D.D.1.D.~ 1.1.1.1.<.1.4.3.8X8X0XqX8XyX8XyXyXrXyXtXtXcXcXcXcXvXvXvXvXvXvXvXvXtXtXtXiXuXiXJXJXJXLXLXLXLXHXvXHXvXHXvXvXvXcXtXcXcXiXtXtXrXrXyXyXyXwXqXqXqX3.qXqXqX8XwX0XyXyXeXeXrXtXtXtXtXtXiXcXvXvXvXvXvXLXvXvXLXHXHXJXHXJXJXuXuXuXuXeXbXJXbXuXJXuXJXJXJXuXuXvXuXuXuXuXuXpXeXeXpXpX0XpX9.9.q.6.q.q.7.o.8.' 7.$.o.$.8.%.%.E.R.E.E.R.E._.8._.%._._._._._._._._._.4X4X_.E.R.$.$.$.#.$.%.%.E.8.R.%.R.%.R.$.R.$.$.$.$.$.$...#...' ........) ..( ( ( B V V B V V V n V V x x V k V s x k s k k s k k k k k w k w k 1 k f 1 1 w 1 1 w f 1 1 * 1 1 # 1 1 1 1 ; 1 ; ; # # ; ; ; ; = ; = = = = = o = o = o o o o o o o o o o o PX",
"IX  .   . . .     . .   . . . . . . . . . + + . + . + . . + . + . + + + . + + + % @ % @ # % + * * % % * % & # & & & & & & & & & & w & e e w e w e y y w 0 p y p p p p p p p p a p p a a a a a a J a J n a J a E J E J E J J E J Y J J Q ^ ! ~ y.y.y.y.F.u.y.F.F.F.F.F.F.H.F.F.F.H.F.F.F.F.F.G.F.D.D.y.D.1.@.1.1.1.<.1.3.4.3.3.qX8XqX8XwXwXwXyXyXyXrXtXtXcXtXcXcXbXbXvXvXvXcXtXtXtXtXtXtXcXJXJXJXLXHXLXvXLXvXvXHXvXcXvXCXvXtXcXtXtXtXrXrXyXyXyXwXwXqXqXqX4.8X8XqXqXwX8XyXyXyXyXtXyXtXtXtXcXvXtXvXvXbXvXvXHXHXHXvXJXJXJXJXJXvXbXuXuXuXuXvXGXJXuXJXJXJXuXuXiXJXuXuXuXuXuXuXpXpXpXpXpXpX0XpXpXq.q.9.7.7.7.o.$.o.8.$.&.8.%.8.E.8.E.R.E.E.E.E.E.E._.E._.E._._.].'._._._._._._.R.R.#.$.$.R.$.R.%.R.%.R.%.%.$.$.$.$.#.' $.$.' ......' ..) ..` ..( ( B m B V V V b V b V b V z V V V V z k k u k k k k k w k k k w f w f 1 f 1 k w 1 1 1 1 1 1 1 1 1 1 ; 1 ; ; 1 # ; 1 # ; ; ; # # ; o ; o o # o o # = o o o o o # o o + o o IX",
"PX    . .   . . .     .   . .   . . . . . . . . . + . . . . + . + + o . + o # + + + + + + + @ % + % + * * # & & & & * * w & w e w & & w w e w e w e p 0 p w p y 0 p p t s p p t p s p a a n a n a a a s J n J a a E E J J E Y U U E ~ K ! ^ ~ ^ @.y.D.y.F.D.j.F.F.F.H.F.H.F.H.H.G.F.H.F.F.F.F.F.F.D.D.1.~ 1.1.~ ~ 1.7.1.3.4.4.qX8XqXqXqXwXwXyXyXrXtXtXtXtXcXcXcXvXvXcXvXvXvXcXtXtXtXtXtXiXvXJXJXvXHXHXLXvXHXvXvXvXcXvXcXcXcXtXtXtXrXyXyXyXwXwXwXwXwX3.qX8X4.qXqX8X8XwXwX8XyXyXyXtXrXtXtXtXtXtXcXcXcXvXvXvXvXHXvXJXvXJXJXvXvXuXuXuXuXuXuXuXuXJXJXbXuXGXuXiXuXuXuXuXpXuXpXuXpXpXpXpXpX9.pX9.q.6.q.7.8.o.8.o.o.&.o.$.%.%.%.%.E.%.E.%.E.E.E.E.E._.E.E._._._.`._._._._._._.E.$.R.#.#.$.$.$.R.R.%.%.%.8.R.$.%.$.' $.#.#...#.....$.......` ( ..( ( V B N V M V V b V V k V k V k k k k k k k k k s k w k k w f w f 1 k w w 1 1 1 1 w 1 1 1 1 ; 1 # 1 1 ; 1 1 # 1 ; ; ; # ; ; ; = # ; # # ; # = = # o # = o o o o o o o o o IX",
"PX  .     . . .   .       . . . . . . + . . + + . + . + + . . + . + + + + + o + + + + # % * # + + % # % & # & & & * & & * & & & & w & w e w e w w y y y y p y p p p p y p p p p p a s z s a a a s a a n J a n a n J J E E J E J Y U ! ! J ^ ~ ~ y.y.y.y.F.y.F.u.F.H.F.H.F.H.G.j.F.F.F.F.F.F.F.D.F.D.D.D.D.1.y.1.1.<.1.1.4.3.4.qXqX4.8XqXwXwXwXyXtXbXtXtXtXcXtXcXcXcXvXcXcXcXcXtXtXeXtXtXcXJXvXJXLXvXHXvXvXHXvXvXvXcXcXcXcXtXtXtXrXrXrXwXyXwXwXwXqXqXqX3.4.4.4.qXqXqXwXwXyXyXyXyXyXyXtXtXtXtXcXcXcXcXvXvXvXvXvXvXJXbXJXJXvXvXbXeXeXuXuXcXuXiXJXuXJX9XJXJXuXuXuXuXuXuXuXpXpX9XpXpXpX9.pX9.q.9.9.7.8.7.o.$.$.o.8.$.8.$.%.8.E.E.E.%.E.E.E.E.E._.E.E._._._.E.E._._._._._.E.E.$.$.$.#.$.$.%.$.R.%.R.%.$.%.R.$.$.$...$.$.....$.......` ) ` ) ( ( ( ( V N V n V b V V b V s z k z s k k z V s k k k k w k 1 w k f f 1 1 f 1 < 1 1 1 1 1 1 1 1 1 1 # # 1 1 # # 1 # ; ; # ; ; # ; = ; = # o # o ; # o o # o o # = # o + o o o PX",
"PX      . .   . .   . . .   . . . . . . + . . . + . + . . + + + . o . + + o + + o + + # + + + % # % + % % * * % # & & & & & & > & & & w & > 0 e y 0 w y y 0 p y y t w p t p p p p s p a p a a a n a J a n a n J a J n J J E J E Y ! ^ J ! ! ~ ~ ~ y.y.j.y.F.F.F.F.F.F.F.F.F.H.F.F.H.F.G.F.F.D.F.D.D.D.y.@.y.1.O.1.1.1.3.1.3.4.8X8XqXqXqXqXwXwXyXrXmXyXtXDXtXtXcXcXcXcXcXcXcXtXtXtXeXeXtXuXvXcXJXvXHXvXHXvXvXvXvXvXcXcXtXtXtXtXyXrXyXDXyXwXwXwXwXqXqX0.qX3.qX8X4.qXqX8X8XyX8X8XyXyXtXtXtXtXtXtXcXcXcXvXbXvXvXvXHXJXJXvXJXvXvXuXuXeXeXuXuXcXcXuXvXuXJXuXuXuXJXuXuXuXuXpXuXpXpXpXpXpXpXq.pX9.q.q.q.7.8.7.8.o.$.&.$.&.%.%.%.%.E.8.E.E.E.E.E.E.E.E._.E.E._.E._._._._._._._.E.R.$.#.' $.$.$.%.$.%.$.R.R.$.%.$.$.$.$.$.......' ....) ....` ..` ( ( B m b V V b V b x V V b V z V k V k k k k k k k w k w k f f f w w f f 1 w 1 1 1 1 1 1 1 ; 1 1 1 1 ; # 1 ; ; ; # ; 1 # ; ; # # ; # ; ; = # o o o ; o # # o o o o o o o X PX",
"PX    . . . . .   .   .     . . . . . . . . . . . . + . + . + . + . + + + . # + + # + # + # % # # $ # % % % & # & & # & & 1 & & w & & w & w e w w e e w w y y y w p p p p p s p p s p s a z n p a a n a a n a a J n J n n J E J U ! U ! ^ ! ~ ~ O.y.y.F.F.F.F.F.F.F.H.F.F.F.F.F.F.G.F.F.F.F.D.F.D.D.D.1.1.@.1.1.1.1.1.1.4.4.4.8X4.qX4.qXqXwXwXwXyXyXtXtXtXDXcXtXcXcXcXcXcXtXcXtXtXeXtXtXiXcXJXvXHXvXLXCXvXvXvXvXvXcXcXtXtXyXtXyXrXyXwXyXmXwXwXqXqXqXqX4.4.8XqXqXqXqXqXqXyXwXyXyXyXyXyXtXtXcXtXcXiXcXbXvXcXJXbXJXbXJXJXbXJXuXuXeXuXeXuXuXuXvXuXuXGXuXuXJXuXuXuXuXuXpXpXpXpXpXpXpXpX9.pXq.q.q.7.7.q.7.&.o.$.o.&.&.$.%.%.%.%.%.%._.E.E.E.E.E.E.E._.4XE._._._._.4XE.E._.E.E.#.R.$.$.$.$.%.%.$.%.$.$.$.%.$.$.#.$.$...$.............( ( ` ( ( B ( V V m V x V k V V b k z k k x k k s k w k w w k w k f w f w f f 1 f 1 1 1 1 w 1 1 1 1 1 ; 1 ; 1 ; ; 1 ; ; ; ; ; ; ; ; ; ; # = ; # = # = # o o # o # o o o o o # o o o o IX",
"IX  .     .   . .   .   . . . . . . . . + . + + . + + . . + . + . + + o + + + + + + . + + + * + $ + $ # % & # # & * * & # & 0 & w & w & w & w > e w w e w y w p 0 p 0 p w p w p p p p t a a p p a a s a a a n J a n n J J E J E Y Y Y ^ J ! ~ ~ y.y.y.y.j.y.D.F.F.F.F.F.H.F.H.F.F.H.F.F.F.F.F.D.D.D.D.y.y.~ 1.y.~ 1.1.1.,.3.4.4.qX4.qXqXqXqXwXwXyXyXyXyXtXtXtXtXtXtXcXcXcXcXtXrXrXeXeXtXiXvXcXvXvXvXvXvXvXvXvXcXcXcXcXtXtXtXDXtXrXrXyXwXrXwXwXqXqX4.qX3.4.8X4.qX8XqXqXqX8XyXyXyXyXyXtXyXVXvXtXcXiXcXcXvXcXbXvXvXJXbXbXJXbXcXuXuXeXuXuXuXvXuXuXJXuXvXuXuXuXuXuXuXuXpXuXpXpXpXpXpX9.pX9.q.9.q.q.q.7.8.8.o.o.$.$.8.%.%.8.%.%.R.%.%.E.E.E.E.E.E.E.E.R.E._.E.E._.E._._.E.E.E.R.#.$...#.$.$.$.$.$.%.$.$.$.$.$.#.' #.............' ..) ` ( ( ( B B m m b V x V n V z k z V s V k k z k k k k k k w k w k w k 1 1 w 1 w w 1 1 1 1 1 ; 1 * 1 1 1 1 # # 1 * ; ; ; # ; # ; ; # # ; = # # ; o # = # o o o # o ; # o o o o + o o PX",
"PX    .   .   .   .   . .   . . . . . . . . . . + . . + . . . + . + . + # . + # + # + # + # % @ + # % % % # # * & # # & & & & & * & w & & e w e e 0 w y e w y y p p 0 p p p p p p p p p p a p a p a p a a a a a J a J n E a Y U U Y E J E ^ ~ ~ ~ y.y.D.F.y.F.F.F.H.F.F.G.F.H.F.H.F.F.H.F.F.F.F.F.D.y.D.D.~ @.1.1.1.1.4.3.4.4.4.4.4.8XqXmXqXwXwXyXyXyXtXmXtXtXtXcXcXcXiXtXcXrXrXeXeXeXtXtXcXvXvXvXvXvXvXvXbXcXvXcXcXcXtXtXtXtXyXyXwXwXwXwXwXqXqXqXqX4.4.4.4.8X4.qXqXqXqXyX8XyXyXyXyXyXtXyXtXtXtXiXbXcXcXbXvXcXJXbXJXvXcXvXcXuXuXeXpXeXuXvXuXuXvXuXuXuXuXuXuXuXuXuXpXpXpXpXpXpX9.pXq.pXq.q.q.q.q.w.8.$.8.o.#.&.8.8.%.%.%.%.%.8.E.E.E.E.E.E.E.E.E.E.E.E._.E._.E.E.E._.E.E.#.#.#.#.$.' $.$.$.$.$.%.$.$.$.$...$.....$.....) | ` ` ( ( ) ( ( B B V m b V x V k V V k s V k k k s k k k s k w k w w k k 1 1 f w 1 1 1 w 1 1 1 1 1 1 1 1 1 1 # 1 ; 1 ; ; ; ; ; ; ; ; # ; ; # = # ; # o ; # o o # # o o o o # o o # o o . o IX",
"PX      . . . . .   .   . .   . . . . . . + . + . + . . + . + . + o + . . . + + + . + + # + + # # @ # + # % & # * & * & & & & & & & & w w & 0 & w e e w e w y 0 w y p y 0 p w t t w s p p p s a s p a n a a n s n a n J n J J E Y Y U ! ^ Q ~ ^ ~ y.y.y.D.D.j.u.j.F.F.F.F.H.F.F.F.F.F.G.F.F.D.D.F.y.D.@.D.~ y.1.1.1.1.1.1.4.4.4.4.qXqX4.qXqXwXwXwXwXyXyXbXtXtXtXVXvXcXtXtXtXtXyXrXyXrXeXcXcXcXvXvXvXvXvXDXcXvXcXvXtXcXtXtXtXbXmXyXyXwXwXwXqXqXqXqXqX4.0.4.4.4.qX4.8XqXqXyXmX8XyXyXyXyXyXtXtXtXcXiXiXcXcXcXvXbXJXcXbXvXvXcXuXeXeXeXeXeXuXuXuXuXuXuXvXuXuXuXuXuXuXpX9XpXpXpXpXpXpXq.pXq.q.q.q.7.8.7.8.o.o.8.&.$.&.$.%.%.%.%.E.E.E.E.E.E.E.E.E._.E.E._.E.E._.E.E.E.E.E.E.E.#.R.$.' $.#.$.$.$.%.$.$.$.$.#.#.$...$.' ' ..` ....` ..) ( ( ( ) V ( m V V x V k x s x k k z k z u k k w k k k w k k w w w 1 k w 1 f 1 1 1 1 1 1 1 1 ; ; 1 ; ; 1 ; 1 ; # ; ; ; ; ; # ; ; ; # ; # ; o o ; o ; # o o o o # # o o o o o o o o O PX",
"PX    . . .   . .   . .   . . . . . . . . . . . + . . + . . . + + + o . + + + + + o + @ + + * % + # % + % % + % & # % % & : > % & & * & & w & e e > e w w e e w y p y w y w p t y p p p p p p a z a a p n p n a a n a a J U J E Y U Y E Y ~ ~ ~ ~ y.y.D.D.D.F.j.D.F.F.F.F.F.H.F.F.F.F.F.F.F.F.u.D.D.D.y.1.@.1.1.1.1.1.1.1.4.4.4.4.4.4.qXqX8X0.wXwXwXyXrXrXrXyXtXtXiXiXtXtXtXrXrXrXrXrXuXiXiXiXvXvXvXvXvXcXvXcXcXcXDXcXtXtXmXyXyXwXwXwXwXwXqXqXqX0.0.4.0.4.qX4.qXn.qXqXqXqXwXwXyXyXyXyXyXtXtXtXtXtXbXbXbXcXbXvXvXvXbXcXbXcXuXuXeXeXpXeXuXuXuXuXuXuXuXuXuXuXuXpXuXpXpXpXpXq.pXpXq.pXq.pXq.q.q.q.8.7.8.o.o.$.&.&.$.&.%.%.8.%._.%.%._.%.G.E.E.E.E.E.E.E.E.E.E.E.E.E.E.E.%.R.$.#.$.$.$.#.$.$.$.$.#.$.$.$.$.$.' $.....' ....' ..` ) ` ` ( ( ( m V m V V x V V z k x k x k z k k k w < k u k < k k < w 1 < w f 1 1 1 1 1 1 1 1 1 1 * ; 1 ; # 1 # 1 # ; ; ; ; ; ; # ; # ; # ; # # = # = # = o ; # o o o o # + o + o o + o o PX",
"PX    .   .   .   .   o .   . . . . . . + . . . . . . . . + + . . + + + + . o + + # + + + # + % # @ # + % # % % % # & # % * % & & * w & & & w & > & 0 e w w e e p 0 w p p p w w p p p p a s p p p p a p s a a a a n J n a n n U J E Y ^ ^ Y ~ ^ y.~ y.y.y.D.u.F.F.F.F.F.F.H.F.F.F.F.F.F.D.F.D.D.D.j.D.y.y.1.1.y.1.1.1.1.1.1.4.1.4.4.qX4.4.G.wXqXwXwXwXiXyXyXrXtXrXtXtXiXtXtXrXeXeX0XrXrXtXiXvXiXvXvXcXvXcXcXvXtXtXvXtXtXtXcXyXyXwXDXwXwXwXqX0.qXqX0.qX3.3.4.4.3.8XqXqXqXqXqXwXwXwXwXyXyXyXtXyXtXtXtXtXtXbXtXcXcXcXcXcXcXcXuXeXeX0XeXeXuXuXuXiXuXuXuXuXuXuXuXuXpXpXuXpXpXpXpXq.pXpXq.q.q.q.6.q.8.8.w.8.&.o.8.8.&.&.%.%.%.%.%.%.%.%.%.%.%.E.E.E.E.E.E.E.E.E.E.E.E.E.R.%.%.$.$.#.....$...$.#.' $.$...$.#.....#.........| ..` ) ` ( ( ( B ( m B m V V z z z V k s z k k p k l k k k k w w k 1 w f f k w 1 w 1 w w 1 1 1 > 1 ; 1 1 1 ; 1 1 1 ; ; 1 ; ; ; # ; ; ; # ; ; ; o = o # = # o # o # = o # # o o o o o o o o X o PX",
"IX        . . . .   . . .   . . . . . . . . . . + + . + . + . + . + + . + + + + + + + o % @ # + + # $ % # @ % % % & % * % * % % # & 1 w & w > w w & w w e > e w 0 y y y w w p p w s p s u p p p p s p p p a z a n a n J E n J J E U Y E E ! Q ~ ~ y.y.y.D.y.D.F.j.F.F.F.F.F.F.j.H.j.F.F.D.F.F.F.D.y.D.@.D.@.~ D.D.1.1.1.4.1.4.4.4.qXqX4.qX4.qXqXwXwXwXmXyXDXrXrXtXtXtXtXtXtXrXrXyX0XpXtXtXiXiXLXvXvXcXcXcXcXtXcXtXtXtXtXtXyXyXyXwXwXmXyXmXwXqX0.0.qX0.4.4.4.4.8XqX4.qXqXqXwXwXwXwXyXyXyXyXyXyXtXyXtXbXbXtXbXcXbXiXbXbXiXcXiXuXpXeXpXeXuXuXuXuXuXuXuXuXuXuXuXpXuXuXpXpXpXpXpXpXq.q.q.q.q.q.q.q.8.7.&.o.8.$.8.&.$.%.%.%.%.E.%.E.%._.%._._.E.E.E.E.E.E.E.E.E.E.T.E.E.E.%.$.#.' ..$.$.$.' $.$.#.#.$.$.#...#...#...' ..[ ..) ) ..( ( ( ( B V ) V V x x V z k z k k k k k k k k w u k f < k f 1 k 1 w f 1 w 1 1 w 1 1 1 ; 1 : ; 1 1 ; ; 1 ; ; ; # # # ; ; ; ; # # ; # # ; ; # ; # ; o # = o o o o o o o + o o o o o o O o IX",
"PX      . .   .   .       . . . . . . . . . . + . . . . . . . . + o + + + o . + o + + + + + + @ # . # + # # % % % % % # % : % > 1 * * & & & & 0 & w > e & w w e y w p 0 w y w p p y w p p p p p p z p n s n s a s a a n a J E a J J J Q ^ J ~ ~ ~ y.@.D.D.F.y.D.F.F.F.F.F.F.F.H.F.F.F.F.F.F.D.D.F.D.y.D.1.y.1.~ @.1.1.1.1.4.4.4.4.4.4.0.0.mX0.qXwXwXwXyXyXyXrXtXrXtXtXrXtXtXeXrXyXyXwXrXuXiXiXvXvXbXvXcXcXcXbXDXcXtXtXrXyXyXyXyXwXwXwXwXwX0.qXqXqXm.0.4.4.4.4.4.4.4.qX4.qXqX8XwXwX8XyXyXyXtXyXtXtXtXtXtXcXcXcXtXcXbXiXiXuXuXeXeX0XeXeXpXuXuXuXuXuXuXuXuXpXuXuXpXpXpXpXpXpXq.pXpXq.pXq.q.q.q.8.q.8.8.8.&.&.$.&.&.&.%.%.%.%.%.%.E.%.%.%.%.E.E.E.E.E.E.E.E.E.E.*.E.E.%.R.%.$.#.$.' ..' #.$.#.$.#.#.#.' ' $.#.........) ` ..` ) ( ( ( m m ( m m k m z V k z s k z k z k k w k k w f w k 1 w w f w < w 1 < w 1 1 1 1 1 1 1 1 1 1 # 1 1 # 1 # ; 1 ; ; # ; ; # ; ; # ; ; o # ; o = # o # o # o o # + o o o + o o o . o o o PX",
"IX      . . .   .   . . .   .   . . . + . . . . + . + . + . + . + . + + o + + + + + + + + + # # # # + # + + % # * # % * # & # & * & & * & w & 1 & w & w w w & & w w e w y w e w w p y p p p p p p p p p a p a s z a n a n J J a J E J U ! R ^ ~ ~ y.@.y.y.F.y.F.y.F.F.F.F.F.F.F.F.F.F.F.F.D.F.D.D.D.D.@.y.~ 1.O.~ 1.1.1.1.4.1.4.4.4.4.4.qX4.qXqX0.wXwXwXyXyXmXrXrXtXrXrXtXrXyX0X0XeXyXyXuXiXiXiXcXvXvXcXcXcXtXtXDXtXtXtXDXyXwXwXwXwXwXmXwX0.qX4.0.4.4.4.4.4.4.qXqX4.qXqXqXqX8XwXwX8XwXyXyXyXyXyXyXtXtXbXtXbXbXbXiXiXbXbXuXuXeXeXeXpXpXeXuXuXeXuXuXuXuX9XuXuXpXuXpXpXpXpXpXpXpXq.q.q.q.q.7.q.8.q.8.7.&.$.$.8.&.$.%.$.%.%.%.%.%.%.E.E.E.E.E.E.E.E.E.E.E.E.E.#.E.R.%.%.%.$.#.' #.#.#...$...#.#...#.....$...#.' ....` ..) ` ` ( ( ( ( V m ) m V V x x k k V k k k k u k k u k w w k < k f w 1 1 1 w 1 1 w 1 1 w 1 ; 1 1 # 1 ; 1 1 # ; 1 ; ; 1 ; # ; ; ; ; ; ; # ; o # # = # # = o ; o o o # o o o o o o + o . o o o O o PX",
"PX  .   .   . .   . .     . . . . . . . . . . . . . . . . . . + . + . + + + . o + o o + o + + + # + # + # % # % # % # # * # # & & # & ; * & & & & & w & & & e w y e e e w w y y y y w w s w p w s p p s p p p n a p s a a a n E J Y E J E U ! ~ ~ ~ y.y.j.y.y.D.j.F.F.F.F.F.F.F.F.F.D.F.F.F.F.D.D.D.y.y.~ D.1.D.D.1.1.1.1.1.4.4.4.4.4.4.4.4.mXqXwX0.wXwXwXyXtXrXrXrXtXrXrXrXyXyXyX0X0XyXrXiXiXiXcXcXtXcXcXtXcXtXtXtXrXyXyXyXwXwXwXwXwX0.0.wXqX0.4.0.4.4.4.4.4.4.4.4.4.qXqXqXqXqXyXmXwXyXwXyXyXyXtXtXtXtXbXVXtXbXiXbXiXuXiXuX0X0X0X0XeXeXpXuXpXuXpXuXpXuXpXpXeXpXpXpXpXpXpX`.q.q.q.q.q.q.q.8.q.8.w.&.o.8.&.&.$.&.&.%.%.%.%.%.E.%.&.&.E.E.E.&.&.E.#.E.E.E.E.E.E.E.%.E.E.$.$.#.......#...$.#.' #.' ..#.$.......) ....) ..) ` ( ( ( ( ( m V V m m k z k z k w k l k k w < k k f 1 k w f w w k 1 w 1 w 1 1 1 1 1 1 1 ; > 1 1 1 # 1 ; # ; ; ; * ; # ; # ; # ; ; ; # ; o ; ; o = # # o o # o o + o o # o o o o o o o . o X PX",
"PX    . . . .   .   .   . . . . .   . . . . + . . . . + . . + . + o . + + + + + + + o + + # + + @ o + # # + # @ * # # # # * & # # # * > 1 & * & & w & & & w > e w > w w y e y w w w p y y p p u u p p p p p a p a p a a n J a J n I J E Y ! ~ ~ ~ y.y.y.j.D.F.y.F.F.F.F.F.F.F.F.F.F.F.F.D.F.F.j.D.y.D.1.@.y.~ 1.1.~ y.1.1.4.4.1.4.4.4.qXqXqX4.qXqXmXwXDXDXwXwXwXyXrXrXDXyXyXyXyXyX8X0XeXrXuXiXiXtXcXcXtXtXtXtXDXtXyXyXyXyXwXwXwX0.wXwXwXwXmX0.0.0.4.4.4.4.4.3.4.4.4.4.4.4.qXqXmX8XwXyXwXyXyXyXyXyXyXtXtXtXbXbXtXcXiXiXtXuXeXeX0X0XeXeXpXeXuXuXuXuXuXuXpXuXpXpXpXpXpXpXpXpXpXq.pXq.q.q.q.q.8.8.8.8.o.8.o.o.&.&.&.&.%.%.%.%.%.%.%.E.E.E.#.E.E.E.E.E.E.E.E.E.E.E.#.$.%.$.&.#.$...#...$...$.#.#.' #.#...' ........) ( ..` ( ( ( B ( m m ( m m V k k k k u k k k k w k w k w < < w f f w k 1 1 w f 1 1 1 1 1 * 1 * 1 1 ; 1 ; # ; 1 # 1 # ; # ; # ; ; ; # ; ; o ; = # ; o # = = o = # o o o # o o o o o o . o . o o o o X PX",
"IX      .   . .   .   . .   . . . . . . . . . . . . . . + . + . . + + . + . . + . + + + + + + # + + # + + @ # % # # * * # # # # & > * # # & & 1 * & & & & w > & w e e > > w y y y 0 p w w p y y p u p p p s p a n s p n s a n J J J n U J ^ ! ^ ~ @.~ y.y.y.y.D.y.F.F.F.j.F.y.F.F.j.F.F.D.D.D.y.D.D.y.D.y.1.y.~ 1.1.1.1.1.1.1.4.4.m.4.4.m.4.4.4.qXqXqXqXwXwXwXwXyXyXyXyXyXeXwX8X0X0XwXyXrXrXtXiXcXtXcXtXtXtXtXtXtXrXyXyXwXwXwXwXwX0.0.0.G.qX0.0.0.4.4.4.4.4.4.4.4.4.8XqX4.qX8XqXwX8XwX8XwXwXyXyXyXyXyXtXtXtXtXtXiXeXiXuXtXeXeX0X0X0X0X0XpXpXeXpXeXpXuXuXpXpXeXpXpXpX`.pXpXq.q.q.q.q.q.q.w.q.w.8.8.8.&.&.8.&.$.%.%.$.%.%.%.%.%.%.E.&.E.R.*.E.&.E.R.R.*.E.E.#.E.E.R.%.%.#.#.$...............#.{ ............) ....` ) ` ( ) V ( ) V ( m V m m k k z k k k k u k w u k < k w k f w 1 f 1 1 w 1 1 1 > w 1 1 1 1 1 1 # 1 # 1 1 ; # 1 ; ; ; ; ; ; ; # = ; # # ; # # ; # ; # o # o # o # # o o + o o + o . o o o o . o . . PX",
"PX      . . . .   .   . . . .     . . . . . . . + . . + . . + . . + . + . + . + + . o + + o + + + # + + + # # + # # # @ # # * * # & * ; & * ; 1 & & 1 & > & & > & & & e w > w e e w w w y y y w p p p w p w p p p p a n a n a s n J U J J E Y ~ ~ ~ ~ y.y.j.y.D.j.F.F.F.y.F.j.F.y.F.F.y.F.y.F.D.y.D.y.y.D.~ 1.y.1.~ 1.1.1.1.1.4.4.4.4.m.4.4.4.4.qXqX0.wXwXwXwXwXwXyXyXyXwXpXwXwXwX0XwXwXeXrXtXtXtXtXtXtXtXrXrXDXrXrXyXwXDXqXqXwXwXmXqXG.0.qXm.4.4.4.4.4.4.0.4.4.4.4.4.4.qX8XqX4.8XqXwX8XwXyXwXyXyXyXeXtXeXtXtXtXtXtXeXeXrXpX0X0X0X0XpXpXeXpXeXpXuXpXpXpXpXpXpXpXq.pXpXpXq.pXq.q.q.q.w.q.8.q.8.8.8.o.&.o.&.&.&.&.&.E.E.&.&.R.E.&.&.&.E.&.&.E.E.E.E.E.E.#.R.#.E.#.&.$.$.#.' ..............' { { #.......) ..{ ) ) ( ( ( ) B m V m m m V m V x l k k k l k k < k k k w w 1 1 k w < w f < 1 < w 1 1 # 1 1 1 1 > 1 ; 1 ; # 1 ; ; ; ; ; ; # ; # ; o ; ; ; ; # o ; # = o o o # o o o # o # o o + o o o . o o o o o o . . X IX",
"PX  .     .   . .     .   . . . . . . . . . . . . . . . . + . + + + + . . + + . + + + + + + + o + + + # + # # @ # # % # % # % # @ # # & # & * * * 1 0 & & & 0 1 > e & w & e > w w w w y w u w u p w p p p p s p p s p a a s J n J n Y E Y Y ^ ~ ~ ~ y.O.y.y.y.y.y.F.y.F.F.F.F.F.F.j.F.F.F.D.D.y.D.y.D.1.1.y.~ @.1.1.y.1.1.0.D.4.4.1.4.4.4.4.mX4.0.qXmXwXqXqXwXwXwXwXwXyXwXyXwX0X8X0X0XwXyXyXrXrXtXDXtXtXtXrXrXrXrXrXrXwXwXwXmXwXqXqXqXqX0.0.qX0.4.D.4.1.4.1.4.1.4.4.4.qXqX4.qXqXmX8XwXwX8X8XwXyXyXyXyXyXtXtXeXtXeXtXtXtXeXeXeX0X9X0X0X0XpX0XpXeXpXeXpXeXpXpXpXpXpXpXq.q.pXq.q.q.q.q.q.q.w.8.w.8.8.&.8.&.8.&.8.&.&.&.#.E.E.*.E.E.E.E.E.E.E.E.#.E.#.E.#.E.#.E.#.E.#.%.#.$.#.#.#.....#...#.#...' ............) ) ..( ( ` ( B ) ( m ( m m V V k x k l k u k w k u < < < k k w 1 f w 1 1 w 1 1 1 1 1 w 1 1 * 1 ; 1 * # 1 ; # ; ; ; ; 1 * # ; ; = ; # # o o ; ; o o # = # = # o ; o o o + o o o o o o . o o + o . . o o o PX",
"IX      . . . .   .   . .   . . . . . . . . . . . + . + . + . + . . o + + o + + . + o + + + + # + o + # + + @ # # + + # + # # # & # & # # & & # & * * & & & & & > * & & & w e > w e e > e y w y p y w p w t p p p p a p a n s n a J E J U ! ^ ! ~ ~ y.y.y.y.D.y.F.D.y.F.D.D.F.u.F.D.F.y.D.y.D.D.D.y.y.@.y.O.y.1.~ 1.1.1.1.1.1.1.1.4.1.1.4.4.0.0.m.qXqX0.qXwX0.wXwXwXwXwXwXwXwX0X0XqX0XwX0XrXrXuXrXtXtXtXtXrXrXrXwXDXwXwXwXwX0.wX0.0.0.0.0.0.4.4.4.m.0.4.4.1.4.4.4.4.4.4.4.qXn.8X8XqXyX8XwXwXwXyXyXyXyXeXeXyXyXtXeXrXyXeXeXyX9X0X0X0X0X0X0XpXpX9XpXeXpXpXpXpXpXpXpXq.pXq.q.q.q.q.8.q.8.8.w.q.8.8.&.8.&.$.&.&.&.&.&.&.&.&.&.E.E.&.E.&.*.E.%.#.*.R.E.E.E.E.E.#.E.#.%.%.#.#.#.....) { ) ............) ........) [ ) ( ( ( ( ( ) m ( ) V V m x x k l l k k u w k w k w f w 1 < 1 1 1 w < 1 1 1 1 1 1 1 1 1 1 1 1 # 1 ; 1 ; 1 1 # ; # ; ; ; ; ; # ; # o ; ; # ; # # o o ; o o # o # o o o o o o + o . o . o . o o o o O   PX",
"PX    .   . .   .   .   .   .   . . . . . . . . . . . . . . . . + . + . . + . + + o + + o + + + + + # + + + o # + @ # + @ # * % # # # * # # & & & * 1 & 1 0 > & & w > w > & & w > e w w w w y w w w p w p w p p p u a s a a a J a n J Y U J ! ^ ~ ~ ~ y.@.y.y.j.y.y.F.y.j.u.D.D.u.D.D.F.D.D.y.j.y.D.y.y.y.1.O.~ 1.D.O.1.1.1.1.0.4.m.4.4.4.4.0.0.qX4.0.qX0.wXwXwXwXwXwXwXwXwXqX8XqX8XqX0XwXrXrXrXtXtXrXtXtXiXG.rXyXrXwXwX0.wXwXwXG.qXqX0.qXm.4.D.4.4.0.4.4.4.4.D.2.4.4.4.4.qXqX4.qXqXmX8XwX8X8XwXyX8XyXyXyXyXeXeXrXeXyXeX0X0X0X0X0X0X0X0XpX0XpXpXpXpXpXpXpX9.pXpXq.pXq.pXq.q.q.q.q.q.w.q.8.8.w.8.w.o.8.&.$.&.&.$.&.E.E.#.E.&.E.*.&.E.#.R.%.%.R.R.#.#.E.#.E.#.#.R.#.$.#.#...#...#.........) ..........) ) ..` ( ( ( ) m m m V V m x V h k k l k k k l k w 1 k < f w < 1 k w 1 w < 1 1 w 1 1 1 & 1 ; 1 & # # 1 1 # ; # ; ; ; # ; ; ; # ; # # ; o = # # ; o # o = = # o o # o o # o o o + o o o o o o o o o o . o . o X PX",
"PX      . . . .   .   .   . . .   . . . . . . . . . . + + . + . + . . + . + + . . . + + + o + + + + # o + + + + # + + # # # @ # @ # # # # & # # & * * & * & & 1 > & 1 & w & w & e w & e e w > w w y y y p w y p p s s n a p a a n n J U U Y ^ J ^ y.~ O.y.y.y.D.y.F.D.F.F.y.D.u.D.u.D.D.y.D.D.D.D.~ y.@.y.1.~ 1.~ 1.1.~ 1.1.1.m.m.4.4.4.D.4.4.4.4.4.mXqXqXqXqXwXqXwXwXwX0XwX0X8X8XqX0XqXwXyXpXrXrXrXrXrXrXDXrXwXwXwXwXwXG.wXwXG.qX0.mX0.0.0.0.4.D.4.4.0.4.m.4.4.4.4.4.4.4.qXqXqXqXqXqXqXqX8XqXwX8XyXyXyXyXeXeXyXeXyXyX0XeX0X0X8X9.9X9.9X0X0X0XpXpX0XpX9.pXpXpX9.pXpXq.q.q.q.q.w.q.q.q.8.q.w.8.8.&.8.&.w.$.&.%.#.&.E.&.&.E.&.&.E.E.*.&.E.#.E.E.*.K.*.E.#.E.#.#.#.R.#.#.#.' #.) ..{ ..) { ) { { ..) ....) ) ( ( ( B ( m ) m V m V m k m k k k k f u < k < w f < w f f w f 1 w 1 1 1 w > 1 & 1 & ; 1 1 & 1 ; > 1 * ; 1 # # ; ; ; ; # ; o ; # = = # = # ; o # o o # o o o # o o o o o . + o o o o o o o . o . . o . O o IX",
"IX  .   . .   . .   .     . . . . . . .   . . . . . . . . . . . . + + . + + . + + + + . + + + . + o + + + + o # # + + # @ # # # + # * # # * # & ; * 1 * 1 & * * & & 0 & & & > e & w e w w w e e w y w p w p p p u p p p p a a n J a a J J E ! ~ ~ ~ ^ y.y.~ y.y.y.D.y.j.y.j.F.D.j.D.y.D.D.D.y.y.y.D.y.1.y.~ y.1.y.~ 1.1.D.1.1.1.1.1.1.D.4.4.4.m.4.4.qX0.0.0.mXqXqXqXqXwXqXqXqX8X0XqX3.0X0X0XyXrXrXrXrXrXrXyXrXwXwXwXwXwXqXqX0.mXqX4.0.0.m.0.0.0.4.0.1.m.1.4.4.1.1.4.4.4.4.4.2.4.2.qXqX8XqXqX8XwX8X8X8XyXyXyX8XyXeXyXeX0XyX0X0X0X0X9.0X0X9.0XpX0XpXpXpXpXpX9.pXq.q.q.pXq.q.q.q.q.8.w.q.w.8.8.w.8.8.8.o.&.&.&.&.&.&.&.#.E.&.E.E.&.%.E.E.&.E.#.#.E.%.%.#.E.#.R.R.#.#.#...#.{ { #.{ ..) ........) ) ..( ..( ( ) ) ( ( ) ( V ) m ) m m k V h h k k k k k w 1 f w f w 1 w 1 1 1 w 1 > 1 1 1 & 1 1 1 1 ; 1 ; 1 # ; ; 1 # ; ; ; # ; # o ; # ; # o # # ; ; o o # o ; # o # # o o # o o + o o o o . . o . o . o o o o o o X o IX",
"PX        . . .   .   . . . . . . .   . . . . . . . . . + . + . . . . . . . + . + . . + + . + . + + + + + + + + + + # + + + # # + # + # * # @ & & @ # & * & & & & & w * & w & w > w & w > e w w y y w w 0 w p s p p p p s p a a s J J E J J T ^ ~ ~ ~ y.~ y.y.y.j.y.y.y.F.y.D.D.F.y.F.y.D.y.D.y.y.D.~ y.1.~ 1.O.1.~ 1.y.1.1.1.1.4.1.4.4.m.4.4.4.4.qX4.qXqX0.4.qXqXqXqXqXqXqXqXqX0X3.qX0XwX0XyXyXrXrXrXrXpXwXyXyXrXwXwXwXqXwX0.wXqXG.0.0.0.0.m.4.4.4.4.4.D.4.4.1.4.4.4.4.4.4.4.qXqX8X4.qXqX8X8XqXyX8XyXyX8XyX8XeX0XeX0XeX0X0X0X0X9.9.0X0X0X0X0XpX0X0X9.pXq.pXpXpXq.pXq.q.pXq.q.w.q.w.q.8.w.8.8.8.o.&.&.8.&.&.%.&.#.E.&.E.%.&.E.*.#.E.&.R.#.E.E.#.&.&.&.#.&.#.#.#.#.#.#.#.{ { ) ....{ ..) ..) ) ..) ..[ ) ( ) ( ( ) V ) m m V h V V V h k k k h g w w k k f w f < < w w < w ; & 1 > : 1 1 * 1 & ; 1 ; ; & 1 # # # ; ; # ; ; # # ; o ; # = ; # o o o ; o = # # o ; o = # o o o o o . o o o o o o o . o o . o . . o o   IX",
"PX    . . .   . .   .     .   .   . . . . . . . . . . . . . . . . + . + . + o + . + + . + o + + . + + o o + + # + # + # + # + # # + @ # # # * # ; * * @ # & * 1 * & ; * & & & & & w e > e w w e e w y y p y y w p w s p a p s a n a n J U J ! Y ^ ~ ~ ~ y.@.y.y.y.y.F.F.y.D.u.j.y.F.y.D.y.D.y.D.D.~ y.@.y.~ ~ y.~ 1.@.1.1.1.1.1.1.1.1.1.4.1.4.4.0.m.qX4.4.qXqXqXqXqXqXwXqXqX0X3.qX3.qXqX0XwX0XyXyXyXyXwXwXyXwXwXwXwXG.wX0.0.0.0.4.0.0.0.0.0.0.4.4.D.1.4.4.4.1.4.4.4.2.4.4.4.4.qX2.4.4.8XqX8XqXqX8XwXyX8XeXyXeXyXyXyXyX0X0X0X0X8X0X0X9.0X0XpX9.pXpXpXpX9.pXq.9.q.pXq.q.q.`.q.q.q.q.8.w.q.8.w.8.8.8.8.&.&.&.$.&.&.&.&.&.&.&.%.%.E.E.#.E.*.E.#.*.R.%.%.E.#.R.#.E.#.#.#.' #.#.' ..{ ) { ........{ ..) [ ) ( ( ( ) m m ) k ) m m ) V m k k k k k k k g f < < < < 1 < < 1 1 1 1 1 1 1 1 1 1 ; 1 1 ; 1 * 1 ; 1 # 1 1 ; # ; # ; = # ; o ; # = # # = = # # o # o o o o o # o o o # + o o o o . o . o . o o   o . o o o   o   PX",
"PX    . .     . .   .   .   . . . . . .   . . . . . . . . . . . . + . + . . . + . . + . . + + + + . + o # + + + o + # + @ # + # + # @ + # @ % # # * # # * # & # & * 1 & & & 1 & w & w & w & e & > w w e 0 p y y w p t w p s p a a s a E J U ! Y ~ ~ y.~ y.^ y.y.y.D.j.D.y.y.y.j.D.F.y.y.D.y.y.y.~ D.y.1.~ y.~ ~ ~ 1.~ 1.~ 1.1.1.1.1.4.1.4.D.4.1.4.m.4.4.4.mXqX0.qXqXqXqXqX4.3.qX8X9.8XqXqXwX0XwXpXrXwXwXwXwXwXwXwXwXqXwXqX0.0.wX4.0.0.0.0.0.D.1.D.4.D.4.4.m.0.1.4.4.1.4.4.4.4.3.4.3.8X4.8X8XqXqX8XwX8XyX8XyX0X8XyX0X0X0X8X0X8X9.3.0X9.9X9.9.pX9.0XpX9.pXpXq.q.pXq.q.q.q.w.q.w.q.w.q.8.w.8.8.w.8.8.&.&.o.&.&.&.&.&.&.%.%.%.&.&.&.*.E.E.&.#.E.*.E.&.#.%.#.#.#.#.#.' #.#.' ' { { ) { ) ..) [ [ ) ..( [ ) ( ) ( ( m ) m ( m m k m m x k l k l k < k k f 1 k w 1 w > 1 w 1 1 1 1 & 1 1 & 1 1 # # ; 1 # ; ; ; # ; ; # ; ; ; # # ; o ; o # # ; = # o # o # o # o ; o o o + o o o o o o . o o . o o o . . o . . o . . o   o PX",
"IX      . . . .   .         . .   . .   . . . . . . . . . . . . . + . . + . . . + . . + . + + o + + . + o o + o + + + # . # # + # # + # # # # % % # * # # * # & * 1 * & 1 * * & * & & > & & > w e e > e y w y y p w p p p p a s a a a J J J J ^ ^ R ^ ~ ~ y.y.y.y.y.y.y.y.D.u.D.y.y.y.D.y.y.j.~ y.y.~ y.y.1.~ y.~ ~ y.1.1.1.~ 1.4.D.1.4.1.4.4.4.4.4.4.4.4.4.0.0.4.qX4.qXqX8X8X9.3.qXqX3.9.qXwXwXwXwXwXpXwXyXG.wX0.qXqXG.G.qX0.m.qXm.0.m.0.0.4.4.4.0.4.1.4.1.1.4.1.4.4.4.4.2.4.4.4.4.4.8X4.8X4.8X8X8X8X0X8X8XyXyX8X0X8X0X0X0X0X0X9.9.9.9.pX9X9.pX9.9.pXpX9.pX9.q.q.q.q.w.q.q.q.8.8.8.8.q.w.8.8.8.o.&.&.&.&.&.&.&.&.%.&.&.&.%.E.&.E.&.#.#.E.#.R.#.E.E.#.&.#.#.#.#.#.#.{ #.{ #.) { ) { ) { ) ..( ( ( ) ( ( ( ( ( m m V m V m ) k k x v k k f g k f < w 1 < < < 1 1 1 1 1 1 1 & 1 ; ; 1 ; & 1 & 1 # ; 1 1 * # ; ; # ; # # ; ; ; ; # ; ; o o # ; o o ; o ; o # o # # o o o o o o . o . o o o o . . o o o X o   o o o o   PX",
"PX  .   .   . . .     . .   . .   . .   . . . .   . . . . . . . . . + . . + . + + . . + + . . + o + o + + + + + + + + + + + # # + + # + + # # # # + # # # * & # & * & & * & 1 & * w & w & w & & > & e w w y e w w y p p s p t p a n a J J E E ^ ~ ~ ~ ~ y.^ ~ y.y.y.y.y.y.y.y.y.y.y.y.y.y.y.y.y.y.@.y.~ ~ ~ 1.~ ~ 1.1.~ y.1.1.1.1.4.m.1.1.4.1.4.4.4.4.4.4.4.0.0.4.qX4.qX4.qX3.qX3.qX3.0XqX0X0XqXwXwXwXwXpXwXwX0.wX0.0.qXqXqX0.0.4.4.0.0.m.0.1.4.D.1.0.1.0.1.4.1.1.4.4.4.4.4.4.4.4.3.4.8X8X4.8X8X8X8XqX8X0XyXwX0X8XeX8X0X9.8X0X3.0X9.9.0X9.9.0X9.pX9.9.9.9.q.9.q.0.q.q.q.q.8.w.q.w.8.w.w.8.w.8.8.w.&.&.&.$.&.&.%.&.&.&.%.E.#.E.&.&.%.*.R.*.#.E.#.#.#.R.#.R.#.Y.#.#.#.#.{ { ) { { { ) { ) [ ) { ) ( ( ) B B ) V ) m ) m V V h h V k h k < w f f f < w f 1 < < 1 1 1 1 1 > 1 1 1 # 1 1 & 1 1 # & ; # * # 1 ; ; # ; ; # ; # ; o ; # # o # = o # o ; o o o ; o o o o o # o o o . o o o o . . o . o o o . X . o o     . X PX",
"PX      . .   .   .   .   .   . .   . . . .   . . . . . . . . . . . . . . . . . . + . . . + . + + . + . + o + + + # + # + # + + # @ # # @ % # # @ % # & # # & # @ & # * & * * & & # & * & & w w & w & w w e w e y w w y p p p p p s n J J J Y Y Y ^ R ~ ~ y.~ y.~ y.j.y.y.j.y.D.j.y.D.y.y.y.@.y.~ y.~ y.~ ~ ~ ~ ~ ~ ~ ~ 1.1.1.m.1.1.1.1.1.m.4.1.4.4.4.4.4.8X4.4.qX4.8XqXqX3.qX3.9.3.qX3.qXqXqXqXwXwXwXqXwXwXwXqX0.wXqXqXqXm.0.0.m.4.G.0.0.0.D.4.4.4.D.4.D.0.1.1.4.1.2.1.1.4.4.4.4.4.4.2.2.8X4.4.8XqX8X8X8X8X8X0X0X8X9.9X8X9.0X:.:.9.9.9.0X9.9.pX9.pXpXq.9.pXq.q.q.w.q.q.q.8.q.8.q.8.8.8.w.8.w.o.o.8.&.o.&.&.&.o.&.&.%.&.&.%.*.#.E.#.E.&.#.R.#.#.E.#.#.#.#.#.#.#.#.#.) #.) #.) ) ) { ) { ) [ ( ) ( ( ( ( ( V V m V m m m V m V h k k k f l f w 1 < f w < 1 1 w 1 1 & 1 1 1 & 1 1 # 1 ; ; & 1 # ; 1 ; # # 1 * ; # # ; # ; # = # o # ; = # o = # # o # o # o o o + . o . o o o . . o . o o . o o . . o o o o . o . X   PX",
"PX    . . .   . .     .   .   .   .   . .   . . . . . . . . . . . . . . . . . . . . + . . + + . . . + o o + . + o + + + # + # # o + + # # # @ + % # # # # # # * & * * 1 & * * & & # * & > & w & > & w e w w e w y y w p p s p s s a a J a U U R R ! ^ ~ ~ y.^ y.@.y.y.y.j.y.y.y.y.y.y.y.y.y.~ y.y.y.1.~ ~ y.1.~ ~ ~ y.1.1.R 1.1.1.1.1.1.4.1.4.4.4.4.4.4.4.0.4.4.4.4.8X3.3.qX3.8X3.8X8X8X0.0XqXwXq.wXwX0.wXpX0.wXwXwXG.mX8X4.qX0.qX0.m.0.0.0.4.D.1.0.0.1.1.1.4.1.4.4.1.4.4.4.3.4.3.4.8X4.4.8X8X8X4.8XqX8X8X0X8X8X8X0X0X8X9.8X9.9.0X3.9.9.0X9.0X9.9.9.9.q.q.q.9.9.q.q.q.q.7.w.q.8.8.w.8.8.8.w.8.&.8.&.&.&.#.&.&.&.&.&.&.&.%.&.*.R.#.E.#.#.#.R.#.R.#.#.E.#.#.#.#.{ ' #.#.{ ) { ) { [ ) ) [ [ ( ( ) ( ( ( ) ( ( V m m k m m V j k k l k k g < < f f < < 1 1 w 1 < 1 & 1 1 1 & ; ; 1 ; > 1 # ; 1 # # ; ; # ; # ; # ; ; # ; o ; o # = o o # o # o o o o + o o o o o o o o . o o . o o o o o . o o o . o   o . o o .   O X PX",
"PX      .   .     . .   .   .   .   .     . . . .   . .   . . . . . + . . . + . . + . . . . . . . + . + + . + o o + o + + + + + + + # + + @ # # # + @ * * # * # # @ # * * * 1 # * & * 1 * w & & w & w & e & w e w y p w w t p t p a a J a J Y Y U ^ R ~ y.^ ~ y.y.y.y.y.y.y.y.y.y.y.y.y.~ y.y.y.y.~ ~ y.~ y.R ~ 1.~ ~ 1.1.~ 1.1.1.m.1.m.1.4.1.4.4.1.4.4.4.4.4.4.4.8X4.0.4.3.4.4.4.3.3.9.8X9.9.0XwXqXqXpX0.wXwX0.0.0.0.qXG.0.m.0.0.0.0.0.G.1.0.0.0.D.1.1.4.1.0.1.1.1.4.1.4.1.4.,.4.3.3.4.3.4.4.8X8X3.3.qX3.0X0X8X0X8X8X9.0X3.3.0X9.9.9.9.6.pX9.9.9.pXpX9.9.9.q.q.q.q.q.w.8.q.w.q.8.8.w.w.8.&.8.8.&.o.o.&.&.&.#.&.&.&.&.&.&.&.E.#.&.&.*.E.*.E.#.*.#.#.#.#.#.' #.#.{ #.{ ' #.) { ) ) [ ( ( ( ( ( ( ( ) ( V V V ( V h ) V V m x k m h k k f k f < < w f 1 < 1 1 1 ; 1 ; ; 1 1 1 ; 1 ; ; * 1 ; # # ; # ; ; # ; ; # # # = # ; ; # ; o o # o ; o o # o o o o o o o . o . o o o . o . o . . X o X . X . . o . o .   o o X . PX",
"PX  .   . .   . .         . .     .   . . . .   . . . . . . . . . . . . . . . . . . . . + . + + + . . + o + + + o + + + o + + + + o + # + # + # # @ # # + @ # # # # * # # & # * * 1 * & & & w 1 & w & & e 0 w e e y 0 p p w s p s t a n J J U ^ Y ~ R ~ y.~ ~ y.^ y.y.y.y.y.y.y.y.y.y.y.y.~ y.y.y.~ ~ y.~ ~ R ~ ~ 1.~ 1.1.1.1.R 1.1.1.1.D.1.1.m.1.4.4.4.4.4.3.4.4.4.4.3.8X3.3.3.3.3.8X0.3.9.qXqXqXwX0.wXqXqXwX0.qX0.qX0.0.4.0.D.D.D.qX4.4.D.0.D.D.4.1.0.1.1.1.1.1.4.4.1.,.4.4.4.4.3.4.4.8X8X4.3.3.8X8XqX8X8X8X3.3.0X8X9.3.9.9.0X0X3.3.0X9.9.9.9.9.q.9.q.q.q.q.7.q.q.7.q.q.8.w.8.7.w.o.w.8.w.o.w.8.&.&.X.&.o.&.&.&.&.&.&.%.&.&.#.*.E.#.#.#.#.#.R.#.#.#.#.#.#.#.#.#.' { { ) { ) { [ ) ( ( ( ( ( ( V ( ) m m ) / m V V h h k V h k f l g f k 1 < 1 w 1 1 < > 1 1 1 1 ; 1 1 # 1 # & # 1 1 # ; # ; * ; # ; # # # # ; ; = # o o ; o # o # # o o # o # + o o + o + o o o . o o o o . . o . o . o . o .   o o X o   o .     PX",
"PX  .     . . .   .   . .     . .   .   .     . .     . . . . . . . . . . . . . . + . + . . . . . . + . + . o . + o + o + + o o # + + + + # # + # + # # + # % + & @ # * # * & * # * & * & # * & & & & w & w > & w w w w y y p t a p s a s J Y Y Y ^ ^ ^ ~ ^ y.^ y.y.~ y.~ y.y.^ y.y.y.@.y.y.y.O.~ y.~ ~ ~ ~ ~ ~ ~ ~ ~ ~ ~ 1.1.1.1.1.1.1.1.4.4.1.4.1.1.4.1.4.3.4.4.4.3.4.9.4.3.4.3.9.4.3.4.qXqXqX0.0.pX0.0.pX0.wX0.qX0.0.0.0.0.0.0.0.4.D.4.1.4.1.1.1.1.0.D.0.1.1.4.1.1.4.1.4.3.1.2.3.4.3.2.3.4.8X8X3.8X3.8X3.0X0X8X8X0X3.9X9.3.9.3.9.6.9.9.9.9.9.9.9.9.9.9.q.9.q.7.q.q.w.8.q.7.w.8.w.8.8.w.&.8.&.&.o.&.&.&.&.#.&.$.&.&.&.&.&.&.E.#.#.#.E.E.#.#.*.#.E.#.#.#.#.#.#.{ #.{ { { ) { ) [ ( ( ) [ ( ( ( ) B ( V ) k V m k m V k k h k f k f l f < f < < f 1 > 1 1 1 * 1 & ; 1 * 1 # 1 # ; # # # 1 ; ; ; # ; # ; # ; # ; o # = # # o # o # o # o o # o o o o o o o o . o o o o . o . o o o o o . o o   o o . . . o .   . o   PX",
"PX    .     .     .     .   .   .   .   .   .   . . . . .   . . . . . . . . . . . . . . . + + . . + + . + o . + + o + . + + + + + + + + + + # + + # # # @ # + # * # @ % # * & # * & * & * & & * & & & w & w & e w e w 0 w y 0 p t p s a J J J Y J ^ ! R ^ R ~ ~ y.^ y.y.y.~ y.y.y.y.y.^ y.y.~ y.y.~ y.~ ~ ~ R ~ ! R 1.1.1.R 1.1.1.1.1.y.1.1.4.1.m.1.2.4.1.1.4.3.3.4.3.3.4.3.3.3.3.3.3.3.3.9.3.qX0X0.qXqX0.0.0.9.0.0.0.0.0.0.0.0.4.D.0.D.D.0.D.0.0.D.1.0.1.D.1.1.1.1.4.1.3.1.4.4.1.3.4.5.3.4.4.8X3.4.8X3.qX8X0X3.0X9.8X5.0X9.9.5.9.3.9.3.9.9.9.9.9.9.9.9.q.7.9.q.q.7.q.w.8.w.w.w.8.w.w.8.&.8.8.o.8.@.$.o.&.&.&.&.&.&.&.&.#.#.#.E.R.#.#.#.#.&.#.#.#.#.#.#.#.{ #.) #.{ { #.{ ) ) [ ) [ ( V [ ( V ( V ) m V m V k k m k h k k h k f g f f f f 1 < 1 < 1 1 1 > 1 & ; 1 ; # 1 * # ; # * 1 # ; # ; # # # ; # # o ; # # ; o # # # o # o o # + o o o o # o o o o o o + o o . o . o o . o   o o   o .   o   o . o . .   o   o PX",
"IX      .   . . .     . .     .   .   .   .   . . . .   . . . . . . . . . . . . . . . . . . . . . . . o . + . . + . o + o o o + + o # + + # + + # + + o + + # + # @ # @ * % * # # @ 1 # 1 * & 1 0 1 & w w & & w > e w e w y p e p s a a a J J U Y R ^ R ~ ^ ~ ^ ~ y.^ y.y.y.y.~ ^ ~ y.y.~ ^ y.~ ^ y.~ ~ ~ ~ ~ ~ ~ ~ ~ ~ ~ 1.1.R 1.1.1.1.1.1.m.1.4.1.4.1.4.3.1.4.4.4.4.3.3.4.3.3.4.3.9.4.4.4.qX9.qX9.9.qX0.0X0.qX0.0.0.0.0.0.0.0.0.0.0.1.4.1.4.1.1.1.1.1.1.1.1.0.4.1.1.4.4.1.,.3.4.4.2.4.4.3.2.4.8X3.3.4.8X3.8X3.3.8X3.9.9.3.3.9.9.6.9.3.9.6.9.9.9.9.9.q.9.q.q.7.q.q.8.7.q.7.8.8.8.8.o.w.7.&.w.&.&.o.&.&.&.#.#.&.*.&.#.&.&.R.*.#.*.#.R.*.#.#.E.#.#.#.#.#.#.#.{ #.{ #.) ) [ [ [ ( [ ) ( ( ) ( ( ( ( m V ) V m ) m k m V m l k g k l f w f < < 1 < w > : : 1 : 1 1 & & 1 ; 1 1 ; ; ; ; # 1 1 * # ; ; # # ; ; # ; o # ; o o o # o # o o o o # o o o o o + o o + o . o o o o   . o o o . . o . o X . o . o   . X o . o   PX",
"PX    .       . .     .     .   .   .   .   .     . . . . . . . . . . . . . . . . . . . . . . . . + . + + . + o . + o + + + o + + + o + o + + # # # # @ + + + # # # * # # # * * * # & * * & & * * & > * w & & w > w & e y y p p p s p a a J J J Y K ^ Q ~ R y.^ y.^ ^ y.^ y.y.y.y.y.~ y.y.^ ^ y.~ ~ ~ R R ~ ~ ~ ~ 1.~ 1.1.1.1.1.1.~ ,.1.1.1.1.1.1.1.1.3.4.1.4.3.1.3.3.4.1.3.3.3.3.3.9.3.3.0X0.9.0.0.qX0.0.qX0.0.0.0.0.1.1.0.0.D.0.D.0.0.1.D.D.4.w.4.1.1.1.1.1.1.1.1.1.1.1.1.4.1.1.3.4.4.3.4.4.5.3.3.8X8X8X3.3.0X9.3.8X9.5.3.3.9.3.9.3.9.3.9.9.9.9.9.9.9.q.q.q.q.7.q.8.q.7.w.8.7.7.8.7.8.w.o.o.&.&.&.&.o.X.&.+.#.#.%.#.&.&.&.*.#.#.#.#.#.#.#.*.#.#.#.#.{ { *.#.{ #.) { { { ) ) [ ( ( V ( ( V V ) ( ( ) h ) m V V h V k k l k h f f k < f 1 < < 1 > 1 > 1 : ; ; 1 ; ; ; ; ; # * 1 # 1 # ; ; # # ; ; # ; # # o # # o o o # ; o # o # # o # o o o o o + o o o o . o . o o . o o o . . o . o   o . o o o   o o .   X   o PX",
"PX      .   .       .     .   .   .   .   .   . .   . . . .   . . . . . . . . . . . . + . . o + o . . . . o . + o + . . . + + o + o + + # + + + + + @ o # @ # # + @ # + @ # # @ * * # @ # * ; * & # & w & & w & e & w w w 0 0 s p p s a s J E J ^ ! ~ R ^ ^ ~ R ~ R y.^ y.~ ^ y.y.^ y.y.~ y.y.~ y.R y.^ ~ ~ ~ R R ~ ~ ~ ~ >.~ 1.1.1.1.1.1.1.1.1.1.4.4.1.4.3.1.1.3.1.4.3.3.3.3.1.3.3.3.3.3.4.3.4.9.0.9.0.0.9.0.0.0.0.0.0.D.0.0.1.4.4.D.1.0.0.w.1.1.D.1.1.1.1.1.1.4.1.1.4.2.3.1.4.4.,.3.3.2.3.3.4.4.3.3.3.3.8X3.3.8X9.5.3.9.9.9.5.9.3.6.9.9.7.9.9.9.7.q.q.9.7.7.q.q.7.7.q.w.8.w.8.8.w.&.8.o.8.&.8.o.&.o.&.&.#.#.&.#.#.#.#.R.*.E.#.R.#.&.#.#.#.#.#.#.#.#.#.#.] ) #.#.{ { ) { [ [ ( ( ( [ ( ( ( ( V V V V ) k m k h V h h x k h k f f < < 1 f 1 < 1 1 1 ; 1 1 > 1 # * 1 * 1 ; ; ; ; ; # # # # ; # # # # # ; # # ; # o # # o o # o o o o o o o o + o o . o o o o o o o . o . o . X . X . o   o . o     . o .   o o .     PX",
"IX          .     .       .   . .   .   .   .   .   . . . . . . . . . . . . . . . . . . . . . . . . . + o o . o + o . + + . o + + + . + + + + + # + + + + + # + # @ + @ # # * # # * # * & # @ * * 1 1 * & & w & & & w e e w p 0 t p t p t a J J U R Y ! R ^ R ~ R ~ ^ y.y.~ y.^ y.y.^ y.R ~ y.r.~ R ~ R ~ ~ ~ R ! R ~ ~ ~ ~ >.1.R 1.,.~ 1.1.1.1.1.1.1.1.1.,.4.1.3.3.1.3.1.3.3.4.1.<.4.3.4.3.0.9.4.9.0.9.0.0.0.0.0.0.7.4.0.0.0.D.1.0.4.D.0.4.1.1.1.w.1.D.0.1.1.1.1.1.4.1.4.1.4.,.3.3.,.3.4.3.4.3.3.3.3.3.3.8X3.3.9.8X3.8X3.6.3.7.7.3.<.9.9.6.9.9.9.9.7.9.q.0.7.q.w.7.8.w.7.w.8.w.7.w.w.&.&.&.&.7.o.&.o.+.#.&.&.#.&.&.#.&.&.#.&.&.#.*.#.#.#.#.#.#.#.{ #.#.{ #.#.{ ) { ) { [ [ ) [ ( ( ( ( ( ( ( V ) V m V V m V k m h k k l g f g < f f 1 < , < 1 1 > > : ; ; 1 ; ; 1 * ; ; # ; # # ; # ; # # # ; ; # o # # o # # # # o o o + o # o + o + o + o o o . o . o . . o X . o   . o   o . o   o . . o   o   o o   . o . o o PX",
"PX        . .   .     .     .     .   .   .   . . .     .   . . . .   . . . . . . . . . . . . . . . . . . + + . . o + . . + o + o + + + + . # o + + # # # + + # + @ + # @ + @ # * # # * * ; & # * * * & * & * & w & & w e w 0 p w s p t a s J U J J ^ R ^ ~ R ^ y.^ y.~ ^ y.^ y.R ~ r.~ y.~ ^ ~ ~ ^ ~ ~ R ~ ~ ~ ~ ~ ! >.>.1.~ R 1.1.1.1.1.1.,.1.1.1.4.3.<.4.1.3.1.4.3.1.3.4.<.3.3.3.<.3.3.3.9.3.9.0.3.0.9.0.0.9.0.0.4.0.1.1.4.0.D.0.1.4.D.1.D.4.D.1.1.1.1.1.1.1.1.2.1.1.,.1.1.3.1.1.1.3.3.,.5.4.3.3.3.8X3.3.8X3.5.9.3.6.3.3.3.9.3.9.6.3.7.3.9.7.7.9.9.7.7.7.q.7.7.q.q.7.8.7.8.7.8.o.8.8.w.o.o.&.&.o.&.&.+.#.#.} #.#.*.#.*.#.#.#.#.K.#.#.#.#.#.#.#.#.{ #.#.#.) { #.{ ) { [ ) [ ) ( ( V V V V ) V V m V V m k m m k k k h k f f f f f 1 , 1 1 , ; 1 : ; ; 1 > # ; ; ; ; # ; # # ; ; # ; # ; # o # # o # o # # = o o o # o o + o o o o o o . o o o o o o o o o o . . o o o o . o .   . o o o   . o . o .   o o   X     PX",
"PX    . .   .   .     . .     . .   .   .   .     .   . .   .     . . . . . . . . . . . o . . . . . . . . . o . + . + o o + . . o + o + + + o + o + + + + + + # # # @ # + # @ + # @ # * * * * * # * * & * & 1 0 & 1 & & 0 w 0 y w p s p i t U J J ~ Y ^ K ^ ^ R R ~ y.~ R y.^ R ^ y.^ ~ ^ y.~ ~ ~ R R ~ ^ ! ~ ! ~ ~ ! ~ ~ 1.! 1.1.1.~ 1.1.1.1.1.2.1.1.1.1.1.1.3.,.3.<.3.<.3.<.3.3.<.3.0.3.9.3.9.3.4.3.4.4.9.4.0.0.1.4.4.0.w.0.1.1.0.1.D.0.1.1.1.1.1.1.1.1.1.1.1.1.<.1.1.1.3.1.1.1.4.,.3.5.4.3.3.5.8X3.3.3.3.3.3.8X3.9.3.3.9.3.5.3.6.7.9.9.9.<.6.9.7.9.7.7.q.7.q.q.8.7.w.w.w.8.w.8.o.w.o.o.8.&.8.o.&.X.&.#.#.&.#.#.#.#.#.#.&.#.#.#.#.#.#.#.#.#.#.#.#.#.#.{ { { { ..{ { ..[ [ ( [ V ( V ) ) V V V ) k m V k k V j h k k h f g f 1 < < < 1 1 , 1 1 1 & > 1 & ; * 1 # # # ; # ; ; ; # # # ; # # # # # # o # o o o # o o o o o o + o o o o . o o . o o . o . . o o o . o . o   o X . o . X . . o o   .     . . X X .   X PX",
"IX          .           .     .   .   .   .     . O . .   . . . .   . . . . . . . . . . . . . . . . . . o o + . o . . . + . + . + + . + o + + + + + + o + + + o + + + + + @ # + @ # @ # # @ ; # * # * 1 * # & & & * w e w e w y q 0 w t s t J J J J ^ T ^ R ~ ^ ^ R ^ R ^ ^ y.~ R ~ ^ y.~ r.^ R y.^ ~ ~ R R ~ R T ~ R ~ T ~ ~ 1.R R 1.1.1.1.,.1.1.3.2.1.3.1.5.1.<.4.1.3.1.3.3.<.3.3.3.<.3.3.3.3.0.3.9.0.4.4.4.9.0.0.1.4.4.D.1.0.D.1.0.0.D.1.4.D.4.1.1.1.1.D.1.1.1.1.1.1.1.1.1.3.,.1.5.1.4.1.5.2.3.3.3.5.3.0X5.3.5.9.5.3.9.5.9.3.3.3.<.3.6.<.7.9.7.9.7.9.7.7.q.7.7.7.8.7.o.8.7.8.o.w.o.8.&.&.o.o.&.o.&.+.#.#.#.#.#.#.&.#.&.#.#.*.#.#.#.{ #.#.*.{ { #.{ { ' { #.) { { ) { ) [ ( ( V ( ( V m V ) V V V V V V j k k k k f f l f f f f 1 1 1 , 1 ; : 1 ; ; ; ; ; ; # 1 1 ; # ; # # # # ; # o ; ; # o o # # # o # + o # + o o o o o o o o o o . . o o X . o o . o   o o . o   o . o o . X . . X   o . o   o o   . . . o   IX",
"PX    .   .     .       .     .   .   .   .   .     .   .   . . . . . . . . . . .   . . . . . . . . . . . . . . o . . . . . . + + + . + + . + + . o + + + + + o + + # + + + # + # # # @ # @ + # * * * # @ 1 0 & & > 1 0 & w e 0 w q p s p t a J J J K ^ ^ J ^ ^ ~ ^ ! R R ^ ~ R y.^ ~ R ~ R R ~ ~ R ^ ~ ! R ^ R ! R ~ ! ~ >.1.>.1.~ 1.1.1.>.1.1.1.1.1.1.<.1.4.1.3.3.1.3.5.1.3.<.3.<.3.<.3.3.3.3.0.3.0.9.4.4.0.9.4.1.0.4.1.0.1.4.1.1.0.1.w.1.1.D.1.1.1.y.1.1.1.1.1.1.1.,.>.1.1.3.1.3.3.1.3.3.3.,.3.5.4.3.5.3.3.3.3.3.<.3.5.9.<.6.6.3.7.3.3.7.9.9.7.7.7.9.7.7.7.w.w.7.8.7.7.&.o.w.o.o.8.&.o.&.8.o.&.o.&.X.&.+.#.#.#.#.#.#.#.#.#.#.#.#.} #.#.{ #.{ #.#.{ #.{ *.) { { { ) { ) [ ) V ( ( V ( V m V V V h V x k k k x k f g f f l f < 1 < 1 1 1 ; , = 1 ; 1 # ; ; ; ; # ; # : # # # ; o # = # o # # o # o # o o # o # o o o + o o . + o . o o o . . o o . o o o . . . o   . X . o . o . o     o .   o . X .   o .   .   X PX",
"PX        .           .   . .   .   .   .   .   .     .   . .     . . .   . . . . . . . . . . . . . . . . . . . . . + . o + . o . + + o + + o + + + + . o + + # + + + # # + o + + # @ # # + @ # % # # * ; * * & # * 0 & & w e & y 0 w t p t s J J U K ! R ! R R ^ R R ^ ~ R ~ ^ ~ R ^ ~ y.^ R ^ ~ K R ^ Q R ! R R ! ! R R ! ~ ~ R 1.R 1.R 1.1.1.1.>.1.1.<.1.,.<.1.<.1.<.1.<.<.3.<.3.<.3.1.3.<.4.3.4.<.0.0.1.1.0.1.0.w.1.0.1.D.0.0.D.1.D.D.1.1.1.D.1.1.1.1.1.~ 1.1.1.1.~ 1.1.1.,.1.,.,.1.,.<.3.3.1.5.5.4.3.3.3.5.5.3.6.3.3.6.3.<.<.7.3.6.6.3.<.7.3.7.7.9.7.0.q.7.7.8.7.w.8.7.8.o.8.o.8.o.o.&.o.&.+.#.o.#.X.#.+.#.#.{ #.*.#.#.#.*.#.#.#.{ #.#.#.#.#.{ { #.{ ] ..{ { ) [ ) ( ( [ V V V V V ) V V m V V / k k k k f k < f < f 1 1 f < 1 , 1 ; 1 ; 1 1 ; ; ; 1 * ; # ; # ; # # ; # ; # # o # # o o # o # o # + o # o + o o + o o o o o o o . . o o o . o o . o . X o . o o . o   o . o   o . o   .     . . o   . . X o   PX",
"PX.   .         .   .     .     .     .   .   . .   .   .   .   . . . . . .   . . . . . . . . . . . . . . . . . + . . . o . . . . . + . . . + + + o + . + + o + # + o + + o + + + + + @ # + # % @ # * # # & @ & & 1 0 & & w & w w y 0 t w s t J J K J ^ ^ K J ^ R ^ ^ ~ ^ ^ R ~ ^ ^ r.R ~ R ~ ^ ~ ~ R ^ ^ ^ ! Q ! ~ R ! R 1.R 1.1.~ 1.1.~ 1.>.1.1.1.<.1.,.1.<.1.1.5.<.1.1.3.1.<.<.5.1.3.3.3.9.1.1.3.0.<.0.7.4.4.0.7.4.4.D.4.1.0.1.D.4.1.0.1.1.1.1.1.1.1.1.1.1.1.~ 1.1.1.1.1.1.>.1.1.,.5.3.<.>.3.4.3.4.5.5.5.3.3.6.3.3.5.7.3.3.6.<.3.<.7.7.7.<.7.6.9.7.7.7.7.7.7.7.o.w.o.7.8.o.w.o.8.+.8.8.o.&.o.o.#.o.#.+.#.#.#.#.#.#.#.} #.#.#.#.#.#.#.#.{ { #.{ #.{ ) #.{ { ) [ { [ [ ( ( ( ( ( V ( V V V V k V V k k k k k f f k f < < < 1 1 , 1 1 1 1 ; ; 1 ; ; ; ; # ; ; ; # ; # ; # # ; # o # ; # # # o o # o + o o # + o o o + . + . . o o . o   o o .   o . . o   o X . o . . X X .   o o . X . .   o o .     . .     .     PX",
"PX      .     .               .     .   .   .     .   .   .   . . . .     . . . .   . .   . . . . . . . . . . . . . o . . . + . + o . + o + . + + + + + . + + + + + + + + + # + # + + # @ @ # @ + @ # * * # * # * * * & * & & 0 0 w y w t t a a J J Y Y Y ^ R R ^ Y ^ R R ~ ^ ^ R ~ ~ ^ R ^ ~ R R ^ ~ T T R R R R R T ~ ! R ! ~ ~ >.>.~ 1.>.~ 1.1.>.1.1.1.3.1.<.1.1.1.5.<.<.3.5.3.<.3.<.<.<.3.3.3.3.7.0.<.0.1.4.1.0.1.1.w.0.1.1.w.1.1.1.D.1.1.D.D.1.~ 1.~ 1.~ 1.1.1.>.1.1.,.1.1.>.3.<.1.>.,.1.5.5.1.5.3.1.3.3.<.3.<.3.<.5.<.3.<.<.6.3.7.<.9.7.9.7.7.7.7.9.w.7.7.7.8.7.7.w.o.8.o.8.o.&.o.o.&.o.o.&.X.#.X.#.X.#.X.#.#.*.#.#.#.#.{ { #.#.{ #.{ #.#.#.) { #.) { { { { [ ) ( [ V V ( V V ( V k ) V V h V h V k k h k k f f f f < f 1 1 , 1 ; , = 1 ; ; ; ; ; ; ; ; # ; # ; # ; # # # # # # o ; o + # o # o # # o o o o + o o o o o + o . o o o . o o   o o   o . o o   o X . . . o     o . o   o   .   . o   X . . X   o PX",
"IX      .               .   .     .     .     . .   .   .   .   . . . . . . . . . . . . . . . . . . .   . . . . . . . . . . + . o + . o o + . o . + o + . + + + o + + + + o + + + + # + @ # # + # @ @ # @ % # * & @ * & w 0 & w w w 0 t p s t J J U U K R U T ^ R ^ R U R ^ K R ^ ~ R ^ ^ ~ R ! R J ~ ~ T ^ T ~ ! Y ! R ! R ~ T ~ >.T ~ R ~ 1.>.1.>.1.1.1.1.<.1.<.<.1.3.<.<.<.1.<.<.<.3.1.3.3.<.7.3.1.1.1.4.0.1.4.1.0.1.w.1.D.1.1.D.1.1.1.@.1.1.1.1.1.1.1.1.~ 1.1.~ 1.1.>.1.>.1.1.1.1.,.1.,.3.<.3.<.3.<.<.3.5.3.5.3.3.6.<.<.5.7.6.<.5.7.7.7.<.6.7.7.7.7.7.w.7.7.7.8.o.w.o.7.o.8.o.o.o.&.o.o.o.&.X.#.#.#.X.#.X.#.{ *.#.#.#.#.{ #.*.#.#.{ #.{ #.) { { { { { { { ) [ [ ) [ ( ( ( V ( V V m V k ) f V k k k k f f f f 1 f f , f 1 1 , 1 ; 1 ; ; 1 = ; ; ; ; ; ; # ; # ; # ; ; o # = = o # o o ; # o o # o o # o o # + o + o o o . + o . o o o o   o o .   o . o o . o   o     X . o o .     .   o   o . X .   .   .   o PX",
"PX    . .         .   .         .     .     . .   .   .   .   .   . . . . . .   . . .   .   . . . . . . . . . . . . . o . . o . . . + . . . + + + . + . . + . + + o # + + + + # + + # @ + + @ @ # + # # @ # * * * 1 * @ * & 0 & e 0 e w e 0 s a J J J J ! K K U R Y ^ R ^ R ~ R T ^ R R R ^ K R ! ^ ^ K ^ T ^ U R ^ R ~ ! ! ! R <.R 1.1.>.1.~ 1.! 1.1.>.<.>.1.<.,.1.<.>.1.<.<.<.3.1.<.<.<.7.1.3.<.0.3.4.4.7.1.7.1.w.1.1.1.1.1.w.1.w.1.D.1.1.1.D.1.y.~ y.~ ~ 1.>.R 1.>.1.>.1.1.1.,.>.<.1.5.1.1.5.>.5.>.3.5.<.3.<.<.<.<.3.<.3.7.<.<.7.7.7.6.<.7.7.7.7.7.7.7.7.7.7.w.o.o.7.8.w.o.&.8.@.o.&.o.&.#.o.o.X.X.X.#.X.X.#.#.#.#.{ { #.*.#.#.{ #.{ { #.{ *.] #.{ ) { ) { { ) [ [ ) ( ( V ( V V V m k V k k k k k k k f f f f f 1 , f 1 , 1 1 1 1 ; , ; ; = ; ; ; # # ; ; # ; o = # # ; o # o # o o o o o o o o + o + o o + o . o o . o o o . o o . . . o o . o o . X .   . . o . . o . o     o o . o o   . .   .   X . . X     PX",
"PX  .         . .           .   .   .     .     .   .   .   .   .   .     . .   .   .     .   .   . . . . . . . . . . . + . . . o . . o + . . . o . + + + . + . . + . + o + + o # o + + + + + # # @ + + % # # # * # * w & & & & e 0 0 p t 0 t t J J J J K ^ K R J ! R ! T ^ R ^ R ^ R ! R ^ ~ ^ U R T ^ T ^ K R T T R R R ! R ! ~ R >.~ 1.>.! 1.>.1.1.<.1.>.1.1.<.1.<.1.<.<.<.<.<.<.3.<.<.3.<.7.1.<.1.0.1.3.1.4.4.7.1.4.w.1.D.1.1.1.1.1.1.1.1.1.1.~ 1.~ 1.~ 1.~ 1.1.>.1.1.1.1.,.<.1.1.5.<.,.,.<.3.<.5.<.<.3.5.<.3.<.6.<.6.<.3.<.7.<.7.5.3.<.7.7.<.7.7.7.7.7.7.w.o.7.7.o.o.o.7.o.o.o.o.o.o.o.+.#.#.X.#.X.} #.#.X.#.{ { *.#.#.{ #.{ { #.#.#.{ { ] *.) { { { { { ) ) [ [ V V ( V V ) V x V V V m V k j k f f k k f f , 1 f 1 1 1 ; ; 1 ; 1 ; ; ; = # ; ; ; o ; # ; # ; # o o ; = o o o ; # # o o o + # o o o + o . o o o . o . . . . o o     o o . X o   o o o . o   o . X o   .   X . . X   . . X     . . . X . . o   PX",
"PX        .           .   .           .     .     .   .   .   .   .   . . .   . .   . .   . o   . . . . . . . . . . . . . . . . . + . . . o + . + . + . . + + + . . + o + + + + + + + + # # @ # @ # # @ @ + * * # * * @ & & 0 w e 0 y 0 p 0 p t t J J J Y Y T ^ ^ K K ^ ^ T ^ T ^ R ^ T ^ T ~ K R T ^ Y ^ T ! R ^ ! ! Y T ~ ! R R ! ~ ~ T ~ >.~ ~ 1.T 1.~ <.>.<.<.<.<.<.>.<.<.3.<.<.<.<.<.<.<.3.3.<.7.1.7.1.<.0.1.1.1.w.1.1.1.0.D.1.1.@.1.D.1.O.1.1.~ 1.~ 1.~ 1.1.R 1.~ ~ ,.>.1.1.,.>.1.>.3.>.<.<.,.<.3.<.>.3.<.<.5.<.5.<.<.6.<.<.6.<.7.7.7.7.<.7.7.1.7.7.o.7.o.7.o.w.o.w.o.&.o.o.&.&.o.&.o.#.o.#.X.{ #.X.{ X.#.#.{ #.#.#.{ #.{ #.#.{ { { #.#.{ #.{ { { ) { ) { [ [ ) [ ) V V ) V V V m j V k k k k k f k f f f f f 1 , 1 1 1 1 , ; , ; ; ; ; 1 ; ; # ; ; # ; # ; o ; ; # o # # # o o o o o o # o o o + o o o o + . + o . o . o o . o o . o . o o . o . .   o   X . o   . o . o . o   . .   .   o .   o   .   . o   IX",
"IX        .     .       .   .   .           .     .   .   .   . .   .   . .   . . .   . .   . . .   . . . . . . . . . . . . . . o . . . . . . + . + + + . + . + + o . + + + + + + + + + + + + # + + + + # + @ # * * * * * * & * & 0 e e 0 y p t a t s J J U J K T ^ ^ Y K ~ T ~ Y R ^ T ^ ^ R J ^ ! K J R J ^ J J R J R ~ J T R >.! R >.~ >.~ >.1.>.1.! 1.~ <.<.<.>.<.! ! <.<.<.<.<.<.<.<.<.<.7.7.<.1.7.1.3.1.1.1.w.1.o.1.1.1.~ 1.1.O.1.D.1.~ 1.~ 1.~ 1.~ ~ 1.~ R 1.~ 1.>.1.R 1.>.<.>.1.>.<.>.1.>.<.5.<.5.1.5.<.<.<.<.<.<.<.<.6.<.<.7.<.7.7.<.7.7.7.7.o.7.7.7.o.o.7.o.o.7.@.o.o.o.#.o.#.o.#.o.#.X.X.X.#.{ } { #.{ } #.{ #.{ *.#.#.#.{ #.{ #.) { { ) ) { { { ) ) ( V [ ( V ( V V V k V k k V k j k k k f f < f f < f 1 1 , d 1 1 1 = ; 1 ; ; ; = # ; ; # ; # ; o o ; o ; o o o o # o o o + o + o o o o o . o . o o o . o . X o .   o o X o . o   X . . o . o o   . . o   . X . o   . o   .   . .   o   . .   o       PX",
"PX  .         .       .               .   .         .   .   .     .   .   . .     . .   .     . . . . .   . .   . . . . . . . .   . . . o . . + + . . . + . + . . + . + . + o + o + o + + @ + + + @ # @ @ @ # @ * # @ # 1 0 w & 0 & w 0 0 t s t J t J J J J J J J K T ^ R K ^ K ^ J T ^ R Y R Y K T R E Y ^ T Y J Y ~ Y T R ! ! ! ~ ! ~ ~ >.<.~ ! ~ ! 1.>.<.<.~ ! <.<.<.<.<.>.<.<.<.<.7.<.<.<.1.1.<.3.1.1.1.7.1.1.1.1.1.1.w.1.1.w.1.1.1.1.1.1.O.1.~ 1.~ 1.~ ~ <.1.~ <.>.1.>.1.>.1.>.1.>.<.>.>.<.<.5.<.<.>.5.<.<.<.5.6.<.6.<.<.<.o.6.<.7.<.<.6.7.7.<.7.7.7.o.o.7.7.o.o.o.o.7.o.X.o.o.X.X.X.o.X.X.X.X...X.#.X.#.{ #.{ { #.{ #.#.{ { { #.) { { { { { { { { ) { [ [ [ ( ) V ( V ( V V ) h V V k k V k k k f k f f 1 1 1 f 1 1 1 : 1 ; 1 ; ; ; = ; ; # ; ; # # = # ; # o # o o # # o = o # # o o o o o + o . o o o o o . o o o .   o o . . . o   . o . . X   o   . o o   . o   o   . .     . X . . X .   .     .   .   X PX",
"PX  .     . .   .   .       .   .   .             .   .   . .       .   .   .     .   .   .   . . .   . . . . . . . . . . . . . . . . . . . . o . . . + . . . + + . . + . + + + + . + + + o + + # @ # # + # @ # # * * * # 0 @ & & w 0 0 0 y t p t s J J K J U K K J J K J ^ T ^ T T ^ J ^ Y U T K ^ K ! K Y R ^ ~ J J ~ Y R R ! ! T ~ T ~ T >.~ <.~ >.1.<.~ ! <.1.<.>.<.<.<.<.<.<.<.<.<.<.1.<.<.1.3.1.<.7.3.1.1.7.1.1.1.w.1.1.w.1.O.y.1.1.O.1.~ ~ 1.~ ~ ~ 1.1.~ T ~ R 1.~ >.1.>.>.1.>.! >.<.5.1.>.<.<.5.<.<.<.5.5.<.<.<.<.<.<.<.<.6.6.<.7.! <.7.7.7.7.! 7.o.7.o.o.o.o.7.o.o.&.o.o.X.X.o.X.X...X.X.#.X.X.#.{ #.{ { #.{ #.#.{ { #.{ #.{ #.{ { { { { { { { [ ) ) [ [ ) [ V V V V V V k V V k k k k f k f k f 1 1 f 1 f 1 , 1 , - 1 1 = ; ; ; = ; ; ; ; # ; # = = # o ; o # o o # o o o o o o o . o o + o o o .   o o . o   o   o . . o . o . o     o   . o   o X . . .   .   .   . . o . o .   . .   .   . .   .       PX",
"PX                        .               .   .     .   .       . .   .   .   . .   .   .   .   . . . . . . . . . .   . . . . . . . . . . . . . + . . . + . . + o . + . + . o + + + + o + + + + + + + + + @ # # @ # * * & * & @ 0 & & e e 0 y q t t J J J J J J ^ J R J J Y K ^ K ^ Y R T U R K T ^ Y K ! K J Y R J R ! K ! T ! R ~ T ~ ! ! ~ >.~ >.! ! >.! 1.>.<.! <.! <.! ! <.<.! <.<.<.<.<.7.<.7.<.1.1.1.7.1.1.1.w.1.1.1.1.1.1.1.1.@.~ 1.O.1.~ ~ 1.~ >.~ ~ ~ ~ 1.1.~ >.~ <.R 1.T >.1.1.>.<.>.<.>.<.>.<.5.>.<.<.<.:.<.<.<.6.<.<.! ! 7.<.6.o.<.! 7.o.7.o.7.7.! 7.o.o.o.o.o.o.o.X.o.o.X.#.o.X.X.X.X.X.X.X.{ { { { { } { { { #.*.{ { { { #.{ { { { ) ) { [ [ ( [ [ V ) ( ( V ( V V V h k k V k f k k f f f f f f 1 1 1 , , 1 1 = , ; ; ; ; ; = = ; # ; # o # ; o # o ; o # o o o o o o o + o o o o o o . o o o . . X . o . o . o o   o   X . o . . o X . .   . o     o   . X .       .   X .     .     o   .   . o   PX",
"PX  .                   .   .   .                     .   .   .   . .   .   .     .   .   .   .   .   . .   .   o   . .     . . . . . . . . . . . . . + + . . . . . . . + . + . + o o + + . o + + @ + + + # # + * @ # * * * 1 @ * w 9 w y 0 t p s t t J J J J K Y J K ! K R Y T ! K K J K K T K K Y K J Y K Y K J ~ J K R Y ! R ! T T ! R ! ~ ! ! >.>.! <.~ <.~ ! ! <.! <.<.! <.<.! ! <.<.<.<.<.7.<.1.7.1.<.1.1.7.1.1.1.O.1.1.1.1.@.1.O.1.O.1.~ 1.~ ~ <.~ ~ 1.! ! ! >.~ ! >.1.<.~ <.>.<.>.>.<.>.>.<.<.<.<.<.5.T <.5.<.<.<.:.! <.<.<.<.o.<.o.<.6.6.7.W 7.o.7.o.o.o.o.o.o.o.o.o.o.o.X.X.o.X.X.o.X.X...X.X.{ X.{ #.#.{ #.{ { #.{ { { #.{ { { ) { ) { { [ [ [ [ ( ( ( ( V ( ) V ) V V V m k k k k k f k f f 1 f < , f , , 1 = 1 = 1 ; 1 = = ; = = ; ; ; # ; ; = # = # = o o # o + o + o o o . o o o o o o . o . o o o   o . o o . o o . o . o     o   o   . X .     o   X .   .   o .   o   .     o   .   . .   .   X   PX",
"PX        . .   .   .       .         . .   .   .       .   .         .   .   . .   .   .   .   .     .   . . o   .     . . X . . . . . . . . . . . . . . . . + . + + . . + + . + + + + + + + + + # + + + + @ @ # # @ * * * & @ & 0 e 0 0 0 w 0 p t s t s J J J K J Y K Y ^ U K K J ^ R Y ^ Y ^ ! K ^ T J ^ Y J Y J T ! J ! K ! T ! ! R ~ T T ! ! ~ ~ <.! >.! <.>.<.<.>.T <.<.! <.<.<.<.<.<.o.<.<.<.<.~ <.7.1.1.1.7.1.7.1.7.1.@.1.1.1.~ ~ 1.O.~ ~ ~ ~ 1.<.~ ~ >.R 1.~ >.1.R R >.>.>.~ >.>.<.>.<.5.! >.<.T <.<.<.5.F <.F <.<.<.D ` 6.D <.<.o.` 7.o.! 7.o.<.` o.7.7.o.o.|  .o.X.X.X.o...X.X.X.X.| X.X.{ X.{ { } { { { { { { { { #.{ { { { { { { { [ [ ) [ ) [ [ ( [ V ( V V V k V j V k k k k k k f f k f k 1 f 1 , 1 1 f 1 - 1 = ; = ; ; ; = # = # o ; o o # # o o # o # o o o o o o o . o o o . o . o o o   . o . o . X . X .     .   o . . o . o . . X .   o . . . . . o   .     .   .   . .   o   .     .   o     PX",
"IX  .                 .           .           .     .     . .   .   .   .   .     .   .   .   .   . .     o .   . . . . . o . . . . . . . . . . . . . . . . + . . . . . . + + + . o + + o . + + + + + + + @ # + * # # @ # * @ * & & 9 e 0 e p q p t a J J t H J J K K J Y K K U J R K ! ^ Y J J Y K K J R J T J Y K K ! Y R J T ! T ! ! Y ~ T R T ! ~ ! ! ! >.T ! <.! <.<.! ! <.F <.! <.<.<.<.<.<.1.Q 1.1.o.<.o.<.1.~ 7.~ 1.1.1.O.1.O.1.1.O.1.1.1.1.~ ~ ~ >.~ ~ ! ~ ~ >.>.<.! >.>.~ ~ >.>.T ~ >.>.<.>.<.5.<.5.<.<.5.<.<.6.! <.! 7.! <.6.<.6.! 6.W 7.` 7.7.o.| 7.o.Q o.o.o.o...o.X.o.o.X.X...X.X...X.{ { X.{ #.{ #.{ { { { #.{ { { #.{ { { { [ { ) { [ ) [ ) V [ V ) [ V V V V m V j V k f k k f k k f f 1 f 1 1 , , 1 = , 1 = 1 ; ; ; = ; = # = # ; # = o ; o ; o o # o o o o o o o o o o O o o o . . o . o   o o . o . . X o     o . o o   . X o     o   o . X     .       o . o   .   .     .   .   . .   .   .   IX",
"PX.       .     .       .   .       .   .       .     .   .   .   .   .   .   . .   .   .   .   . .   . . .   . .     .     .   . . . . . . . . . . . . . . . . + . + . . . . + + + + . + + + . + @ # + + @ # + @ @ @ * * * * * * * 0 & 0 0 y 0 q s q t t s J J J J K J J K J J K J K J K K Y K U K Y J K J K ^ Y Y J K Y J R ~ R Y R Y ! T ! ! >.! <.T <.! ~ <.! >.! ! <.F <.<.F <.<.<.! ! <.<.<.7.<.<.<.1.1.7.1.7.~ 1.1.7.~ o.1.~ 1.O.~ ~ ~ ~ ~ Q ~ ! ~ ! ~ ! ~ <.~ ~ ~ ~ >.~ <.>.>.! <.<.>.<.>.<.<.>.<.Z <.F <.F 5.F <.F <.6.! 6.! ! ` <.o.! 7.W <.o.| ! o.| o.o.| o.o. .o. .o...X.X.X.X...X. .{ { X.{ { { { { { *.{ { { { { { ) { { ) { { { ) [ [ ( [ [ V ( [ ) V V / V V V V V k k k k k k f f f 1 f 1 , 1 , 1 1 1 1 1 = = ; ; ; ; = ; = = ; o = # # o # o # o o o + o o + o + o . o o . o o o o . o . o . o X . o X . . o o . X   . o o   . o .   . o   . o . X . . .   .   .   .   o .       o     o   .   X PX",
"PX          .       .       .                 .     .   .             .       .       .       .   .   . .   . .   . .   . .   . . . . . . . . . . . . . . . . . . . + . . + + . . + . + + + + + o + + + + + # @ * + * * @ * * * * * * 0 e 0 0 e p t q t t t H a J J J K t K J K J K J J K J J K J J J J J J J J T J K T J J T Y Y T E R ! ! ! T T ! <.! ! T T <.>.! <.T ! >.F <.F <.<.! <.<.! <.<.<.o.<.1.7.! 1.7.7.~ <.1.<.O.1.1.~ ~ 1.Q 1.~ 1.~ ! ~ ~ R ! ~ ! T ~ ! R <.T >.! T >.! >.<.! <.T >.<.<.>.<.! <.Z 5.F <.5.F F <.F F <.! 7.F 7.! 6.` 7.W ` 7.o.! o.o.| | o.o.o.o.| | X.X... .X.{ | [ { { { { { { { { { { { { { { { { { { ) { ) [ { ) [ [ ( ( ( U ) [ V V V V V V V j k k k k f k f k f f < 1 f , 1 1 ; ; , 1 = = 1 1 = ; = ; = = o o ; o ; o o ; o o # o o o o . o o o . o . o o . . o X o .   o o X o . . o   o . o     . X o .   . . X . . X .   .     .     .   X   X     o   o o   X     o   o     PX",
"PX  .   .   .   .     .   .             .         .           .   .     . .     . .     . .     .   .     .   .   . .     o .   . . . . . . . . . . . . . . . . . . . . . . . + . . + + . . + . . + o + + o + + + + + * + * * * 4 0 & 0 0 4 0 t 0 q t s t t t J H J J J J J J t J K J K J J J K J J K J K J J J J J J Y J T K Y ^ Y Y T T K Y ~ ! ! T T ! ! ! ! ! ! <.! <.F <.! Z <.<.F F <.<.! ! <.<.! <.~ 7.1.~ 1.7.~ O.1.1.~ Q 1.O.Q ~ ~ Q ~ ~ ~ ! ~ ! ~ ! R ! ! ~ T T ~ T ~ <.T >.! ! >.>.! >.! <.S Z 5.! 5.F <.F <.F <.<.F ! 6.E 6.<.` ! Q <.` o.! ! | o.| | o.o.| Q | o.| o.X.| o...| X.| { { { { { { { { { { { { { { { { { { { { [ [ [ [ ) [ ( [ V [ ( V V [ ( V V V V k k V k k k k f k f w f f f , 1 1 , 1 1 = = 1 ; = = = ; = = ; ; o # = # o o # o # o o + o o o o o o . o o o . . o o . . o o . o . . o o   . o   . . o o . .     .   .   O   . o     o .   . o   .   .                   .   X         PX",
"PX      .     . .                         .   .         .   .   .     .   . .     .   .   .   .   .   . .   .   .   . .   . .   . . . .   . . . . . . . . . . . . + + . . + . . + . + . + . + + + + + + + + + + + * @ + @ + * * * * 9 * 9 e 0 e p t w t s t s t t J H t t J K t K t K J K J K J H J t J J J H J J J J T T J Y ! Y T J ! K ! T Y T ! ! ! >.! ! T T ! T ! F <.<.F <.T F <.! <.! <.! 7.Q <.<.~ <.! <.o.1.Q ~ <.1.O.~ 7.~ 1.1.Q ~ ! ~ ! ~ ! ~ ! ~ ! R R >.! 1.T >.! >.! ! >.>.>.! >.Z F >.<.5.<.<.Z S <.<.F <.<.F <.D <.D <.<.D 7.D <.o.! 7.o.| ! o.o.o.W o.o.| | X. .| | X. .X.{ [ [ { { { { { { { { { { { { { ) { { [ { [ [ [ [ ( [ [ ( [ [ V ( V V V V V V V V V k k k k k 1 1 k 1 f < 1 1 1 1 , ; 1 ; 1 ; ; ; ; ; ; ; = ; o = o ; # # o o = o o + o o o o o . + o o o . o o . o . . o . . X   o X . X . . X . o   X .     . o   . X   . . o . . .     .   . .     o   o X   X   X   X           X   PX",
"PX                .   .   .   .                   .   .         .     .       .       .       . .   .     .   .   . .   o   . . .   . . . . .   . . . . . . . . . . . . . . . + . . . + o + . + o + . + o + + + + * + * @ * @ * * * * r e e 0 0 0 0 q t t q t a t J s J J s K J J t J J s J t J J J J J H J t J J J J J J J Y K Y Y T J ! T ! Y ! Y Y ! T ! ! Y F T <.F >.! Z <.F <.<.! <.D <.! <.! <.<.o.<.o.1.~ 1.! 1.o.1.! <.~ ~ O.<.~ ~ ~ ~ ! ~ ! R ! ~ ! R ! ! ! ~ T ! T ~ ! T >.! T ! >.! <.>.<.T Z T F 5.<.Z <.<.<.F <.G <.D <.D D <.o.! F o.` D ` 7.o.| | | o.| | o.| | ..| X.| { | [ { { [ { [ { [ { [ [ { { { ) { { { { { ) { [ [ [ [ [ ( [ V ( ( ) U ( V ( V V V k k k k k k k f k f k 1 f 1 f 1 , 1 1 ; 1 ; = 1 ; ; ; = = ; = ; o ; o # = = # o # o o o # o . o o o . o o o . o o . X o   o o . o . . o . o X . o   o .   o o X . . .   o . O     O   o o   .     .         o     .     o   o     o   . PX",
"PX                  .   .   .                 .     .             .         .   . .       .       .     .   .     . . . . .   . . . . . .   . . . . . . . . . . . . . . . . + . + . + . . + . . + . + + + + + + @ + @ @ @ + $ @ * 4 * * * 0 0 e t 0 t t w t t s s J q J J t J J H J t a K J J t J J K t t J t J J J J J J J J T K Y Y R Y Y ! ! T Y ! T T ! T <.<.T Z <.Z <.<.F F <.! F F F <.<.<.W <.! ! 7.! 7.7.! <.~ 7.~ ~ ~ <.! 1.Q ~ ! ~ ! ~ ~ ! ! R ! ! ! T ! ! ! R ! T ! >.! T T T <.! >.<.! >.<.<.<.F 5.T <.F F <.F <.F ! 6.<.D <.<.D <.<.` o.o.D o.o.` | o.| o. .|  .|  .| ..| { { [ [ [ { [ { { { [ { { [ { [ { { { [ [ [ [ [ [ [ ( [ [ ( [ V V ( V ( V V ( V V V V k k k k f f k k f 1 1 k 1 1 1 1 1 1 = 1 = ; ; 1 ; = ; ; = = = o o o # o o o o o o o o . o o . o o o . o o . o o   o X . X . X . o . o     . o o   .     o     o   .   o   O   .   .   .   .   .   X   X     o     .         X         PX",
"PX            .                         .         .       .   .     .   .             .   .   . .   .     .   . .           .   . .   . . . . . . . . . . . . . . . . . . . . . . . . . . + . + . + . o o + + + + + + + * @ * * * * * 9 9 & 0 0 0 y 0 0 q q t t t t t J t H t J J s J H t s J K H t t J J J J J t J J J Y J Y J T Y J E T Y Y T Y ! ! Y Y <.! Z ! F ! T <.Z S <.<.A <.<.<.! ! ! ! <.! 7.1.! <.! 7.~ ~ o.1.! 7.~ ~ O.~ ~ ~ Q Q ~ ! ~ ! ~ ! ! R E ~ ! R K ! T T R T ! <.T >.Z >.F S >.F S Z T <.Z <.F F 5.Z 6.F <.F F D <.D D D ` F o.D ! ! | W ! |  .| | ..| X.| [ |  .{ [ { [ [ [ { { [ [ [ { [ [ { ) { ) { [ [ [ ) [ [ [ ) [ [ ( [ ( [ [ V V V V V V V V j k V k k k k f f f f 1 f 1 1 , 1 , = = 1 ; ; = = = = ; ; = ; ; o o = ; o o # o o + o o + o o o o . o . o o   o . o o . . o . X . .   o   o .   .   o X o .   . . . .   .   . . o   .   .   .   .   o   . o     X   X X   X         X     PX",
"PX      .       .                         .   .         .                   .   .   .   .         .   . .   .     .   .   .   .   .   .   .   .     . .   .       . . . . . . . . . + . . . . . + . . + + + + + + + @ + + @ @ $ @ * * * * r & 0 0 0 0 q t t q t q t q t t t s H J J t J t J J t a t J s t J t t J J J t J J J Y Y T T J Y Y Y ! ! Y T E T F Y <.T Z T ! Z <.F F A ! ! ! <.F F <.<.! ! ! Q <.7.! ! Q <.1.Q ~ ! <.1.Q o.! ! ~ ~ ! ^ ! ~ ! ~ ^ R ! ! Y ! ! ! T ! T T ! T ! ! Z T >.>.F F <.Z ! Z <.5.Z <.F <.F ! F <.F F D <.D <.D W W ! F o.D | o.| | |  .| | | | [  .[ { [ [ [ [ [ { [ [ [ { [ [ [ [ { [ [ [ [ [ [ [ [ ) [ [ V ( V [ [ ( V ( [ V ) V V V V k k k k k f f k f f w 1 k f 1 1 1 ; 1 1 ; 1 = ; 1 = ; ; ; o ; o = o ; o # + o # o o + o o o o . o o o . o o     o . . o   . o .   o   o . o   o   X . .   X . o     o       .   .     .   o   o   .   X       .     X   X               X PX",
"PX                        .                       .   .       . .   .   .           .       . . .   .     .   . .   .   .   .   .   . .   . o   . . .   . . o . . . . . . . + . . . . . . + . + . + + . + . + + + + + @ + * @ @ * * * * * * * 0 0 0 p 0 p 0 t q q t J t s J t t t t H t H t q J s J t J t t t J S t J Y J J Y J J J Y Y Y T Y Y Y Y Z T ! Z T Z F <.F ! F T Z <.5.F Z <.F <.F ! W ! <.! <.Q ! <.! 1.Q ! ! 7.~ Q Q ~ ! ~ ~ ! Q ~ ! Q R ! Y ! ! ! E R R ! T ! T ! T ! T >.Z >.<.Z F >.>.Z 5.S <.S Z <.Z Z 5.F F <.6.F <.D D <.` ! W 6.` o.W | | W | | | | | | | | { [ [ [ [ { [ [ [ [ [ [ [ ) { { [ [ [ { { [ [ [ { ) [ [ [ ( [ [ [ ( V ( [ V ( V V V V V V V k k f k k f f f f f 1 1 f 1 1 1 1 1 = 1 ; = ; ; ; ; = = ; = ; o o o = # o o o o o o . o . o o o + o o o . o . o o o . o o   o o . o   o . . X . .   . . . .   . .   o   .   .   o     .   .   .   .     o     X   .       .   o         PX",
"PX                                                    .     .         .   .               .     .     .   .   .   .   .   .   .   .   .   . . .   . o   . .   .   .   .   o . . . . . . . . . . + + . + . + + + + + + + + + @ + @ * * * * 0 * r 9 0 0 r 0 t 0 t q t s t t s t q H J q t t t J t t H a t t a t s t a J t a J J J J Y Y Y Y Y Y T Y Y ! Z ! Z T ! Z ! <.Z <.F T Z F Z F 5.F Z ! F ! 7.! ! ! ! ! W ! ~ ! ! ! ! Q ! ! Q ! Q ~ ~ ! Q ! R E E ! ! ^ Y ! Y ! R ! J T R Y ! T T ! Z T >.T T F 5.S ! S <.F F <.A ! F :.F E F <.F F <.` ! D ` o.D | W | o.W W | | | | | | [ [ [ [ [ [ [ [ [ [ [ [ [ [ [ [ [ [ ) [ [ [ [ ) ( [ [ [ ) U [ [ V ( [ ( V V V ( V V V V k k k k k k 1 k f f 1 f f 1 1 1 1 1 1 1 = 1 = ; 1 = ; = ; ; = o o o o o o o # o o o o o o . o . . o o . o . o . o . X   o o   o o .     o o   . .   o . X .   o   .   .   .   .   .   . o     .     .     X   o           o   X           o PX",
"PX                                X     .   .   .       .       .           .   .   .       .       .   .   .   .   .   .   .   .   .     .   . .   . .     .     . . . . . . . . . . . . . . . . . . . + + + + + + + + @ + @ @ + * @ * * * 0 * 0 & 0 0 0 t q y t q 0 t t t t t a t t s t H s t t t J s q t J t t J t J J J J A Y J Y J J Y Y Y Z Z Z T F T F T >.Z Z F S A <.! <.F ! Z F <.F <.! ! F <.! o.<.! ! <.Q 7.~ ! ~ ~ ! ~ ~ ! Q ! Q ! Q ~ Q R ^ Y ! T J ~ Y Y ! T ! T Y T T ! T T ! Z <.S T Z <.F <.S S <.5.F F F E F F F F D D <.D D F ! ` ! W ` D W | | | | | | [ | P [ [ [ [ [ [ [ [ [ { U [ [ [ [ [ [ [ [ [ ) [ [ [ [ ( ( [ ( ( [ ( [ V V V ( V V V V V V k V V k f f k 1 k f f f f 1 1 1 1 1 ; 1 1 = = ; ; = ; = = o = ; o o o = # o o o # o . o o o o o o . . o . X   o . o o .   . . .   X o . .     o X .   o .   .   .   o   .   o   .   .   .   .   o     .             X             X       O IX"
};
