/* XPM */
static char *Wall_Block[] = {
/* columns rows colors chars-per-pixel */
"20 20 44 1 ",
"  c #727573",
". c #787B72",
"X c #7A7F7C",
"o c #7E8181",
"O c #838682",
"+ c #888A84",
"@ c #8A8E8A",
"# c #8F9291",
"$ c #949691",
"% c #969993",
"& c #9A9C96",
"* c #979B99",
"= c #9C9E99",
"- c #9CA29B",
"; c #A2A49F",
": c #9FA2A0",
"> c #9FAAA0",
", c #A4A6A1",
"< c #A6A8A4",
"1 c #AAABA6",
"2 c #ACAEA8",
"3 c #A8B0A7",
"4 c #ADB2AC",
"5 c #B1B3AE",
"6 c #B4B6B1",
"7 c #B6B9B4",
"8 c #B9BAB6",
"9 c #BCBEB9",
"0 c #B7C1B7",
"q c #BEC1BC",
"w c #C1C3BE",
"e c #C4C6C1",
"r c #CACBC7",
"t c #CCCDC9",
"y c #C8D0C7",
"u c #CFD4CE",
"i c #D0D2CE",
"p c #D4D6D2",
"a c #D7D9D5",
"s c #D9DAD6",
"d c #DCDDDA",
"f c #DEE0DC",
"g c #E1E2DE",
"h c #E6E6E3",
/* pixels */
"7wuddsaaaaaaaaddfffa",
"8qtpsddasaaaasdggfsa",
"9qetsddasaaasddghfsu",
"qqwesddasaaapddghfpy",
"w09wdgggddssppsdgpw0",
"w98qaggaaiitrrrruw04",
"w98qpsaitew98666753>",
"wq9qiitw9852<,,,<>--",
"ww98ee851,:&%%&=;;;-",
"w986862,=&%$$$&=;,-&",
"ww8621;&&$$$$%&=,,:*",
"w9861;=%$$%%$==;<,::",
"w985<;=&=&====;<<<::",
"99852;;;;;;;;,<12<:*",
"988622<<<<1111112<:*",
"88662222222222212,:*",
"5655211112222211<;*#",
"211,==&====&&&&$$#@O",
"<;=&++++++++++OOOoXX",
";=$+X...........    "
};
