/* XPM */
static char *z_mino[] = {
/* columns rows colors chars-per-pixel */
"20 20 111 2 ",
"   c #9F0E2E",
".  c #97102D",
"X  c #98102D",
"o  c #9C112F",
"O  c #9F1231",
"+  c #A00D2E",
"@  c #A30D2F",
"#  c #BC032F",
"$  c #BE032F",
"%  c #A60D30",
"&  c #A80D31",
"*  c #BC0631",
"=  c #B10830",
"-  c #B70A32",
";  c #B30C33",
":  c #B00E34",
">  c #B80831",
",  c #BA0831",
"<  c #BA0C34",
"1  c #AB1337",
"2  c #B21337",
"3  c #BC173F",
"4  c #B91838",
"5  c #C60B37",
"6  c #C7113C",
"7  c #C8113C",
"8  c #C9113C",
"9  c #C8133F",
"0  c #CE113D",
"q  c #CF113D",
"w  c #CD123E",
"e  c #CF133F",
"r  c #D0133F",
"t  c #D1133F",
"y  c #935129",
"u  c #956927",
"i  c #916828",
"p  c #956A29",
"a  c #966A2A",
"s  c #B71C41",
"d  c #BB1B42",
"f  c #BF1842",
"g  c #BE1942",
"h  c #B91C40",
"j  c #BC1C42",
"k  c #BD1E44",
"l  c #B12142",
"z  c #B32445",
"x  c #B52444",
"c  c #B52445",
"v  c #BD2045",
"b  c #BC2145",
"n  c #B82B4B",
"m  c #BD3251",
"M  c #C01742",
"N  c #C11742",
"B  c #C71641",
"V  c #C81642",
"C  c #CE1440",
"Z  c #CC1641",
"A  c #CE1641",
"S  c #C11842",
"D  c #C41F47",
"F  c #CE1842",
"G  c #C91F47",
"H  c #CC1C45",
"J  c #CA274C",
"K  c #CC264C",
"L  c #C12848",
"P  c #CB3154",
"I  c #C33857",
"U  c #CB3B5B",
"Y  c #CC3A5B",
"T  c #D03658",
"R  c #CE4160",
"E  c #CD4362",
"W  c #C64C66",
"Q  c #D24D6A",
"!  c #D04F6A",
"~  c #D1526D",
"^  c #D5506C",
"/  c #D05571",
"(  c #D35570",
")  c #D35972",
"_  c #D75974",
"`  c #D25E77",
"'  c #D45C77",
"]  c #D75C76",
"[  c #D65F78",
"{  c #CD6379",
"}  c #CC6C7F",
"|  c #D3617B",
" . c #D4657C",
".. c #D4667E",
"X. c #D4687F",
"o. c #CB6C80",
"O. c #D56980",
"+. c #D36C81",
"@. c #D27285",
"#. c #D37688",
"$. c #D3798A",
"%. c #D37D8D",
"&. c #D47D8E",
"*. c #D38190",
"=. c #D48291",
"-. c #D38493",
";. c #D58896",
":. c #D58A97",
">. c #D58C98",
",. c #D5919C",
"<. c #D5949E",
/* pixels */
"i m ( _ _ ' | [ [ [ [ [ [ [ [ [ | ' ! n ",
"p j I ` O.O.X.X.O.O.O.X.O.O.O.O.X.( L 2 ",
"u 4 z { >.>.:.>.>.;.>.>.;.;.;.;.&.W < - ",
"u 4 z o.<.,.,.,.>.;.;.=.=.=.=.=.&.W < # ",
"p h c o.,.>.-.*.$.@.@.+.} ..) ^ E L - > ",
"p h v { &.#.+.+. .` ! Y P K F t t 5 # > ",
"p f k ~ O...| ( Y K H A e t t t 0 5 $ > ",
"p S k Q ' Q U J A 0 t e t e t e 0 5 $ , ",
"p S 3 R T G 9 0 t t t t t t t t r 5 $ , ",
"p S d D Z t t t t t t t t t t t r 5 $ , ",
"p g f A 0 t t t 0 t t t t t t t t 5 $ > ",
"a S f B A t t t t 0 t 0 0 t t t t 5 $ > ",
"a N g Z Z e t t 0 t 0 0 0 t t t t 5 # > ",
"a g f V 0 t 0 t 0 0 t t 0 0 t t r 5 $ # ",
"a f f V Z t 0 t t 0 0 t 0 t 0 t t 5 # > ",
"a N f Z 0 t t 0 t 0 0 t t 0 t t t 5 $ : ",
"a d g 6 6 6 7 7 6 6 6 9 7 7 7 7 5 * # > ",
"i s 1 % % @ @ +         @ @ & + & @ = > ",
"p 1 O O X X X . . . . . X X X X X X & : ",
"y b z z b z z z x x c c c c x x c c v l "
};
